/* XPM */
static const char *BRICK_4A1765716855[] = {
/* columns rows colors chars-per-pixel */
"64 64 23 1 ",
"  c #1E0707",
". c #2B1F1B",
"X c #332016",
"o c #232322",
"O c #3C2C24",
"+ c #342C28",
"@ c #4D352B",
"# c #5B402F",
"$ c #495254",
"% c #67635E",
"& c #77746B",
"* c #878078",
"= c #9E977B",
"- c #868B80",
"; c #999183",
": c #A7A18B",
"> c #B4B6AF",
", c #BDBDAF",
"< c #AEB4B0",
"1 c #BEC3BF",
"2 c #BEC3BF",
"3 c #AEB4B0",
"4 c #B4B6AF",
/* pixels */
"&O&&>>&>&&&&OOOOO&O&>>>&>&&&&&&&&O&OOOO&&&&&OOOOO&O&OO>&>&&&&&&&",
"-*@++>:4122--2::-*@++><4122--@,,-*@++&:41<<------*@+O>&:43:::@,,",
"*@*@X&3=****-:***@*@X&3=***-=,=**@*@XO3=***-==***=*@X&><=***-,=*",
"**@*o&:****==*****@*oO:***-=*=****@*o&:***-=****=***o>:,***===**",
"****X&+@***;+*******X&+@***;+*******XO:**:**=;+++@*@XO*@***;+***",
"***@X&@****++******@X&@**;+++******@X&@**;++*+@+**@@XO@*@**++***",
"+**+X&@++*@oo**++**+ &@+++++@**++**+X&@++++@**+*+@*+XO+@**@oo**+",
"ooXXo>+XXXXXooooooX o> XXXoXo  XooXXo>+XXXooooooooXXoO+XoXXXoooo",
"OO&O&&OO&&O&OOOOOO&O&&O>O>&OOOO&&&&&&&OOOOO&O&&OO&O&&&&&&&&O&&&O",
":<::::+:$+++@@+>-:----o@@**@+oo&:433,::$$+++@@>>:4<,,:,----*@++>",
",=*****-:*+@@*X&:=@@@@@@@=@=@+ O<---**-:**+@*+X><**:=*==***=*@X&",
":**-*******@*@X>-@@*@@@@@@@@@@X&-*-*=-*******+X&@@*@******=***o>",
"+*@****@**+@*@o&-=@@@@@@ooo+@+ &-==*=*****@**@XO+*@****;+++@*@XO",
"+@*@*@***@+*@*X&+@@@@@@++o@@++ >*=*=**@**@****oO+@*@***+@+**@@X&",
"++@*@*@**@+@@+X&o+@ooo@oo@o+@o &@****+********XO++@*@***+*+@*+XO",
"+XXXoooooooXX o>o X XXX XXXX  X>&XoXooXo.ooXX oO+XXXoXooooooXXo&",
"OOOOO&O&>>>&>&&&&&&&&O&OOOO&&&&&OOOOO&O&OO>&>&&&&&&&&O&&>>&>&&&&",
"*:--*@+o+>:4122--@,,-*@++&:41<<------*@++>&:43:::@,,-*@++>@3:::*",
"*-@@@+@+ &3=***-=,=**@*@XO3=***-==***=*@X&><=***-,=**@*@X&:=@@@@",
"=@@@@@+@XO:***-=*=****@*o&:***-=****=***o>:,***===****@*o&-@@@@=",
"o@@@@@@@ &+@***;+*******XO:**:**=;+++@*@XO*@***;+*******X&o+@@@*",
"o@@@@@@+ &@**;+++******@X&@**;++*+@+**@@XO@*@**++******@X&+@@@@o",
"X@@oo@@o &@+++++@**++**+X&@++++@**+*+@*+XO+@**@oo**++**+X&+oo@+X",
"XXXXXX  X>+XXXoXo  XooXXo>+XXXooooooooXXoOXXoXXXooooooXXo>o     ",
"&O&&&&&&&&O&&&OOO&O&&OO&&O&OOOOOO&O&&O>O>&OOOO&&&&&&&OOOOO&O&&OO",
"4<,,:,----*@++>-@----o-$ooo++o>:<::::+**--*@++&-3::,--$$ooo++o>:",
"**:=*==***=*@X&,=@@@@@*-@o++@ &,=*******=*=*@XO@***@@*-@@o+@o ><",
"@*@******=***o>-@@*@@@@@@@+@+ >:**-**********o&*@*@=*@@@@@@@o &@",
"*@****;+++@*@XOo@+@@@@+@@o+@+X&:=******+++@*@X&*==@=@@@@@+@@+ O+",
"@*@***+@+**@@X&o+@+@+@@@+o@+@ &@******@@+**@@X>@=@=@@+@@+@@@@XO+",
"+@*@***+*+@*+XOoo+@+@+@@+o++o &+@*+++*++*+@*+X&+@@@@o@@@@@@@@ O+",
"XXXoXooooooXXo&o   XXXXXXX   X>oXoXoooXooooXXo>o X XX X.XX   XO+",
"O&&>>&>&&&&OOOOO&O&>>>&>&&&&&&&&O&OOOO&&&&&OOOOO&O&OO>&>&&&&&&&&",
"*@++>-3:::**:--*@+oo><4122--@,,-*@++&:41<<------*@+O>&:43:::@,,-",
"@*@X&:=@@@@*-@@@+@+ &3=***-=,=**@*@XO3=***-==***=*@X&><=***-,=**",
"*@*o&-@@@@==@@@@@+@XO:***-=*=****@*o&:***-=****=***o>:,***===***",
"***X&o+@@@*o@@@@@@@ &+@***;+*******XO:**:**=;+++@*@XO*@***;+****",
"**@X&+@@@@oo@@@@@@+ &@**;+++******@X&@**;++*+@+**@@XO@*@**++****",
"**+X&+oo@+XX@@oo@@o &@+++++@**++**+X&@++++@**+*+@*+XO+@**@oo**++",
"oXXo>o     XXXXXX  X> XXXoXo  XooXXo>+XXXooooooooXXoO+XoXXXooooo",
"OOO&O&&OO&&O&OOOOOO&O&&O>O>&OOOO&&&&&&&OOOOO&O&&OO&O&&&&&&&&O&&&",
">:<::::+:$+++@@+>:<::::+**--*@++&:433,::$$+++@@%>:4<,,:,----*@++",
"&,=*****-:*+@@*X&,=*******=*=*@XO<---**-:**+@*+X><**:=*==***=*@X",
">:**-*******@*@X>:**-**********o&-*-*=-*******+X&@@*@******=***o",
"O+*@****@**+@*@o&:=******+++@*@X&-==*=*****@**@XO+*@****;+++@*@X",
"&+@*@*@***@+*@*X&@******@@+**@@X>*=*=**@**@****oO+@*@***+@+**@@X",
"O++@*@*@**@+@@+X&+@*+++*++*+@*+X&@****+********XO++@*@***+*+@*+X",
"&+XXXoooooooXX o>+XoXoooXooooXXo>#XoXooXo.ooXX oO+XXXoXooooooXXo",
"OO&O&>>>&>&&&&&&&&O&OOOO&&&&&OOOOO&O&OO>&>&&&&&&&&O&&>>&>&&&&OOO",
":-*@+@>:4122--@,,-*@++&:41<<------*@++>&-3:---+,,*@+oo><4122--2:",
"**@*@X&3=***-=,=**@*@XO3=***-==***=*@X&>@=@@@*,=@@+@+ &3=****-:*",
"***@*oO:***-=*=****@*o&:***-=****=***o>-,@@@===@@@@+@X&:****==**",
"*****X&+@***;+*******XO:**:**=;+++@*@XO@+@@@*o@@@@@@@ &+@***;+**",
"****@X&@**;+++******@X&@**;++*+@+**@@XO+@+@@oo@@@@@@+ &@****++**",
"++**+ &@+++++@**++**+X&@++++@**+*+@*+XOo+@@+XX@@oo@@o &@++*@oo**",
"oooX o>+XXXoXo  XooXXo>+XXXooooooooXXoO  X   XXXXXX  X>+XXXXXooo",
"&&&&OOOOO&O&&OO&O&&&&&&&&O&&&OOO&O&&OO&&O&OOOOOO&O&&O>O>&OOOO&&&",
"33,::$$+++@@+>:4<,,:,----*@++>:<::::+:$+++@@+>-@----o@@**@+oo&:4",
"--**-:**+@*+X><**:=*==***=*@X&,=*****-:*+@@*X&,=@@@@@@@=@=@+ O<-",
"-*=-*******+X&@@*@******=***o>:**-*******@*@X>-@@*@@@@@@@@@@X&-*",
"=*=*****@**@XO+*@****;+++@*@XO+*@****@**+@*@o&-=@@@@@@ooo+@+ &-=",
"*=**@**@****oO+@*@***+@+**@@X&+@*@*@***@+*@*X&+@@@@@@++o@@++ >*=",
"***+********XO++@*@***+*+@*+XO++@*@*@**@+@@+X&o+@ooo@oo@o+@o &@*",
"oXooXo.ooXX oO+XXXoXooooooXXo&+XXXoooooooXX o>X X XXX XXXX  X>+X"
};
