/* XPM */
static char *b43fac86805e417e87d83b1d7c52e0ffSQtKTEFAK1Ng8cb4[] = {
/* columns rows colors chars-per-pixel */
"277 273 218 2 ",
"   c #000100",
".  c #0C0604",
"X  c #060905",
"o  c #0D0905",
"O  c #0A0D0A",
"+  c #130401",
"@  c #1D0602",
"#  c #1A0B07",
"$  c #1A0C06",
"%  c #160F09",
"&  c #0B1007",
"*  c #0D110B",
"=  c #11160E",
"-  c #1A120B",
";  c #131A0E",
":  c #110F10",
">  c #151414",
",  c #181617",
"<  c #131B12",
"1  c #191B16",
"2  c #1A1719",
"3  c #1B1C19",
"4  c #230602",
"5  c #280602",
"6  c #230C07",
"7  c #2A0904",
"8  c #330A04",
"9  c #3C0D04",
"0  c #23170C",
"q  c #2C140D",
"w  c #2E1D0D",
"e  c #3C1107",
"r  c #33120E",
"t  c #3B130B",
"y  c #311B0B",
"u  c #3D1F0E",
"i  c #221D12",
"p  c #2B1917",
"a  c #201D1F",
"s  c #351411",
"d  c #391612",
"f  c #321B19",
"g  c #18210F",
"h  c #162416",
"j  c #1B2515",
"k  c #1E2816",
"l  c #1C221B",
"z  c #1E2C1A",
"x  c #1E311D",
"c  c #30200E",
"v  c #3F200E",
"b  c #2A2515",
"n  c #212B17",
"m  c #20231F",
"M  c #252E1B",
"N  c #3D2616",
"B  c #233017",
"V  c #273619",
"C  c #28361B",
"Z  c #26391D",
"A  c #2B3A1D",
"S  c #221F21",
"D  c #242423",
"F  c #282427",
"G  c #262A25",
"H  c #292B26",
"J  c #2A2729",
"K  c #2D2A2B",
"L  c #332523",
"P  c #312D2E",
"I  c #253624",
"U  c #293225",
"Y  c #253E24",
"T  c #2A3E25",
"R  c #2C342A",
"E  c #2C3E2B",
"W  c #313E23",
"Q  c #32312E",
"!  c #323C2D",
"~  c #393B2E",
"^  c #2F2D30",
"/  c #332F31",
"(  c #353233",
")  c #393635",
"_  c #343E32",
"`  c #3B3B36",
"'  c #3B3639",
"]  c #3D3B3B",
"[  c #420B05",
"{  c #4F0F06",
"}  c #510F06",
"|  c #5B0E08",
" . c #451108",
".. c #47150A",
"X. c #4C130A",
"o. c #561107",
"O. c #511209",
"+. c #5E1308",
"@. c #4D1A17",
"#. c #5B1914",
"$. c #521E18",
"%. c #66110A",
"&. c #691009",
"*. c #61180D",
"=. c #75130B",
"-. c #7A130B",
";. c #661610",
":. c #731B15",
">. c #41210F",
",. c #422312",
"<. c #4B2613",
"1. c #4B2918",
"2. c #5E221C",
"3. c #46341C",
"4. c #61251E",
"5. c #78221D",
"6. c #442724",
"7. c #572D2A",
"8. c #433030",
"9. c #413D3E",
"0. c #563C3C",
"q. c #742B23",
"w. c #65302E",
"e. c #2E4124",
"r. c #2D402B",
"t. c #334324",
"y. c #374827",
"u. c #33422C",
"i. c #39432D",
"p. c #374828",
"a. c #3D4E2D",
"s. c #3F502F",
"d. c #354233",
"f. c #3A4236",
"g. c #3E4B31",
"h. c #3D433B",
"j. c #3F5030",
"k. c #464729",
"l. c #414D35",
"z. c #41433D",
"x. c #47493B",
"c. c #444B3C",
"v. c #425233",
"b. c #4C563B",
"n. c #64473C",
"m. c #65483E",
"M. c #3F3D40",
"N. c #433D40",
"B. c #464143",
"V. c #4A4446",
"C. c #444941",
"Z. c #4C4943",
"A. c #4D474A",
"S. c #4E4A4B",
"D. c #514D45",
"F. c #594A46",
"G. c #504C4D",
"H. c #4D5345",
"J. c #555347",
"K. c #555C45",
"L. c #56524B",
"P. c #5A564C",
"I. c #55584D",
"U. c #5D594F",
"Y. c #4F4D50",
"T. c #534E51",
"R. c #565152",
"E. c #595356",
"W. c #5D5A55",
"Q. c #5A5659",
"!. c #5E5C5C",
"~. c #614A41",
"^. c #62544A",
"/. c #615E56",
"(. c #6C5C55",
"). c #615E5A",
"_. c #5C624B",
"`. c #626355",
"'. c #646957",
"]. c #65625C",
"[. c #69665B",
"{. c #71735E",
"}. c #635D62",
"|. c #666460",
" X c #696762",
".X c #6D6B64",
"XX c #6E6D68",
"oX c #706F66",
"OX c #716D6A",
"+X c #6F7066",
"@X c #757466",
"#X c #777766",
"$X c #767862",
"%X c #797867",
"&X c #75746C",
"*X c #78776A",
"=X c #7D7C6C",
"-X c #7E7C6C",
";X c #767375",
":X c #777375",
">X c #7B7778",
",X c #7F797F",
"<X c #83150D",
"1X c #8D160F",
"2X c #8B1A13",
"3X c #81201A",
"4X c #87362B",
"5X c #883429",
"6X c #9D3D30",
"7X c #8D5247",
"8X c #807E6D",
"9X c #81826F",
"0X c #858474",
"qX c #878A72",
"wX c #8B8C76",
"eX c #8D8D78",
"rX c #95967E",
"tX c #96977F",
/* pixels */
"                                                                                                                                                                                                                                                                                                                                                                                                                                                                                                                                                                          ",
"                                                                                                                                                                                                                                                                                                                                                                                                                                                                                                                                                                          ",
"    V V V V V V V V V V V V V V V V V V V V V V V V V A t.t.t.t.t.t.t.t.a.a.a.a.s.a.s.s.y.t.t.t.t.t.t.t.t.s.a.a.a.y.t.t.t.p.a.a.s.p.t.t.t.t.t.t.t.t.t.t.t.t.t.t.t.t.t.t.t.t.t.V V V V t.t.t.t.t.t.t.t.y.a.a.a.a.a.a.a.a.t.t.t.t.a.a.a.a.p.t.t.t.t.t.t.t.t.t.t.t.t.t.t.t.t.A V V V V V V V V V V V V V V V V A t.t.t.t.V V V V t.t.t.t.t.t.t.t.p.a.a.a.a.a.a.a.a.a.a.a.a.a.a.a.a.a.a.a.a.a.t.t.t.t.a.a.a.a.y.t.t.t.A V V V V V V V V V V V V V V V V V V V V A t.t.t.t.V V V V t.t.t.t.p.a.a.a.a.a.a.a.a.a.a.a.a.t.t.t.t.p.a.a.a.p.t.t.t.t.t.t.t.t.t.t.t.t.t.t.t.t.n       ",
"    V V V V V V V V V V V V V V V V V V V V V V V V V A t.t.t.t.t.t.t.t.a.a.a.a.a.a.a.s.y.t.t.t.t.t.t.t.y.s.a.a.a.y.t.t.t.p.a.a.s.p.t.t.t.t.t.t.t.t.t.t.t.t.t.t.t.t.t.t.t.t.t.V V V V t.t.t.t.t.t.t.t.y.a.a.a.a.a.a.a.a.t.t.t.t.a.a.a.a.p.t.t.t.t.t.t.t.t.t.t.t.t.t.t.t.t.A V V V V V V V V V V V V V V V V A t.t.t.t.V V V V t.t.t.t.t.t.t.t.p.a.a.a.a.a.a.a.a.a.a.a.a.a.a.a.a.a.a.a.a.a.t.t.t.t.a.a.a.a.y.t.t.t.A V V V V V V V V V V V V V V V V V V V V A t.t.t.t.V V V V t.t.t.t.p.a.a.a.a.a.a.a.a.a.a.a.a.y.t.t.t.p.a.a.a.p.t.t.t.t.t.t.t.t.t.t.t.t.t.t.t.t.n       ",
"    V V V V V V V V V V V V V V V V V V V V V V V V V A t.t.t.t.t.t.t.t.a.a.a.a.s.s.s.s.p.t.t.t.t.t.t.t.y.a.a.a.a.y.t.t.t.p.a.a.a.a.t.t.t.t.t.t.t.t.t.t.t.t.t.t.t.t.t.t.t.t.t.V V V V t.t.t.t.t.t.t.t.y.a.a.a.a.a.a.a.a.t.t.t.t.a.a.a.a.p.t.t.t.t.t.t.t.t.t.t.t.t.t.t.t.t.A V V V V V V V V V V V V V V V V A t.t.t.t.V V V V t.t.t.t.t.t.t.t.p.a.a.a.a.a.a.a.a.a.a.a.a.a.a.a.a.a.a.a.a.a.t.t.t.t.a.a.a.a.y.t.t.t.A V V V V V V V V V V V V V V V V V V V V A t.t.t.t.V V V V t.t.t.t.p.a.a.a.a.a.a.a.a.a.a.a.a.y.t.t.t.p.a.a.a.p.t.t.t.t.t.t.t.t.t.t.t.t.t.t.t.t.n       ",
"    V V V V V V V V V V V V V V V V V V V V V V V V V A t.t.t.t.t.t.t.t.a.a.a.a.a.a.s.s.p.t.t.t.t.t.t.t.y.a.a.a.a.y.t.t.t.p.a.a.a.p.t.t.t.t.t.t.t.t.t.t.t.t.t.t.t.t.t.t.t.t.t.V V V V t.t.t.t.t.t.t.t.y.a.a.a.a.a.a.a.a.t.t.t.t.a.a.a.a.p.t.t.t.t.t.t.t.t.t.t.t.t.t.t.t.t.A V V V V V V V V V V V V V V V V A t.t.t.t.V V V V t.t.t.t.t.t.t.t.p.a.a.a.a.a.a.a.a.a.a.a.a.a.a.a.a.a.a.a.a.a.t.t.t.t.a.a.a.a.y.t.t.t.A V V V V V V V V V V V V V V V V V V V V A t.t.t.t.V V V V t.t.t.t.p.a.a.a.a.a.a.a.a.a.a.a.a.y.t.t.t.p.a.a.a.p.t.t.t.t.t.t.t.t.t.t.t.t.t.t.t.t.n       ",
"    J.J.J.J.J.J.J.J.J.J.J.J.J.J.J.J.J.J.J.J.J.V.V.V.V.B.9.9.9.z.Z.Z.V.V.S.S.S.S.Q.Q.Q.Q.Q.Q.Q.Q.Q.Q.Q.Q.Q.Q.Q.Q.!.S.S.S.S.S.S.S.S.S.S.S.S.A.9.9.9.9..XXXXXXXXXXXXX.X[.L.L.L.J.V.V.V.V.9.9.9.9.E Y Y Y Y C C C A a.a.a.a.$X@X@X@XqXwXwXwX9X@X@X@X@X:X:X:X:X:X:X:X:XW.L.L.L.J.J.J.J.J.J.J.J.J.J.J.J.J.J.J.J.J.J.L.L.L.J.J.J.J.J.V.V.V.V.9.9.9.9.9.9.9.9.9.9.z.9.9.9.9.9.9.V.Z.Z.Z.R.`.`.`.`././././.:X:X:X:X:X:X:X:X XW.W.W.].:X:X:X:XW.W.W.W.W.W.W.W.P.J.J.J.J.V.V.V.V.9.9.9.9.T Y Y Y e.y.y.y.y.a.a.a.v.@X@X@X@XwXwXwXwX%X@X@X@X@X:X:X:X:X:X:X:X:XP.L.L.L.L.L.L.L.Q       ",
"    P.P.P.P.P.P.P.P.P.P.P.P.P.P.P.P.P.P.P.P.P.S.A.A.A.B.N.N.N.N.A.S.A.A.Y.Y.Y.Y.!.!.!.!.!.!.!.!.!.!.!.!.!.!.!.!.!.T.Y.Y.Y.Y.Y.Y.Y.Y.Y.Y.Y.S.N.N.N.N.&X&X&X&X&X&X&X&X.XP.P.P.P.A.A.A.A.N.N.N.N.E Y Y Y Y V V V C a.a.a.a.%X=X=X=XtXtXtXtXqX@X@X@X*X,X,X,X,X,X,X,X,X/.P.P.P.P.P.P.P.P.P.P.P.P.P.P.P.P.P.P.P.P.P.P.P.P.P.P.P.P.P.A.A.A.A.N.N.N.N.N.N.N.N.N.N.N.N.N.N.N.N.N.A.A.A.A.W.].].].].].].].].,X,X,X,X,X,X,X,XoX].].]. X,X,X,X,X].].].].].].].].W.P.P.P.L.A.A.A.A.N.N.N.N.Y Y Y Y e.t.t.t.p.a.a.a.v.=X=X=X=XtXtXtXtX9X@X@X@X*X,X,X,X,X,X,X,X,XU.P.P.P.P.P.P.P.)       ",
"    P.P.P.P.P.P.P.P.P.P.P.P.P.P.P.P.P.P.P.P.P.S.A.A.A.B.N.N.N.N.A.A.A.A.Y.Y.Y.Y.!.!.!.!.!.!.!.!.!.!.!.!.!.!.!.!.!.T.Y.Y.Y.Y.Y.Y.Y.Y.Y.Y.Y.S.N.N.N.N.&X&X&X&X&X&X&X&X.XP.P.P.P.A.A.A.A.N.N.N.N.E Y Y Y Y V V V C a.a.a.a.%X=X=X=XtXtXtXtXqX@X@X@X*X,X,X,X,X,X,X,X,X/.P.P.P.P.P.P.P.P.P.P.P.P.P.P.P.P.P.P.P.P.P.P.P.P.P.P.P.P.P.A.A.A.A.N.N.N.N.N.N.N.N.N.N.N.N.N.N.N.N.N.A.A.A.A.W.].].].].].].].].,X,X,X,X,X,X,X,XoX].].]. X,X,X,X,X].].].].].].].].W.P.P.P.L.A.A.A.A.N.N.N.N.Y Y Y Y e.t.t.t.p.a.a.a.v.=X=X=X=XtXtXtXtX9X@X@X@X*X,X,X,X,X,X,X,X,XU.P.P.P.P.P.P.P.)       ",
"    P.P.P.P.P.P.P.P.P.P.P.P.P.P.P.P.P.P.P.P.P.S.A.A.A.B.N.N.N.N.A.S.A.A.Y.Y.Y.Y.!.!.!.!.!.!.!.!.!.!.!.!.!.!.!.!.!.T.Y.Y.Y.Y.Y.Y.Y.Y.Y.Y.Y.S.N.N.N.N.&X&X&X&X&X&X&X&X.XP.P.P.P.A.A.A.A.N.N.N.N.E Y Y Y Y V V V C a.a.a.a.%X=X=X=XtXtXtXtXqX@X@X@X*X,X,X,X,X,X,X,X,X/.P.P.P.P.P.P.P.P.P.P.P.P.P.P.P.P.P.P.P.P.P.P.P.P.P.P.P.P.P.A.A.A.A.N.N.N.N.N.N.N.N.N.N.N.N.N.N.N.N.N.A.A.A.A.W.].].].].].].].].,X,X,X,X,X,X,X,XoX].].]. X,X,X,X,X].].].].].].].].W.P.P.P.L.A.A.A.A.N.N.N.N.Y Y Y Y e.t.t.t.y.a.a.a.v.=X=X=X=XtXtXtXtX9X@X@X@X*X,X,X,X,X,X,X,X,XU.P.P.P.P.P.P.P.)       ",
"    L.L.L.L.G.G.G.G.G.G.G.G.G.G.G.G.G.L.L.L.L.S.S.S.S.V.V.V.V.V.B.B.B.V.L.L.L.L.W.W.W.W.]..X.X.X.X.X.X.X.X.X.X.X.XR.L.L.L.L.L.L.L.E.].].].].!.!.!.!.).).).).!.!.!.!.W.G.G.G.G.B.B.B.B.V.V.V.V.` _ _ _ R k k k k p.p.p.p.qXqXqXqX&X.X.X.X[./././.).}.}.}.}.}.}.}.}.R.G.G.G.L.P.P.P.P.P.P.P.P.P.P.P.P.L.L.L.L.G.G.G.G.G.G.G.G.G.A.A.A.A.V.V.V.V.h._ _ _ _ V.V.V.V.V.V.V.V.S.S.S.S.G.R.R.R.R.R.R.R.R.}.}.}.}.}.}.}.}.).W.W.W.).OXOXOXOXR.R.R.R.R.R.R.R.L.G.G.G.G.B.B.B.V.V.V.V.V._ _ _ _ U n n n C p.p.p.a.qXqXqXqXoX.X.X.X]./././.).}.}.}.}.}.}.}.}.P.P.P.P.L.L.L.L.(       ",
"    G.G.G.G.S.A.A.A.A.A.A.A.A.A.A.A.A.G.G.G.G.G.G.G.G.S.A.A.A.V.N.N.N.N.P.P.P.P.P.P.P.P. X&X&X&X&X&X&X&X&X&X&X&X&XU.P.P.P.P.P.P.P./.&X&X&X&X&X&X&X&XG.G.G.G.S.A.A.A.A.A.A.A.A.N.N.N.N.A.A.A.A.B.N.N.N.Q < < < < t.t.t.t.tXtXtXtX).G.G.G.S.A.A.A.A.A.A.A.A.A.A.A.A.A.A.A.A.G.P.P.P.P.P.P.P.P.P.P.P.P.G.G.G.G.S.A.A.A.A.A.A.A.A.A.A.A.A.A.A.A.A.f.Y Y Y T A.A.A.A.A.A.A.A.G.G.G.G.S.A.A.A.A.A.A.A.A.A.A.A.A.A.A.A.A.L.P.P.P.W.].].].].A.A.A.A.A.A.A.A.A.A.A.A.V.N.N.N.N.A.A.A.A.N.N.N.N.D < < < k t.t.t.p.tXtXtXtXR.G.G.G.S.A.A.A.A.A.A.A.A.A.A.A.A.P.P.P.P.G.G.G.G.(       ",
"    G.G.G.G.S.A.A.A.A.A.A.A.A.A.A.A.A.G.G.G.G.G.G.G.G.S.A.A.A.V.N.N.N.N.P.P.P.P.P.P.P.P. X&X&X&X&X&X&X&X&X&X&X&X&XU.P.P.P.P.P.P.P./.&X&X&X&X&X&X&X&XG.G.G.G.S.A.A.A.A.A.A.A.A.N.N.N.N.A.A.A.A.B.N.9.N.Q < < < < t.t.t.t.tXtXtXtX).G.G.G.S.A.A.A.A.A.A.A.A.A.A.A.A.A.A.A.A.G.P.P.P.P.P.P.P.P.P.P.P.P.G.G.G.G.S.A.A.A.A.A.A.A.A.A.A.A.A.A.A.A.A.f.Y Y Y T A.A.A.A.A.A.A.A.G.G.G.G.S.A.A.A.A.A.A.A.A.A.A.A.A.A.A.A.A.L.P.P.P.W.].].].].A.A.A.A.A.A.A.A.A.A.A.A.V.N.N.N.N.A.A.A.A.N.N.N.N.D < < < k t.t.t.p.tXtXtXtXR.G.G.G.S.S.A.A.A.A.A.A.A.A.A.A.A.P.P.P.P.G.G.G.G.(       ",
"    G.G.G.G.S.A.A.A.A.A.A.A.A.A.A.A.A.G.G.G.G.G.G.G.G.S.A.A.A.V.N.N.N.N.P.P.P.P.P.P.P.P. X&X&X&X&X&X&X&X&X&X&X&X&XU.P.P.P.P.P.P.P./.&X&X&X&X&X&X&X&XG.G.G.G.S.A.A.A.A.A.A.A.A.N.N.N.N.A.A.A.A.B.N.N.N.Q < < < < t.t.t.t.tXtXtXtX).G.G.G.S.A.A.A.A.A.A.A.A.A.A.A.A.A.A.A.A.G.P.P.P.P.P.P.P.P.P.P.P.P.G.G.G.G.S.A.A.A.A.A.A.A.A.A.A.A.A.A.A.A.A.f.Y Y Y T A.A.A.A.A.A.A.A.G.G.G.G.S.A.A.A.A.A.A.A.A.A.A.A.A.A.A.A.A.L.P.P.P.W.].].].].A.A.A.A.A.A.A.A.A.A.A.A.V.N.N.N.N.A.A.A.A.N.N.N.N.D < < < k t.t.t.p.tXtXtXtXR.G.G.G.S.S.A.A.A.A.A.A.A.A.A.A.A.P.P.P.P.G.G.G.G.(       ",
"    S.S.S.S.A.A.A.A.A.A.A.A.A.S.S.S.S.G.G.G.G.G.S.S.S.S.A.A.A.V.N.N.N.B.L.L.L.L.L.L.L.L.].XXXXXXXX.X.X.X.X.X.X.X.XP.L.L.L.P.P.P.P./.XXXXXXXXXXXXXXXXG.S.S.S.S.A.A.A.A.A.A.A.A.N.N.N.N.V.V.V.V.B.N.N.N.( < < < j t.t.t.t.qXeXeXeXW.S.S.S.S.A.A.A.A.A.A.A.A.A.A.A.A.S.S.S.S.G.P.P.P.P.P.P.P.P.P.P.P.P.G.S.S.S.S.A.A.A.A.A.A.A.A.A.A.A.A.A.A.A.A.h.r.r.r.d.A.A.A.A.S.S.S.S.S.S.S.S.S.A.A.A.A.A.A.A.A.S.S.S.S.S.G.G.G.G.L.L.L.P.).).).).A.A.A.A.A.A.A.A.A.A.A.A.V.N.N.N.N.V.V.V.V.N.N.N.N.G < < < k t.t.t.y.eXeXeXeXG.S.S.S.S.A.A.A.A.A.A.A.A.G.G.G.G.P.P.P.P.G.S.S.S.(       ",
"    A.A.A.A.A.A.A.A.A.A.A.A.S.G.G.G.G.G.G.G.G.A.A.A.A.A.A.A.A.A.A.A.A.A.A.A.A.A.A.A.A.A.S.G.G.G.S.A.A.A.A.A.A.A.A.A.A.A.A.L.P.P.P.L.G.G.G.G.G.G.G.G.A.A.A.A.A.A.A.A.A.A.A.A.A.A.A.A.A.N.N.N.N.V.A.A.A.9.J J J J t.t.t.t.].].].].G.A.A.A.A.A.A.A.A.A.A.A.A.A.A.A.A.S.G.G.G.G.G.G.G.G.G.G.G.G.G.G.G.G.S.A.A.A.A.A.A.A.A.A.A.A.A.A.A.A.A.A.A.A.A.A.A.A.A.A.A.A.A.A.G.G.G.G.S.A.A.A.A.A.A.A.A.A.A.A.A.G.G.G.G.P.P.P.P.G.A.A.A.A.A.A.A.A.A.A.A.A.A.A.A.A.A.A.A.A.A.A.A.A.A.N.N.N.N.A.A.A.A.( J J J J V V V A ].].].].S.A.A.A.A.A.A.A.A.A.A.A.S.P.P.P.P.G.G.G.G.S.A.A.A.P       ",
"    A.A.A.A.A.A.A.A.A.A.A.A.S.G.G.G.G.G.G.G.G.A.A.A.A.A.A.A.A.A.A.A.A.A.A.A.A.A.A.A.A.A.S.G.G.G.S.A.A.A.A.A.A.A.A.A.A.A.A.L.P.P.P.L.G.G.G.G.G.G.G.G.A.A.A.A.A.A.A.A.A.A.A.A.A.A.A.A.A.N.N.N.N.V.A.A.A.9.J J J J t.t.t.t.].].].].G.A.A.A.A.A.A.A.A.A.A.A.A.A.A.A.A.S.G.G.G.G.G.G.G.G.G.G.G.G.G.G.G.G.S.A.A.A.A.A.A.A.A.A.A.A.A.A.A.A.A.A.A.A.A.A.A.A.A.A.A.A.A.A.G.G.G.G.S.A.A.A.A.A.A.A.A.A.A.A.A.G.G.G.G.P.P.P.P.G.A.A.A.A.A.A.A.A.A.A.A.A.A.A.A.A.A.A.A.A.A.A.A.A.A.N.N.N.N.A.A.A.A.( J J J J V V V A ].].].].S.A.A.A.A.A.A.A.A.A.A.A.S.P.P.P.P.G.G.G.G.S.A.A.A.P       ",
"    A.A.A.A.A.A.A.A.A.A.A.A.S.G.G.G.G.G.G.G.G.A.A.A.A.A.A.A.A.A.A.A.A.A.A.A.A.A.A.A.A.A.S.G.G.G.S.A.A.A.A.A.A.A.A.A.A.A.A.L.P.P.P.L.G.G.G.G.G.G.G.G.A.A.A.A.A.A.A.A.A.A.A.A.A.A.A.A.A.N.N.N.N.V.A.A.A.9.J J J J t.t.t.t.].].].].G.A.A.A.A.A.A.A.A.A.A.A.A.A.A.A.A.S.G.G.G.G.G.S.G.G.G.G.G.G.G.G.G.G.S.A.A.A.A.A.A.A.A.A.A.A.A.A.A.A.A.A.A.A.A.A.A.A.A.A.A.A.A.A.G.G.G.G.S.A.A.A.A.A.A.A.A.A.A.A.A.G.G.G.G.P.P.P.P.G.A.A.A.A.A.A.A.A.A.A.A.A.A.A.A.A.A.A.A.A.A.A.A.A.A.N.N.N.N.A.A.A.A.( J J J J V V V A ].].].].S.A.A.A.A.A.A.A.A.A.A.A.S.P.P.P.P.G.G.G.G.S.A.A.A.P       ",
"    A.A.A.A.A.A.A.A.A.A.A.A.S.G.G.G.G.G.G.G.G.A.A.A.A.A.A.A.A.A.A.A.A.A.A.A.A.A.A.A.A.A.S.G.G.G.S.A.A.A.A.A.A.A.A.A.A.A.A.L.P.P.P.L.G.G.G.G.G.G.G.G.A.A.A.A.A.A.A.A.A.A.A.A.A.A.A.A.A.N.N.N.N.V.A.A.A.9.J J J J t.t.t.t.].].].].G.A.A.A.A.A.A.A.A.A.A.A.A.A.A.A.A.G.G.G.G.G.S.S.S.S.S.S.S.S.G.G.G.G.S.A.A.A.A.A.A.A.A.A.A.A.A.A.A.A.A.A.A.A.A.A.A.A.A.A.A.A.A.A.G.G.G.G.A.A.A.A.A.A.A.A.A.A.A.A.A.G.G.G.G.P.P.P.P.G.A.A.A.A.A.A.A.A.A.A.A.A.A.A.A.A.A.A.A.A.A.A.A.A.A.N.N.N.N.A.A.A.S.( J J J J V V V A ].].].].S.A.A.A.A.A.A.A.A.A.A.A.S.P.P.P.P.G.G.G.G.S.A.A.A.P       ",
"    N.N.N.N.A.A.A.A.B.N.N.N.N.A.A.A.A.A.A.A.A.A.A.A.A.A.A.A.A.A.A.A.A.A.A.A.A.A.A.A.A.A.A.A.A.A.A.A.A.A.A.A.A.A.A.N.N.N.N.V.A.A.A.V.N.N.N.N.A.A.A.A.A.A.A.A.A.A.A.A.A.A.A.A.A.A.A.A.A.A.A.A.A.A.A.A.A.) < < < < t.t.t.t.Y Y Y Y ] N.N.N.B.A.A.A.A.A.A.A.A.A.A.A.A.R.E.E.E.C.Y Y Y Y Y Y Y Y 9.N.N.N.V.A.A.A.A.A.A.A.A.A.A.A.A.A.A.A.A.A.A.A.A.A.A.A.A.A.A.A.A.A.A.A.A.A.A.A.A.A.A.A.A.A.A.A.A.A.A.N.N.N.N.A.A.A.A.B.N.N.N.N.A.A.A.A.A.A.A.A.A.A.A.A.A.A.A.A.A.A.A.A.A.A.A.A.A.A.A.A.A.G < < < k t.t.t.t.Y Y Y Y 9.N.N.N.V.A.A.A.A.A.A.A.A.A.A.A.A.E.E.E.E.d.Y Y Y h       ",
"    N.N.N.N.A.A.A.A.B.N.N.N.N.A.A.A.A.A.A.A.A.A.A.A.A.A.A.A.A.A.A.A.A.A.A.A.A.A.A.A.A.A.A.A.A.A.A.A.A.A.A.A.A.A.A.N.N.N.N.V.A.A.A.V.N.N.N.N.A.A.A.A.A.A.A.A.A.A.A.A.A.A.A.A.A.A.A.A.A.A.A.A.A.A.A.A.A.) < < < < t.t.t.t.Y Y Y Y ] N.N.N.B.A.A.A.A.A.A.A.A.A.A.A.A.R.E.E.E.C.Y Y Y Y Y Y Y Y 9.N.N.N.V.A.A.A.A.A.A.A.A.A.A.A.A.A.A.A.A.A.A.A.A.A.A.A.A.A.A.A.A.A.A.A.A.A.A.A.A.A.A.A.A.A.A.A.A.A.A.N.N.N.N.A.A.A.A.B.N.N.N.N.A.A.A.A.A.A.A.A.A.A.A.A.A.A.A.A.A.A.A.A.A.A.A.A.A.A.A.A.A.G < < < j t.t.t.t.Y Y Y Y 9.N.N.N.V.A.A.A.A.A.A.A.A.A.A.A.A.E.E.E.E.d.Y Y Y h       ",
"    N.N.N.N.A.A.A.A.B.N.N.N.N.A.A.A.A.A.A.A.A.A.A.A.A.A.A.A.A.A.A.A.A.A.A.A.A.A.A.A.A.A.A.A.A.A.A.A.A.A.A.A.A.A.A.N.N.N.N.V.A.A.A.V.N.N.N.N.A.A.A.A.A.A.A.A.A.A.A.A.A.A.A.A.A.A.A.A.A.A.A.A.A.A.A.A.A.) < < < < t.t.t.t.Y Y Y Y ] N.N.N.B.A.A.A.A.A.A.A.A.A.A.A.A.R.E.E.E.C.Y Y Y Y Y Y Y Y 9.N.N.N.V.A.A.A.A.A.A.A.A.A.A.A.A.A.A.A.A.A.A.A.A.A.A.A.A.A.A.A.A.A.A.A.A.A.A.A.A.A.A.A.A.A.A.A.A.A.A.N.N.N.N.A.A.A.A.B.N.N.N.N.A.A.A.A.A.A.A.A.A.A.A.A.A.A.A.A.A.A.A.A.A.A.A.A.A.A.A.A.A.G < < < k t.t.t.t.Y Y Y Y 9.N.N.N.V.A.A.A.A.A.A.A.A.A.A.A.A.E.E.E.E.d.Y Y Y h       ",
"    N.N.N.N.A.A.A.A.B.N.N.N.N.A.A.A.A.A.A.A.A.A.A.A.A.A.A.A.A.A.A.A.A.A.A.A.A.A.A.A.A.A.A.A.A.A.A.A.A.A.A.A.A.A.A.N.N.N.N.V.A.A.A.V.N.N.N.N.A.A.A.A.A.A.A.A.A.A.A.A.A.A.A.A.A.A.A.A.A.A.A.A.A.A.A.A.A.) < < < < t.t.t.t.Y Y Y Y ] N.N.N.B.A.A.A.A.A.A.A.A.A.A.A.A.R.E.E.E.C.Y Y Y Y Y Y Y Y 9.N.N.N.V.A.A.A.A.A.A.A.A.A.A.A.A.A.A.A.A.A.A.A.A.A.A.A.A.A.A.A.A.A.A.A.A.A.A.A.A.A.A.A.A.A.A.A.A.A.A.N.N.N.N.A.A.A.A.B.N.N.N.N.A.A.A.A.A.A.A.A.A.A.A.A.A.A.A.A.A.A.A.A.A.A.A.A.A.A.A.A.A.G < < < k t.t.t.t.Y Y Y Y 9.N.N.N.V.A.A.A.A.A.A.A.A.A.A.A.A.E.E.E.E.d.Y Y Y h       ",
"    A.A.A.A.A.A.A.A.A.A.A.A.A.A.A.A.A.A.A.A.A.A.A.A.A.A.A.A.A.V.N.N.N.N.A.A.A.A.N.N.N.N.V.A.A.A.A.A.A.A.A.A.A.A.A.A.A.A.A.A.A.A.A.A.A.A.A.A.A.A.A.A.A.A.A.A.A.A.A.A.A.A.A.A.A.A.A.A.A.A.A.A.A.B.N.N.N.( < < < < t.t.t.t.9.9.9.9.V.A.A.A.A.A.A.A.A.A.A.A.A.A.A.A.A.u.r.r.r.T Y Y Y Y Y Y Y Y T T T T ] N.N.N.V.A.A.A.A.A.A.A.A.A.A.A.A.A.A.A.A.A.A.A.A.A.A.A.A.A.N.N.N.N.A.A.A.A.A.A.A.A.A.A.A.A.A.A.A.A.A.A.A.A.A.A.A.A.A.A.A.A.A.A.A.A.A.A.A.A.A.A.A.A.A.A.A.A.A.A.A.A.A.A.A.N.N.N.N.D < < < k t.t.t.t.9.9.9.9.V.A.A.A.A.A.A.A.G.E.E.E.R.T T T T r.r.r.r.Y Y Y Y h       ",
"    A.A.A.A.A.A.A.A.A.A.A.A.A.A.A.A.A.A.A.A.A.A.A.A.A.A.A.A.A.V.N.N.N.N.A.A.A.A.N.N.N.N.V.A.A.A.A.A.A.A.A.A.A.A.A.A.A.A.A.A.A.A.A.A.A.A.A.A.A.A.A.A.A.A.A.A.A.A.A.A.A.A.A.A.A.A.A.A.A.A.A.A.A.B.N.N.N.Q < < < < t.t.t.t.9.N.N.N.V.A.A.A.A.A.A.A.A.A.A.A.A.A.A.A.A.r.Y Y Y Y Y Y Y Y Y Y Y Y Y Y Y Y ] N.N.N.V.A.A.A.A.A.A.A.A.A.A.A.A.A.A.A.A.A.A.A.A.A.A.A.A.A.N.N.N.N.A.A.A.A.A.A.A.A.A.A.A.A.A.A.A.A.A.A.A.A.A.A.A.A.A.A.A.A.A.A.A.A.A.A.A.A.A.A.A.A.A.A.A.A.A.A.A.A.A.A.A.N.N.N.N.D < < < k t.t.t.t.N.N.N.N.A.A.A.A.A.A.A.A.G.E.E.E.R.Y Y Y Y Y Y Y Y Y Y Y Y h       ",
"    A.A.A.A.A.A.A.A.A.A.A.A.A.A.A.A.A.A.A.A.A.A.A.A.A.A.A.A.A.V.N.N.N.N.A.A.A.A.N.N.N.N.V.A.A.A.A.A.A.A.A.A.A.A.A.A.A.A.A.A.A.A.A.A.A.A.A.A.A.A.A.A.A.A.A.A.A.A.A.A.A.A.A.A.A.A.A.A.A.A.A.A.A.B.N.N.N.Q < < < < t.t.t.t.9.N.N.N.V.A.A.A.A.A.A.A.A.A.A.A.A.A.A.A.A.r.Y Y Y Y Y Y Y Y Y Y Y Y Y Y Y Y ] N.N.N.V.S.A.A.A.A.A.A.A.A.A.A.A.A.A.A.A.A.A.A.A.A.A.A.A.A.N.N.N.N.A.A.A.A.A.A.A.A.A.A.A.A.A.A.A.A.A.A.A.A.A.A.A.A.A.A.A.A.A.A.A.A.S.S.A.A.A.A.A.A.A.A.A.A.A.A.A.A.A.A.A.N.N.N.N.D < < < k t.t.t.t.N.N.N.N.A.A.A.A.A.A.A.A.G.E.E.E.R.Y Y Y Y Y Y Y Y Y Y Y Y h       ",
"    A.A.A.A.A.A.A.A.A.A.S.A.A.A.A.A.A.A.A.A.A.A.A.A.A.A.A.A.A.V.N.N.N.N.A.A.A.A.N.N.N.N.V.A.A.A.A.A.A.A.A.A.A.A.A.A.A.A.A.A.A.A.A.A.A.A.A.A.A.A.A.A.A.A.A.A.A.A.A.A.A.A.A.A.A.A.A.A.A.A.A.A.A.B.N.N.N.Q < < < < t.t.t.t.9.N.N.N.V.A.A.A.A.A.A.A.A.A.A.A.A.A.A.A.A.r.Y Y Y Y Y Y Y Y Y Y Y Y Y Y Y Y ] N.N.N.V.S.A.A.A.A.A.A.A.A.A.A.A.A.A.A.A.A.A.A.A.A.A.A.A.A.N.N.N.N.A.A.A.A.A.A.A.A.A.A.A.A.A.A.A.A.A.A.A.A.A.A.A.A.A.A.A.A.A.A.A.A.A.A.A.A.A.A.A.A.A.A.A.A.A.A.A.A.A.A.A.N.N.N.N.D < < < k t.t.t.t.N.N.N.N.A.A.A.A.A.A.A.A.G.E.E.E.R.Y Y Y Y Y Y Y Y Y Y Y Y h       ",
"    A.A.A.A.A.A.A.A.z.d.d.d.d.d.d.d.d.B.B.B.B.A.A.A.A.A.A.A.A.V._ _ _ _ A.A.A.A.N.N.N.N.f.d.d.d.d.d.d.d.d.d.d.d.d.V.A.A.A.A.A.A.A.A.A.A.A.A.A.A.A.A.A.A.A.A.h.d.d.d.d.d.d.d.d.A.A.A.A.A.A.A.A.f._ _ _ U < < < < t.t.t.t.9.N.N.N.f.d.d.d.d.d.d.d.f.A.A.A.A.B.B.B.B.R U U U U U U U U U U U U U U U U ! _ _ _ d.d.d.d.f.A.A.A.A.A.A.A.A.V.B.B.B.h.d.d.d.f.A.A.A.A.N.N.N.N.d.d.d.d.d.d.d.d.d.d.d.d.d.A.A.A.A.A.A.A.A.A.A.A.A.A.A.A.A.A.A.A.A.A.d.d.d.d.d.d.d.d.f.A.A.A.A.A.A.A.A._ _ _ _ < X X X < t.t.t.t.N.N.N.N.d.d.d.d.d.d.d.d.d.f.f.f.f.Y Y Y Y Y Y Y Y _ _ _ _ D       ",
"    A.A.A.A.A.A.A.A.d.Y Y Y Y Y Y Y Y N.N.N.N.A.A.A.A.A.A.A.A.C.Y Y Y Y A.A.A.A.N.N.N.N.E Y Y Y Y Y Y Y Y Y Y Y Y V.A.A.A.A.A.A.A.A.A.A.A.A.A.A.A.A.A.A.A.A.d.Y Y Y Y Y Y Y T A.A.A.A.A.A.A.A.u.Y Y Y x < < < < t.t.t.t.9.N.N.N.E Y Y Y Y Y Y Y T A.A.A.A.N.N.N.N.K J J J J J J J J J J J J J J J J I Y Y Y Y Y Y Y T A.A.A.A.A.A.A.A.N.N.N.N._ Y Y Y T A.A.A.A.9.N.N.N.T Y Y Y Y Y Y Y Y Y Y Y Y A.A.A.A.A.A.A.A.A.A.A.A.A.A.A.A.A.A.A.A.A.T Y Y Y Y Y Y Y r.A.A.A.A.A.A.A.A.T Y Y Y *       * t.t.t.t.N.N.N.N.Y Y Y Y Y Y Y Y Y Y Y Y Y Y Y Y Y Y Y Y Y ` N.N.N.J       ",
"    A.A.A.A.A.A.A.A.d.Y Y Y Y Y Y Y Y N.N.N.N.A.A.A.A.A.A.A.A.C.Y Y Y Y A.A.A.A.N.N.N.N.E Y Y Y Y Y Y Y Y Y Y Y Y V.A.A.A.A.A.A.A.A.A.A.A.A.A.A.A.A.A.A.A.A.d.Y Y Y Y Y Y Y T A.A.A.A.A.A.A.A.u.Y Y Y x < < < < t.t.t.t.9.N.N.N.E Y Y Y Y Y Y Y T A.A.A.A.N.N.N.N.K J J J J J J J J J J J J J J J J I Y Y Y Y Y Y Y T A.A.A.A.A.A.A.A.N.N.N.N._ Y Y Y T A.A.A.A.N.N.N.N.T Y Y Y Y Y Y Y Y Y Y Y Y A.A.A.A.A.A.A.A.A.A.A.A.A.A.A.A.A.A.A.A.A.T Y Y Y Y Y Y Y r.A.A.A.A.A.A.A.A.T Y Y Y *       * t.t.t.t.N.N.N.N.Y Y Y Y Y Y Y Y Y Y Y Y Y Y Y Y Y Y Y Y Y ` N.N.N.J       ",
"    A.A.A.A.A.A.A.A.d.Y Y Y Y Y Y Y Y N.N.N.N.A.A.A.A.A.A.A.A.C.Y Y Y Y A.A.A.A.N.N.N.N.E Y Y Y Y Y Y Y Y Y Y Y Y V.A.A.A.A.A.A.A.A.A.A.A.A.A.A.A.A.A.A.A.A.d.Y Y Y Y Y Y Y T A.A.A.A.A.A.A.A.u.Y Y Y x < < < < t.t.t.t.9.N.N.N.E Y Y Y Y Y Y Y T A.A.A.A.N.N.N.N.K J J J J J J J J J J J J J J J J I Y Y Y Y Y Y Y T A.A.A.A.A.A.A.A.N.N.N.N._ Y Y Y T A.A.A.A.N.N.N.N.T Y Y Y Y Y Y Y Y Y Y Y Y A.A.A.A.A.A.A.A.A.A.A.A.A.A.A.A.A.A.A.A.A.T Y Y Y Y Y Y Y r.A.A.A.A.A.A.A.A.T Y Y Y *       * t.t.t.t.N.N.N.N.Y Y Y Y Y Y Y Y Y Y Y Y Y Y Y Y Y Y Y Y Y ` N.N.N.J       ",
"    N.B.B.B.B.B.B.B._ I I I I I I I I ) ) ) ) N.B.B.B.9.9.9.9.` x x x x ' ' ' ' ) ) ) ) R I I I I I I I I I I I I N.B.B.B.9.9.9.9.9.B.B.B.B.B.B.B.B.B.B.B.B.E I I I I I I I R B.B.B.B.9.9.9.9.R I I I x j j j k y.y.y.y.` ` ` ` I I I I I I I I I 9.9.9.9.) ) ) ) J F F F F J J J J F F F F J J J J I I I I I I I I R B.B.B.B.9.9.9.9.) ) ) ) R I I I I ' ' ' ' / / / / I I I I I I I I I I I I I B.B.B.B.9.9.9.9.N.B.B.B.B.B.B.B.B.B.B.B.B.R I I I I I I I E B.B.B.B.9.9.9.9.x x x x ; O O O < y.y.y.y./ / / / I Z I I I I I I I I I I I I I I I I I I I ( ] ] ] F       ",
"    J J J J J J J J J J J J J J J J J < < < < F J J J l < < < *                 < < < < < < < < < < < < < < < < < F J J J 3 < < < 3 J J J J J J J J J J J J J J J J J J J J J J J J J < < < < < < < < z t.t.t.y.a.a.a.a.V V V V j < < < < < < < < < < < < < < < < < < < < l J J J F < < < < J J J J J J J J J J J J J J J J J < < < < < < < < < < < < =                 < < < < < < < < < < < < < J J J J < < < < m J J J J J J J J J J J J J J J J J J J J J J J J J < < < <         n t.t.t.y.a.a.a.p.        < < < < < < < < < < < < < J J J J < < < < D J J J 3       ",
"    J J J J J J J J J J J J J J J J J < < < < F J J J l < < < *                 < < < < < < < < < < < < < < < < < F J J J 3 < < < 3 J J J J J J J J J J J J J J J J J J J J J J J J J < < < < < < < < z t.t.t.y.a.a.a.a.V V V V j < < < < < < < < < < < < < < < < < < < < l J J J F < < < < J J J J J J J J J J J J J J J J J < < < < < < < < < < < < =                 < < < < < < < < < < < < < J J J J < < < < m J J J J J J J J J J J J J J J J J J J J J J J J J < < < <         n t.t.t.y.a.a.a.p.        < < < < < < < < < < < < < J J J J < < < < D J J J 3       ",
"    J J J J J J J J J J J J J J J J J < < < < F J J J l < < < *                 < < < < < < < < < < < < < < < < < F J J J 3 < < < 3 J J J J J J J J J J J J J J J J J J J J J J J J J < < < < < < < < z t.t.t.y.a.a.a.a.V V V V j < < < < < < < < < < < < < < < < < < < < l J J J F < < < < J J J J J J J J J J J J J J J J J < < < < < < < < < < < < =                 < < < < < < < < < < < < < J J J J < < < < m J J J J J J J J J J J J J J J J J J J J J J J J J < < < <         n t.t.t.y.a.a.a.p.        < < < < < < < < < < < < < J J J J < < < < D J J J 3       ",
"    J J J J J J J J J J J J J J J J J < < < < F J J J l < < < =                 < < < < < < < < < < < < < < < < < F J J J l < < < l J J J J J J J J J J J J J J J J J J J J J J J J J < < < < < < < < n t.t.t.y.a.a.a.a.C V V V j < < < < < < < < < < < < < < < < < < < < l J J J F < < < < J J J J J J J J J J J J J J J J J < < < < < < < < < < < < <                 < < < < < < < < < < < < < J J J J < < < < m J J J J J J J J J J J J J J J J J J J J J J J J J < < < < X       n t.t.t.y.a.a.a.p.        < < < < < < < < < < < < < J J J J < < < < D J J J 3       ",
"    a.a.a.a.y.t.t.t.A V V V V V V V V V V V V V V V V A t.t.t.t.V V V V t.t.t.t.V V V V V V V V V V V V V V V V V t.t.t.t.t.t.t.t.T V V V V t.t.t.t.t.t.t.t.A V V V V V V V V t.t.t.t.V V V V W t.t.t.y.a.a.a.a.a.a.a.a.a.a.a.a.A V V V A t.t.t.t.V V V V V V V V t.t.t.t.A V V V V t.t.t.t.t.t.t.t.C V V V A t.t.t.t.V V V V V V V V V V V V V V V V V V V V V V V V V t.t.t.t.A V V V C t.t.t.t.t.t.t.t.V V V V A t.t.t.t.V V V V V V V V V V V V V V V V A t.t.t.t.a.a.a.a.a.a.a.a.a.a.a.a.a.a.a.a.a.V V V V t.t.t.t.A V V V A t.t.t.t.V V V V t.t.t.t.a.a.a.a.V       ",
"    a.a.a.a.y.t.t.t.A V V V V V V V V V V V V V V V V A t.t.t.t.V V V V t.t.t.t.V V V V V V V V V V V V V V V V V t.t.t.t.t.t.t.t.T V V V V t.t.t.t.t.t.t.t.A V V V V V V V V t.t.t.t.V V V V W t.t.t.y.a.a.a.a.a.a.a.a.a.a.a.a.A V V V A t.t.t.t.V V V V V V V V t.t.t.t.A V V V V t.t.t.t.t.t.t.t.C V V V A t.t.t.t.V V V V V V V V V V V V V V V V V V V V V V V V V t.t.t.t.A V V V C t.t.t.t.t.t.t.t.V V V V A t.t.t.t.V V V V V V V V V V V V V V V V A t.t.t.t.a.a.a.a.a.a.a.a.a.a.a.a.a.a.a.a.a.V V V V t.t.t.t.A V V V A t.t.t.t.V V V V t.t.t.t.a.a.a.a.V       ",
"    a.a.a.a.y.t.t.t.A V V V V V V V V V V V V V V V V A t.t.t.t.V V V V t.t.t.t.V V V V V V V V V V V V V V V V V t.t.t.t.t.t.t.t.T V V V V t.t.t.t.t.t.t.t.A V V V V V V V V t.t.t.t.V V V V W t.t.t.y.a.a.a.a.a.a.a.a.a.a.a.a.A V V V A t.t.t.t.V V V V V V V V t.t.t.t.A V V V V t.t.t.t.t.t.t.t.C V V V A t.t.t.t.V V V V V V V V V V V V V V V V V V V V V V V V V t.t.t.t.A V V V C t.t.t.t.t.t.t.t.V V V V A t.t.t.t.V V V V V V V V V V V V V V V V A t.t.t.t.a.a.a.a.a.a.a.a.a.a.a.a.a.a.a.a.a.V V V V t.t.t.t.A V V V A t.t.t.t.V V V V t.t.t.t.a.a.a.a.V       ",
"    a.a.a.a.y.t.t.t.A V V V V V V V V V V V V V V V V A t.t.t.t.V V V V t.t.t.t.V V V V V V V V V V V V V V V V V t.t.t.t.t.t.t.t.T V V V V t.t.t.t.t.t.t.t.A V V V V V V V V t.t.t.t.V V V V W t.t.t.y.a.a.a.a.a.a.a.a.a.a.a.a.A V V V A t.t.t.t.V V V V V V V V t.t.t.t.A V V V V t.t.t.t.t.t.t.t.C V V V A t.t.t.t.V V V V V V V V V V V V V V V V V V V V V V V V V t.t.t.t.A V V V C t.t.t.t.t.t.t.t.V V V V A t.t.t.t.V V V V V V V V V V V V V V V V A t.t.t.t.a.a.a.a.a.a.a.a.a.a.a.a.a.a.a.a.a.V V V V t.t.t.t.A V V V A t.t.t.t.V V V V t.t.t.t.a.a.a.a.V       ",
"    L.P.P.P.L.L.L.L.D.V.V.V.V.9.9.9.9.Y Y Y Y a.a.a.a.a.a.a.a.p.t.t.t.y.+X+X+X+XS.S.S.S.J.L.L.L.L.L.L.L.L.S.S.S.S.S.S.S.S.S.S.S.S.z.Y Y Y Y J J J J ] ] ] ] V.S.S.S.V.] ] ] ] /./././././././.L.S.S.S.L.].].]./.S.S.S.S.@X%X%X%X@X@X@X@X.X/././.].@X@X@X@X/./././././././././././.W.V.V.V.V.Y Y Y Y Y Y Y Y Y Y Y Y T 9.9.9.9.9.9.9.9.t.t.t.t.y.a.a.a.a.a.a.a.a.@X@X@X@X]././././././././././././././././.r.Y Y Y U J J J H Y Y Y Y Y Y Y Y ] 9.9.9.9.9.9.9.9.9.9.9.9.Y Y Y Y Y Y Y Y Y Y Y Y d.S.S.S.V.V.V.V.V.V.V.V.V.S.S.S.S.G.L.L.L.L.L.L.L.L.L.L.L.L.L.P.P.P.~       ",
"    P.P.P.P.P.P.P.P.G.A.A.A.V.N.N.N.9.Y Y Y Y a.a.a.a.a.a.a.a.a.t.t.t.y.&X&X&X&XT.G.G.G.L.P.P.P.P.P.P.P.P.G.G.G.G.G.G.G.G.G.G.G.G.C.Y Y Y Y J J J J ] M.M.M.A.Y.Y.Y.A.M.M.M.B.].].].].].].].].R.G.G.G.E.].].].].G.G.G.G.=X=X=X=X=X=X=X=X@X].].].[.=X=X=X=X].].].].].].].].].].].].).V.V.V.V.Y Y Y Y Y Y Y Y Y Y Y Y T N.N.N.N.N.N.N.N.u.t.t.t.p.a.a.a.a.a.a.a.s.=X=X=X=X[.].].].].].].].].].].].].].].].].r.Y Y Y U J J J H Y Y Y Y Y Y Y Y 9.N.N.N.N.N.N.N.N.N.N.N.9.Y Y Y Y Y Y Y Y Y Y Y Y u.A.A.A.A.A.A.A.A.A.A.A.A.S.G.G.G.G.P.P.P.P.P.P.P.P.P.P.P.P.P.P.P.P.)       ",
"    P.P.P.P.P.P.P.P.G.A.A.A.V.N.N.N.9.Y Y Y Y a.a.a.a.a.a.a.a.a.t.t.t.y.&X&X&X&XT.G.G.G.L.P.P.P.P.P.P.P.P.G.G.G.G.G.G.G.G.G.G.G.G.C.Y Y Y Y J J J J ] M.M.M.A.Y.Y.Y.A.M.M.M.B.].].].].].].].].R.G.G.G.E.].].].].G.G.G.G.=X=X=X=X=X=X=X=X@X].].].[.=X=X=X=X].].].].].].].].].].].].).V.V.V.V.Y Y Y Y Y Y Y Y Y Y Y Y T N.N.N.N.N.N.N.N.u.t.t.t.p.a.a.a.a.a.a.a.s.=X=X=X=X[.].].].].].].].].].].].].].].].].r.Y Y Y U J J J H Y Y Y Y Y Y Y Y 9.N.N.N.N.N.N.N.N.N.N.N.9.Y Y Y Y Y Y Y Y Y Y Y Y u.A.A.A.A.A.A.A.A.A.A.A.A.S.G.G.G.G.P.P.P.P.P.P.P.P.P.P.P.P.P.P.P.P.)       ",
"    P.P.P.P.P.P.P.P.G.A.A.A.V.N.N.N.9.Y Y Y Y a.a.a.a.a.a.a.a.a.t.t.t.y.&X&X&X&XT.G.G.G.L.P.P.P.P.P.P.P.P.G.G.G.G.G.G.G.G.G.G.G.G.C.Y Y Y Y J J J J ] M.M.M.A.Y.Y.Y.A.M.M.M.B.].].].].].].].].R.G.G.G.E.].].].].G.G.G.G.=X=X=X=X=X=X=X=X@X].].].[.=X=X=X=X].].].].].].].].].].].].).V.V.V.V.Y Y Y Y Y Y Y Y Y Y Y Y T N.N.N.N.N.9.N.N.u.t.t.t.p.a.a.a.a.a.a.a.s.=X=X=X=X[.].].].].].].].].].].].].].].].].r.Y Y Y U J J J H Y Y Y Y Y Y Y Y 9.N.N.N.N.N.N.N.N.N.N.N.9.Y Y Y Y Y Y Y Y Y Y Y Y u.A.A.A.A.A.A.A.A.A.A.A.A.S.G.G.G.G.P.P.P.P.P.P.P.P.P.P.P.P.P.P.P.P.)       ",
"    L.L.L.L.G.G.G.G.G.S.S.S.S.V.V.V.V.` ` ` ` V M M M t.a.a.a.v.`.`.`.`.!.!.!.!.G.S.S.S.G.G.G.G.L././././.G.G.G.G.S.S.S.S.S.G.G.G.A.h.h.h.h.9.9.N.9.( ( / / M.B.B.B.A.R.R.R.R.E.E.E.E.E.E.E.E.G.S.S.S.G.R.R.R.R.S.S.S.S.W./././.).).).).W.R.R.R.R././././.R.R.R.R.R.R.R.R.E.W.W.W.W.W.W.W.W.h.h.h.h.T Y Y Y E ` ` ` ` N.N.N.N.V.V.V.V.M z z z T y.y.y.a.`.`.`.`.).).).).R.R.R.R.R.R.R.R.R.R.R.R.R.R.R.R.R.z.h.h.h.! I I I I U U U U ` ` ` ` V.V.V.V.V.V.V.V.V.V.V.V.V.h.h.h.h.` ` ` ` E Y Y Y u.A.A.A.A.A.A.A.A.A.A.A.A.S.S.S.S.S.G.G.G.G.G.G.G.G.P.P.P.P.L.L.L.L.(       ",
"    G.G.G.G.S.A.A.A.S.G.G.G.S.A.A.A.A.N.N.N.N.1 < < < T a.a.a.b.=X=X=X=XG.G.G.G.A.A.A.A.A.A.A.A.G.].].].].G.G.G.G.A.A.A.A.S.G.G.G.S.A.A.A.A.G.G.G.G.K J J J ' M.M.M.S.].].].].G.G.G.G.G.G.G.G.S.A.A.A.A.A.A.A.A.A.A.A.A.A.A.A.A.S.G.G.G.S.A.A.A.A.A.A.A.A.A.A.A.A.A.A.A.A.G.P.P.P.P.].].].].S.A.A.A.r.Y Y Y _ N.N.N.N.N.N.N.N.A.A.A.A.l < < < n t.t.t.a.&X&X&X&XG.G.G.G.S.A.A.A.A.A.A.A.A.A.A.A.A.A.A.A.A.A.A.A.A.d.Y Y Y I J J J J N.N.N.N.A.A.A.A.A.A.A.A.A.A.A.A.A.A.A.A.A.N.N.N.N.! Y Y Y u.A.A.A.A.A.A.A.A.A.A.A.A.A.A.A.A.A.A.A.A.A.A.A.A.A.P.P.P.P.G.G.G.G.(       ",
"    G.G.G.G.S.A.A.A.S.G.G.G.S.A.A.A.A.N.N.N.N.1 < < < T a.a.a.b.=X=X=X=XG.G.G.G.A.A.A.A.A.A.A.A.G.].].].].G.G.G.G.A.A.A.A.S.G.G.G.S.A.A.A.A.G.G.G.G.K J J J ' M.M.M.S.].].].].G.G.G.G.G.G.G.G.S.A.A.A.A.A.A.A.A.A.A.A.A.A.A.A.A.S.G.G.G.S.A.A.A.A.A.A.A.A.A.A.A.A.A.A.A.A.G.P.P.P.P.].].].].S.A.A.A.r.Y Y Y _ N.N.N.N.N.N.N.N.A.A.A.A.l < < < n t.t.t.a.&X&X&X&XG.G.G.G.S.A.A.A.A.A.A.A.A.A.A.A.A.A.A.A.A.A.A.A.A.d.Y Y Y I J J J J N.N.N.N.A.A.A.A.A.A.A.A.A.A.A.A.A.A.A.A.A.N.N.N.N.! Y Y Y u.A.A.A.A.A.A.A.A.A.A.A.A.A.A.A.A.A.A.A.A.A.A.A.A.A.P.P.P.P.G.G.G.G.(       ",
"    G.G.G.G.S.A.A.A.S.G.G.G.S.A.A.A.A.N.N.N.N.1 < < < T s.a.a.b.=X=X=X=XG.G.G.G.A.A.A.A.A.A.A.A.G.].].].].G.G.G.G.A.A.A.A.S.G.G.G.S.A.A.A.A.G.G.G.G.K J J J ' M.M.M.S.].].].].G.G.G.G.G.G.G.G.S.A.A.A.A.A.A.A.A.A.A.A.A.A.A.A.A.S.G.G.G.S.A.A.A.A.A.A.A.A.A.A.A.A.A.A.A.A.G.P.P.P.P.].].].].S.A.A.A.r.Y Y Y _ N.N.N.N.N.N.N.N.A.A.A.A.l < < < n t.t.t.a.&X&X&X&XG.G.G.G.S.A.A.A.A.A.A.A.A.A.A.A.A.A.A.A.A.A.A.A.A.d.Y Y Y I J J J J N.N.N.N.A.A.A.A.A.A.A.A.A.A.A.A.A.A.A.A.A.N.N.N.N.! Y Y Y u.A.A.A.A.A.A.A.A.A.A.A.A.A.A.A.A.A.A.A.A.A.A.A.A.A.P.P.P.P.G.G.G.G.(       ",
"    S.S.S.S.A.A.A.A.S.S.S.S.S.A.A.A.A.B.B.B.B.l 3 3 3 U p.p.p.v.&X&X&X@XS.S.S.S.A.A.A.A.G.G.G.G.R.!.!.!.!.S.S.S.S.S.S.S.S.S.S.S.S.S.S.S.S.S.G.G.G.G.K J J J ) ` ` ` z.I.I.I.I.R.R.R.R.G.S.S.S.S.A.A.A.A.A.A.A.A.A.A.A.A.A.A.A.A.S.S.S.S.S.A.A.A.A.A.A.A.A.S.S.S.S.G.G.G.G.G.L.L.L.L.W.W.W.W.A.A.A.A.d.u.u.u.` N.N.N.N.B.B.B.B.V.V.V.V.l < < < V y.y.y.g.oXoXoXoXS.S.S.S.A.A.A.A.S.G.G.G.G.A.A.A.A.A.A.A.A.A.A.A.A.f.E E E E H H H H B.B.B.B.A.A.A.A.A.A.A.A.A.A.A.A.A.V.V.V.V.B.B.B.B._ E E E d.A.A.A.A.A.A.A.A.A.A.A.A.A.A.A.A.A.A.A.A.A.G.G.G.G.L.L.L.L.G.S.S.S.(       ",
"    A.A.A.A.A.A.A.A.A.A.A.A.A.A.A.A.A.A.A.A.A.K J J J U V V V u.].].].].A.A.A.A.A.A.A.A.W.].].].!.G.G.G.G.A.A.A.A.G.G.G.G.S.A.A.A.S.G.G.G.G.G.G.G.G.K J J J I Y Y Y Y Y Y Y r.].].].].S.A.A.A.A.A.A.A.A.A.A.A.A.A.A.A.A.A.A.A.A.A.A.A.A.A.A.A.A.A.A.A.A.A.G.G.G.G.P.P.P.P.G.A.A.A.A.A.A.A.A.A.A.A.A.A.A.A.A.V.N.N.N.N.A.A.A.A.N.N.N.N.l < < < U a.a.a.v.].].].].A.A.A.A.A.A.A.A.G.P.P.P.L.A.A.A.A.A.A.A.A.A.A.A.A.B.N.N.N.] Y Y Y Y A.A.A.A.A.A.A.A.A.A.A.A.A.A.A.A.A.N.N.N.N.A.A.A.A.B.N.N.N.B.A.A.A.A.A.A.A.A.A.A.A.A.A.A.A.A.A.A.A.A.S.P.P.P.P.G.G.G.G.S.A.A.A.P       ",
"    A.A.A.A.A.A.A.A.A.A.A.A.A.A.A.A.A.A.A.A.A.K J J J U V V V u.].].].].A.A.A.A.A.A.A.A.W.].].].!.G.G.G.G.A.A.A.A.G.G.G.G.S.A.A.A.S.G.G.G.G.G.G.G.G.K J J J I Y Y Y Y Y Y Y r.].].].].S.A.A.A.A.A.A.A.A.A.A.A.A.A.A.A.A.A.A.A.A.A.A.A.A.A.A.A.A.A.A.A.A.A.G.G.G.G.P.P.P.P.G.A.A.A.A.A.A.A.A.A.A.A.A.A.A.A.A.V.N.N.N.N.A.A.A.A.N.N.N.N.l < < < I a.a.a.v.].].].].A.A.A.A.A.A.A.A.G.P.P.P.L.A.A.A.A.A.A.A.A.A.A.A.A.B.N.N.N.] Y Y Y Y A.A.A.A.A.A.A.A.A.A.A.A.A.A.A.A.A.N.N.N.N.A.A.A.A.B.N.N.N.B.A.A.A.A.A.A.A.A.A.A.A.A.A.A.A.A.A.A.A.A.S.P.P.P.P.G.G.G.G.S.A.A.A.P       ",
"    A.A.A.A.A.A.A.A.A.A.A.A.A.A.A.A.A.A.A.A.A.K J J J U V V V u.].].].].A.A.A.A.A.A.A.A.W.].].].!.G.G.G.G.A.A.A.A.G.G.G.G.S.A.A.A.S.G.G.G.G.G.G.G.G.K J J J I Y Y Y Y Y Y Y r.].].].].S.A.A.A.A.A.A.A.A.A.A.A.A.A.A.A.A.A.A.A.A.A.A.A.A.A.A.A.A.A.A.A.A.A.G.G.G.G.P.P.P.P.G.A.A.A.A.A.A.A.A.A.A.A.A.A.A.A.A.V.N.N.N.N.A.A.A.A.N.N.N.N.l < < < C a.a.a.v.].].].].A.A.A.A.A.A.A.A.G.P.P.P.L.A.A.A.A.A.A.A.A.A.A.A.A.B.N.N.N.] Y Y Y Y A.A.A.A.A.A.A.A.A.A.A.A.A.A.A.A.A.N.N.N.N.A.A.A.A.B.N.N.N.B.A.A.A.A.A.A.A.A.A.A.A.A.A.A.A.A.A.A.A.A.S.P.P.P.P.G.G.G.G.S.A.A.A.P       ",
"    V.V.V.V.A.A.V.V.A.A.A.A.A.A.A.A.A.A.A.A.A.K J J J C V V V W ].].].).A.A.A.A.A.A.A.A.W.].].].W.G.G.G.G.A.A.A.A.G.G.G.G.S.A.A.A.S.G.G.G.G.G.G.G.G.K K K K R Y Y Y Y T T T r.].].].].S.A.A.A.A.A.A.A.A.A.A.A.A.A.A.A.A.A.A.A.A.A.A.A.A.A.A.A.A.A.A.A.A.A.G.G.G.G.L.P.P.P.G.A.A.A.A.A.A.A.A.A.A.A.A.A.V.V.V.B.N.N.N.N.A.A.A.A.N.N.N.9.l < < < U a.a.a.v.].].].].A.A.A.A.A.A.A.A.G.P.P.P.L.A.A.A.A.A.A.A.A.A.A.A.A.B.N.N.N.] Y Y Y T A.A.A.A.A.A.A.A.A.A.A.A.A.A.A.A.A.N.N.N.N.A.A.A.A.B.N.N.N.B.A.A.A.A.A.A.A.A.A.A.A.A.A.A.A.A.A.A.A.A.S.P.P.P.P.G.G.G.G.S.V.V.V.P       ",
"    Y Y Y Y Y Y Y Y _ N.N.N.N.A.A.A.A.N.N.N.N.1 < < < k V V V Z Y Y Y Y A.A.A.A.N.N.N.N.V.A.A.A.A.A.A.A.A.A.A.A.A.A.A.A.A.A.A.A.A.A.A.A.A.A.A.A.A.A.A.A.A.A.A.A.A.A.G.E.E.E.R.N.N.N.N.A.A.A.A.A.A.A.A.A.A.A.A.A.A.A.A.A.A.A.A.A.S.G.G.G.S.A.A.A.A.G.G.G.G.A.A.A.A.A.A.A.A.V.N.N.N.N.A.A.A.A.A.A.A.A.r.Y Y Y _ N.N.N.N.A.A.A.A.N.N.N.N.K J J J R t.t.t.i.].].].].G.G.G.G.S.A.A.A.A.A.A.A.A.A.A.A.A.A.A.A.A.A.A.A.A.A.A.A.A.A.A.A.A.A.A.A.A.A.A.A.A.A.A.A.A.A.V.N.N.N.N.A.A.A.A.N.N.N.N.V.A.A.A.A.A.A.A.A.A.A.A.A.N.N.N.N.N.N.N.N.B.A.A.A.A.N.N.N.N.A.A.A.A.u.Y Y Y h       ",
"    Y Y Y Y Y Y Y Y _ N.N.N.N.A.A.A.A.N.N.N.N.1 < < < k V V V Z Y Y Y Y A.A.A.A.N.N.N.N.V.A.A.A.A.A.A.A.A.A.A.A.A.A.A.A.A.A.A.A.A.A.A.A.A.A.A.A.A.A.A.A.A.A.A.A.A.A.G.E.E.E.R.N.N.N.N.A.A.A.A.A.A.A.A.A.A.A.A.A.A.A.A.A.A.A.A.A.S.G.G.G.S.A.A.A.A.G.G.G.G.A.A.A.A.A.A.A.A.V.N.N.N.N.A.A.A.A.A.A.A.A.r.Y Y Y _ N.N.N.N.A.A.A.A.N.N.N.N.K J J J R t.t.t.i.].].].].G.G.G.G.S.A.A.A.A.A.A.A.A.A.A.A.A.A.A.A.A.A.A.A.A.A.A.A.A.A.A.A.A.A.A.A.A.A.A.A.A.A.A.A.A.A.V.N.N.N.N.A.A.A.A.N.N.N.N.V.A.A.A.A.A.A.A.A.A.A.A.A.N.N.N.N.N.N.N.N.B.A.A.A.A.N.N.N.N.A.A.A.A.u.Y Y Y h       ",
"    Y Y Y Y Y Y Y Y _ N.N.N.N.A.A.A.A.N.N.N.N.1 < < < k V V V Z Y Y Y Y A.A.A.A.N.N.N.N.V.A.A.A.A.A.A.A.A.A.A.A.A.A.A.A.A.A.A.A.A.A.A.A.A.A.A.A.A.A.A.A.A.A.A.A.A.A.G.E.E.E.R.N.N.N.N.A.A.A.A.A.A.A.A.A.A.A.A.A.A.A.A.A.A.A.A.A.S.G.G.G.S.A.A.A.A.G.G.G.G.A.A.A.A.A.A.A.A.V.N.N.N.N.A.A.A.A.A.A.A.A.r.Y Y Y _ N.N.N.N.A.A.A.A.N.N.N.N.K J J J R t.t.t.i.].].].].G.G.G.G.S.A.A.A.A.A.A.A.A.A.A.A.A.A.A.A.A.A.A.A.A.A.A.A.A.A.A.A.A.A.A.A.A.A.A.A.A.A.A.A.A.A.V.N.N.N.N.A.A.A.A.N.N.N.N.V.A.A.A.A.A.A.A.A.A.A.A.A.N.N.N.N.N.N.N.N.B.A.A.A.A.N.N.N.N.A.A.A.A.u.Y Y Y h       ",
"    Y Y Y Y Y Y Y Y _ N.N.N.N.A.A.A.A.N.N.N.N.1 < < < k V V V Z Y Y Y Y A.A.A.A.N.N.N.N.V.A.A.A.A.A.A.A.A.A.A.A.A.A.A.A.A.A.A.A.A.A.A.A.A.A.A.A.A.A.A.A.A.A.A.A.A.A.G.E.E.E.R.N.N.N.N.A.A.A.A.A.A.A.A.A.A.A.A.A.A.A.A.A.A.A.A.A.S.G.G.G.S.A.A.A.A.G.G.G.G.A.A.A.A.A.A.A.A.V.N.N.N.N.A.A.A.A.A.A.A.A.r.Y Y Y _ N.N.N.N.A.A.A.A.N.N.N.N.K J J J R t.t.t.i.].].].].G.G.G.G.S.A.A.A.A.A.A.A.A.A.A.A.A.A.A.A.A.A.A.A.A.A.A.A.A.A.A.A.A.A.A.A.A.A.A.A.A.A.A.A.A.A.V.N.N.N.N.A.A.A.A.N.N.N.N.V.A.A.A.A.A.A.A.A.A.A.A.A.N.N.N.N.N.N.N.N.B.A.A.A.A.N.N.N.N.A.A.A.A.u.Y Y Y h       ",
"    Y Y Y Y V.V.V.V.V.A.A.A.V.N.N.N.N.N.N.N.N.1 < < < V t.t.t.e.Y Y Y Y N.N.N.N.A.A.A.A.B.N.N.N.B.A.A.A.A.N.N.N.N.A.A.A.A.A.A.A.A.A.A.A.A.A.A.A.A.A.A.A.A.A.T.E.E.E.G.N.N.N.N.A.A.A.A.N.N.N.N.N.N.N.N.B.A.A.A.A.A.A.A.A.N.N.N.N.V.A.A.A.A.A.A.A.A.A.A.A.A.A.A.A.A.r.T T T f.A.A.A.A.A.A.A.A.N.N.N.N.T Y Y Y f.A.A.A.V.N.N.N.N.A.A.A.A.l < < < V t.t.t.u.B.B.B.B.A.A.A.A.A.A.A.A.A.A.A.A.A.A.A.A.A.A.A.A.A.A.A.A.A.A.A.A.A.A.A.A.A.A.A.A.A.A.A.A.A.A.A.A.A.A.A.A.A.A.A.A.A.A.A.N.N.N.N.V.A.A.A.A.A.A.A.A.A.A.A.A.N.N.N.N.V.A.A.A.V.N.N.N.N.A.A.A.A.N.N.N.N.N.9.9.9.J       ",
"    Y Y Y Y V.A.A.A.A.A.A.A.V.N.N.N.N.N.N.N.N.1 < < < V t.t.t.t.Y Y Y Y N.N.N.N.A.A.A.A.B.N.N.N.B.A.A.A.A.N.N.N.N.A.A.A.A.A.A.A.A.A.A.A.A.A.A.A.A.A.A.A.A.A.T.E.E.E.G.N.N.N.N.A.A.A.A.N.N.N.N.N.N.N.N.B.A.A.A.A.A.A.A.A.N.N.N.N.V.A.A.A.A.A.A.A.A.A.A.A.A.A.A.A.A.r.Y Y Y d.A.A.A.A.A.A.A.A.N.N.N.N.T Y Y Y f.A.A.A.A.N.N.N.N.A.A.A.A.l < < < n t.t.t.u.N.N.N.N.A.A.A.A.A.A.A.A.A.A.A.A.A.A.A.A.A.A.A.A.A.A.A.A.A.A.A.A.A.A.A.A.A.A.A.A.A.A.A.A.A.A.A.A.A.A.A.A.A.A.A.A.A.A.A.N.N.N.N.V.A.A.A.A.A.A.A.A.A.A.A.A.N.N.N.N.V.A.A.A.V.N.N.N.N.A.A.A.A.N.N.N.N.N.N.N.N.J       ",
"    Y Y Y Y V.A.A.A.A.A.A.A.V.N.N.N.N.N.N.N.N.1 < < < V t.t.t.t.Y Y Y Y N.N.N.N.A.A.A.A.B.N.N.N.B.A.A.A.A.N.N.N.N.A.A.A.A.A.A.A.A.A.A.A.A.A.A.A.A.A.A.A.A.A.T.E.E.E.G.N.N.N.N.A.A.A.A.N.N.N.N.N.N.N.N.B.A.A.A.A.A.A.A.A.N.N.N.N.V.A.A.A.A.A.A.A.A.A.A.A.A.A.A.A.A.r.Y Y Y d.A.A.A.A.A.A.A.A.N.N.N.N.T Y Y Y f.A.A.A.A.N.N.N.N.A.A.A.A.l < < < n t.t.t.u.N.N.N.N.A.A.A.A.A.A.A.A.A.A.A.A.A.A.A.A.A.A.A.A.A.A.A.A.A.A.A.A.A.A.A.A.A.A.A.A.A.A.A.A.A.A.A.A.A.A.A.A.A.A.A.A.A.A.A.N.N.N.N.V.A.A.A.A.A.A.A.A.A.A.A.A.N.N.N.N.V.A.A.A.V.N.N.N.N.A.A.A.A.N.N.N.N.N.N.N.N.J       ",
"    Y Y Y Y V.A.A.A.A.A.A.A.V.N.N.N.N.N.N.N.N.1 < < < V t.t.t.t.Y Y Y Y N.N.N.N.A.A.A.A.B.N.N.N.B.A.A.A.A.N.N.N.N.A.A.A.A.A.A.A.A.A.A.A.A.A.A.A.A.A.A.A.A.A.T.E.E.E.G.N.N.N.N.A.A.A.A.N.N.N.N.N.N.N.N.B.A.A.A.A.A.A.A.A.N.N.N.N.V.A.A.A.A.A.A.A.A.A.A.A.A.A.A.A.A.r.Y Y Y d.A.A.A.A.A.A.A.A.N.N.N.N.T Y Y Y f.A.A.A.A.N.N.N.N.A.A.A.A.l < < < n t.t.t.u.N.N.N.N.A.A.A.A.A.A.A.A.A.A.A.A.A.A.A.A.A.A.A.A.A.A.A.A.A.A.A.A.A.A.A.A.A.A.A.A.A.A.A.A.A.A.A.A.A.A.A.A.A.A.A.A.A.A.A.N.N.N.N.V.A.A.A.A.A.A.A.A.A.A.A.A.N.N.N.N.V.A.A.A.V.N.N.N.N.A.A.A.A.N.N.N.N.N.N.N.N.J       ",
"    h.h.h.h.d.d.d.d.h.B.B.B.B.V.V.V.V.E E E E < < < < n A A A A Y Y Y Y E E E E B.B.B.B.V.V.V.V.V.B.B.B.B.V.V.V.V.B.B.B.B.V.A.A.A.A.A.A.A.A.A.A.A.A.T.T.T.T.z.d.d.d.d.E E E ! B.B.B.B.N.N.N.N.( / / / ' A.A.A.A.A.A.A.A.! E E E z.B.B.B.V.A.A.A.V.d.d.d.d.d.d.d.d.h.h.h.h.C.A.A.A.A.A.A.A.A.N.N.N.N.T Y Y Y _ B.B.B.B.N.N.N.N.d.d.d.d.h < < < n t.t.t.t.E E E ! B.B.B.B.A.A.A.A.h.d.d.d.d.d.d.d.d.d.d.d.d.V.A.A.A.A.A.A.A.A.A.A.A.A.A.A.A.A.A.A.A.A.A.A.A.A.V.B.B.B.B.A.A.A.A.V.V.V.V.A.A.A.A.A.A.A.A.A.B.B.B.B.V.V.V.V.B.B.B.B.N.N.N.N.N.B.B.B.B.! E E E E E E E z       ",
"    A.A.A.A.T Y Y Y _ N.N.N.N.A.A.A.A.Y Y Y Y < < < < k V V V Z Y Y Y Y Y Y Y Y 9.N.N.N.V.A.A.A.V.N.N.N.N.A.A.A.A.N.N.N.N.V.A.A.A.A.A.A.A.A.A.A.A.A.E.E.E.E.d.Y Y Y Y Y Y Y Y N.N.N.N.N.N.N.N.P J J J ( A.A.A.A.A.A.A.A.Y Y Y Y ] N.N.N.B.A.A.A.V.Y Y Y Y Y Y Y Y C.A.A.A.A.A.A.A.A.A.A.A.A.N.N.N.N.T Y Y Y _ N.N.N.N.N.N.N.N.Y Y Y Y h < < < n t.t.t.t.Y Y Y Y N.N.N.N.A.A.A.A.d.Y Y Y Y Y Y Y Y Y Y Y Y V.A.A.A.A.A.A.A.A.A.A.A.A.A.A.A.A.A.A.A.A.A.A.A.A.V.N.N.N.N.A.A.A.A.A.A.A.A.A.A.A.A.A.A.A.A.A.N.N.N.N.A.A.A.A.B.N.N.N.N.N.N.N.N.N.N.N.N.Y Y Y Y Y Y Y Y h       ",
"    A.A.A.A.T Y Y Y _ N.N.N.N.A.A.A.A.Y Y Y Y < < < < k V V V Z Y Y Y Y Y Y Y Y 9.N.N.N.V.A.A.A.V.N.N.N.N.A.A.A.A.N.N.N.N.V.A.A.A.A.A.A.A.A.A.A.A.A.E.E.E.E.d.Y Y Y Y Y Y Y Y N.N.N.N.N.N.N.N.P J J J ( A.A.A.A.A.A.A.A.Y Y Y Y ] N.N.N.B.A.A.A.V.Y Y Y Y Y Y Y Y C.A.A.A.A.A.A.A.A.A.A.A.A.N.N.N.N.T Y Y Y _ N.N.N.N.N.N.N.N.Y Y Y Y h < < < n t.t.t.t.Y Y Y Y N.N.N.N.A.A.A.A.d.Y Y Y Y Y Y Y Y Y Y Y Y V.A.A.A.A.A.A.A.A.A.A.A.A.A.A.A.A.A.A.A.A.A.A.A.A.V.N.N.N.N.A.A.A.A.A.A.A.A.A.A.A.A.A.A.A.A.A.N.N.N.N.A.A.A.A.B.N.N.N.N.N.N.N.N.N.N.N.N.Y Y Y Y Y Y Y Y h       ",
"    A.A.A.A.T Y Y Y _ N.N.N.N.A.A.A.A.Y Y Y Y < < < < k V V V Z Y Y Y Y Y Y Y Y ] N.N.N.V.A.A.A.V.N.N.N.N.A.A.A.A.N.N.N.N.V.A.A.A.A.A.A.A.A.A.A.A.A.E.E.E.E.d.Y Y Y Y Y Y Y Y N.N.N.N.N.N.N.N.P J J J ( A.A.A.A.A.A.A.A.Y Y Y Y ] N.N.N.B.A.A.A.V.Y Y Y Y Y Y Y Y C.A.A.A.A.A.A.A.A.A.A.A.A.N.N.N.N.T Y Y Y _ N.N.N.N.N.N.N.N.Y Y Y Y h < < < n t.t.t.t.Y Y Y Y N.N.N.N.A.A.A.A.d.Y Y Y Y Y Y Y Y Y Y Y Y V.A.A.A.A.A.A.A.A.A.A.A.A.A.A.A.A.A.A.A.A.A.A.A.A.V.N.N.N.N.A.A.A.A.A.A.A.A.A.A.A.A.A.A.A.A.A.N.N.N.N.A.A.A.A.B.N.N.N.N.N.N.N.N.N.N.N.N.Y Y Y Y Y Y Y Y h       ",
"    N.N.N.N.R I I I ( ' ' ' ' ] ] ] ` Z Z Z Z j j j j B A A A A Y Y Y Y Z Z Z Z ( ( ( ( ) ] ] ] ] ' ' ' ' N.N.N.N.' ' ' ' ] ] ] ] ] N.N.N.N.N.N.N.N.V.V.V.V._ I I I I I I I I ( ( ( ( ' ' ' ' J D D D K ] ] ] ` ( ( ( ( Z Z Z Z R ( ( ( ' N.N.N.] Z Z Z Z I I I I ] N.N.N.N.N.N.N.N.N.N.N.N.' ' ' ' R I I I R ( ( ( ( ( ( ( ( z z z z j j j j C y.y.y.y.T T T T ( ( ( ( 9.N.N.N.! Z Z Z I I I I I I I I I 9.N.N.N.N.N.N.N.N.N.N.N.N.N.N.N.N.N.N.N.N.] ] ] ] ` ( ( ( ( ( ( ( ( ` ] ] ] ) ( ( ( ( ( ( ( ( ( ( ( ( ` ] ] ] ) ( ( ( ( ( ( ( ( ' ' ' ' I Z Z Z I I I I l       ",
"    J J J J J J J J J J J J F < < < < < < < < V V V V A t.t.t.t.V V V V < < < < < < < < < < < < 3 J J J J J J J J J J J J 3 < < < 3 J J J J J J J J J J J J J J J J J J J J F < < < < J J J J 3 < < < < < < < <         < < < < < < < < l J J J F < < < < J J J J J J J J J J J J J J J J J J J J J J J J J l < < < < < < < <         n V V V t.a.a.a.a.t.t.t.t.< < < < F J J J l < < < < J J J J J J J J J J J J J J J J J J J J J J J J J J J J J l < < < < < < < <         < < < < X                 < < < < < < < < < < < < < < < < < J J J J < < < < D J J J 3       ",
"    J J J J J J J J J J J J F < < < < < < < < V V V V A t.t.t.t.V V V V < < < < < < < < < < < < 3 J J J J J J J J J J J J 3 < < < 3 J J J J J J J J J J J J J J J J J J J J F < < < < J J J J 3 < < < < < < < <         < < < < < < < < l J J J F < < < < J J J J J J J J J J J J J J J J J J J J J J J J J l < < < < < < < <         n V V V t.a.a.a.a.t.t.t.t.< < < < F J J J l < < < < J J J J J J J J J J J J J J J J J J J J J J J J J J J J J l < < < < < < < <         < < < < X                 < < < < < < < < < < < < < < < < < J J J J < < < < D J J J 3       ",
"    J J J J J J J J J J J J F < < < < < < < < V V V V A t.t.t.t.V V V V < < < < < < < < < < < < 3 J J J J J J J J J J J J 3 < < < 3 J J J J J J J J J J J J J J J J J J J J F < < < < J J J J 3 < < < < < < < <         < < < < < < < < l J J J F < < < < J J J J J J J J J J J J J J J J J J J J J J J J J l < < < < < < < <         n V V V t.a.a.a.a.t.t.t.t.< < < < F J J J l < < < < J J J J J J J J J J J J J J J J J J J J J J J J J J J J J l < < < < < < < <         < < < < X                 < < < < < < < < < < < < < < < < < J J J J < < < < D J J J 3       ",
"    J J J J J J J J J J J J F < < < < < < < < V V V V A t.t.t.t.V V V V < < < < < < < < < < < < l J J J J J J J J J J J J l < < < l J J J J J J J J J J J J J J J J J J J J J < < < < J J J J l < < < < < < < <         < < < < < < < < l J J J F < < < < J J J J J J J J J J J J J J J J J J J J J J J J J m < < < < < < < <         B V V V t.a.a.a.a.y.y.y.t.< < < < J J J J l < < < j J J J J J J J J J J J J J J J J J J J J J J J J J J J J J l < < < < < < < <         < < < < O         X X X X < < < < < < < < < < < < < < < < < J J J J < < < < D J J J 3       ",
"    V V V V V V V V V V V V V V V V V V V V V V V V V A t.t.t.t.t.t.t.t.V V V V V V V V T t.t.t.t.t.t.t.t.V V V V t.t.t.t.A V V V A t.t.t.t.V V V V t.t.t.t.t.t.t.t.t.t.t.t.t.t.t.t.t.t.t.t.t.A V V V A t.t.t.t.V V V V V V V V V V V V V V V V V t.t.t.t.t.t.t.t.t.t.t.t.t.t.t.t.t.t.t.t.t.V V V V V V V V A t.t.t.t.V V V V t.t.t.t.C V V V t.a.a.a.a.a.a.a.a.a.a.a.a.a.a.a.a.a.a.a.a.a.t.t.t.t.a.a.a.a.y.t.t.t.A V V V V V V V V V V V V V V V V T t.t.t.t.V V V V t.t.t.t.V V V V V V V V A a.a.a.a.t.t.t.t.a.a.a.a.y.t.t.t.t.t.t.t.t.t.t.t.t.t.t.t.t.t.t.t.t.n       ",
"    V V V V V V V V V V V V V V V V V V V V V V V V V A t.t.t.t.t.t.t.t.V V V V V V V V T t.t.t.t.t.t.t.t.V V V V t.t.t.t.A V V V A t.t.t.t.V V V V t.t.t.t.t.t.t.t.t.t.t.t.t.t.t.t.t.t.t.t.t.A V V V A t.t.t.t.V V V V V V V V V V V V V V V V V t.t.t.t.t.t.t.t.t.t.t.t.t.t.t.t.t.t.t.t.t.V V V V V V V V A t.t.t.t.V V V V t.t.t.t.C V V V t.a.a.a.a.a.a.a.a.a.a.a.a.a.a.a.a.a.a.a.a.a.t.t.t.t.a.a.a.a.y.t.t.t.A V V V V V V V V V V V V V V V V T t.t.t.t.V V V V t.t.t.t.V V V V V V V V A a.a.a.a.t.t.t.t.a.a.a.a.y.t.t.t.t.t.t.t.t.t.t.t.t.t.t.t.t.t.t.t.t.n       ",
"    V V V V V V V V V V V V V V V V V V V V V V V V V A t.t.t.t.t.t.t.t.V V V V V V V V T t.t.t.t.t.t.t.t.V V V V t.t.t.t.A V V V A t.t.t.t.V V V V t.t.t.t.t.t.t.t.t.t.t.t.t.t.t.t.t.t.t.t.t.A V V V A t.t.t.t.V V V V V V V V V V V V V V V V V t.t.t.t.t.t.t.t.t.t.t.t.t.t.t.t.t.t.t.t.t.V V V V V V V V A t.t.t.t.V V V V t.t.t.t.C V V V t.a.a.a.a.a.a.a.a.a.a.a.a.a.a.a.a.a.a.a.a.a.t.t.t.t.a.a.a.a.y.t.t.t.A V V V V V V V V V V V V V V V V T t.t.t.t.V V V V t.t.t.t.V V V V V V V V A a.a.a.a.t.t.t.t.a.a.a.a.y.t.t.t.t.t.t.t.t.t.t.t.t.t.t.t.t.t.t.t.t.n       ",
"    V V V V V V V V V V V V V V V V V V V V V V V V V A t.t.t.t.t.t.t.t.V V V V V V V V T t.t.t.t.t.t.t.t.V V V V t.t.t.t.A V V V A t.t.t.t.V V V V t.t.t.t.t.t.t.t.t.t.t.t.t.t.t.t.t.t.t.t.t.A V V V A t.t.t.t.V V V V V V V V V V V V V V V V V t.t.t.t.t.t.t.t.t.t.t.t.t.t.t.t.t.t.t.t.t.V V V V V V V V A t.t.t.t.V V V V t.t.t.t.C V V V t.a.a.a.a.a.a.a.a.a.a.a.a.a.a.a.a.a.a.a.a.a.t.t.t.t.a.a.a.a.y.t.t.t.A V V V V V V V V V V V V V V V V T t.t.t.t.V V V V t.t.t.t.V V V V V V V V A a.a.a.a.t.t.t.t.a.a.a.a.y.t.t.t.t.t.t.t.t.t.t.t.t.t.t.t.t.t.t.t.t.n       ",
"    @X@X@X@X@X@X@X@X`.L.L.L.L.S.S.S.S.V.V.V.V.V.V.V.V.G.L.L.L.L.V.V.V.A.L.L.L.L.L.L.L.L.L.L.L.L.P.!.!.!.!.Q.Q.Q.Q.!.!.!.!.R.S.S.S.R.!.!.!.Q.S.S.S.S.S.S.S.S.B.9.9.9.G.@X@X@X@X@X@X@X@XP.L.L.L.S.V.V.V.B.9.9.9.9.Y Y Y Y V V V V W t.t.t.A V V V W tXtXtXtX@X@X@X@X@X%X%X%X%X%X%X%X@XL.L.L.L.L.L.L.L.L.L.L.L.L.L.L.L.L.L.L.L.L.V.V.V.V.9.9.9.9.B.S.S.S.S.].].].].].].].].].].].].E.S.S.S.G.L.L.L.L.P.P.P.P.P.L.L.L.L.L.L.L.L.L.L.L.L.L.L.L.L.L.L.L.L.G.V.V.V.V.9.9.9.9.Y Y Y Y V V V V y.a.a.a.p.y.y.y.y.S.S.S.S.wXtXtXtXtXtXeXtX9X].].].].].].].`.].`.].].].].].].]       ",
"    &X&X&X&X&X&X&X&X].P.P.P.P.G.G.G.G.A.A.A.A.A.A.A.A.L.P.P.P.L.A.A.A.S.P.P.P.P.P.P.P.P.P.P.P.P.W.!.!.!.!.!.!.!.!.!.!.!.!.R.Y.Y.Y.R.!.!.!.!.Y.Y.Y.Y.Y.Y.Y.Y.B.N.N.N.G.&X&X&X&X&X&X&X&XU.P.P.P.G.A.A.A.V.N.N.N.9.Y Y Y Y V V V V t.t.t.t.A V V V W tXtXtXtX%X@X@X@X=X=X=X=X=X=X=X=X%XP.P.P.P.P.P.P.P.P.P.P.P.P.P.P.P.P.P.P.P.P.A.A.A.A.N.N.N.N.V.A.A.A.G.].].].].].].].].].].].].W.G.G.G.G.P.P.P.P.P.P.P.P.P.P.P.P.P.P.P.P.P.P.P.P.P.P.P.P.P.P.P.P.P.G.A.A.A.V.N.N.N.9.Y Y Y Y V V V V y.a.a.a.a.t.t.t.y.Y.Y.S.Y.tXtXtXtXtXtXtXtX0X].].].].].].].].].].].].].].].].9.      ",
"    &X&X&X&X&X&X&X&X].P.P.P.P.G.G.G.G.A.A.A.A.A.A.A.A.L.P.P.P.L.A.A.A.S.P.P.P.P.P.P.P.P.P.P.P.P.W.!.!.!.!.!.!.!.!.!.!.!.!.R.Y.Y.Y.R.!.!.!.!.Y.Y.Y.Y.Y.Y.Y.Y.B.N.N.N.G.&X&X&X&X&X&X&X&XU.P.P.P.G.A.A.A.V.N.N.N.9.Y Y Y Y V V V V t.t.t.t.T V V V W tXtXtXtX%X@X@X@X=X=X=X=X=X=X=X=X%XP.P.P.P.P.P.P.P.P.P.P.P.P.P.P.P.P.P.P.P.P.A.A.A.A.N.N.N.N.V.A.A.A.G.].].].].].].].].].].].].W.G.G.G.G.P.P.P.P.P.P.P.P.P.P.P.P.P.P.P.P.P.P.P.P.P.P.P.P.P.P.P.P.P.G.A.A.A.V.N.N.N.9.Y Y Y Y V V V V y.a.a.a.a.t.t.t.y.Y.Y.Y.Y.tXtXtXtXtXtXtXtX0X].].].].].].].].].].].].].].].].9.      ",
"    &X&X&X&X&X&X&X&X].P.P.P.P.G.G.G.G.A.A.A.A.A.A.A.A.L.P.P.P.L.A.A.A.S.P.P.P.P.P.P.P.P.P.P.P.P.W.!.!.!.!.!.!.!.!.!.!.!.!.R.Y.Y.Y.R.!.!.!.!.Y.Y.Y.Y.Y.Y.Y.Y.B.N.N.N.G.&X&X&X&X&X&X&X&XU.P.P.P.G.A.A.A.V.N.N.N.9.Y Y Y Y V V V V t.t.t.t.T V V V W tXtXtXtX%X@X@X@X=X=X=X=X=X=X=X=X%XP.P.P.P.P.P.P.P.P.P.P.P.P.P.P.P.P.P.P.P.P.A.A.A.A.N.N.N.N.V.A.A.A.G.].].].].].].].].].].].].W.G.G.G.G.P.P.P.P.P.P.P.P.P.P.P.P.P.P.P.P.P.P.P.P.P.P.P.P.P.P.P.P.P.G.A.A.A.V.N.N.N.9.Y Y Y Y V V V V y.a.a.a.a.t.t.t.y.Y.Y.Y.Y.tXtXtXtXtXtXtXtX0X].].].].].].].].].].].].].].].].9.      ",
"    /./././././././.E.G.G.G.G.S.S.S.S.A.A.A.A.A.A.A.A.S.G.G.G.Z.d.d.d.d.G.G.G.G.G.G.G.G.G.G.G.G.W.XXXXXXXXXXXXXXXXW.W.W.W.P.L.L.L.W.XXXXXXXX X X X X X X X X|.].].].].Q.Q.Q.W.W.W.W.W.G.G.G.G.V.B.B.B.B.V.V.V.V.` ` ` ` j j j j V A A A b.$X$X$X$X].].].].E.E.E.E.W.W.W.W.W.W.W.W.W.P.P.P.P.G.G.G.G.G.G.G.G.G.G.G.G.G.G.G.G.G.S.S.S.S.V.V.V.V.V.B.B.B.V.T.T.T.T.T.T.T.T.T.T.T.T.G.S.S.S.S.G.G.G.G.G.G.G.G.R.E.E.E.R.G.G.G.G.G.G.G.G.G.G.G.G.G.G.G.G.G.S.S.S.S.V.V.V.V.` ` ` ` j j j j T y.y.y.g.L.L.L.L.oXoXoXoX].].].].].).].).W.T.T.T.T.T.T.T.T.W.W.W.W.W.W.W.W.`       ",
"    P.P.P.P.P.P.P.P.L.G.G.G.S.A.A.A.A.A.A.A.A.A.A.A.A.A.A.A.A.C.Y Y Y Y A.A.A.A.A.A.A.A.S.G.G.G.W.&X&X&X&X&X&X&X&XU.P.P.P.P.P.P.P./.&X&X&X&X&X&X&X&X&X&X&X&X&X&X&X&X XG.G.G.G.A.A.A.A.A.A.A.A.B.N.N.N.B.A.A.A.A.N.N.N.N.< < < < B V V V K.tXtXtXtXG.G.G.G.A.A.A.A.A.A.A.A.A.A.A.A.S.P.P.P.P.G.G.G.G.S.A.A.A.A.A.A.A.S.G.G.G.G.G.G.G.G.S.A.A.A.V.N.N.N.N.A.A.A.A.A.A.A.A.A.A.A.A.A.A.A.A.A.A.A.A.A.A.A.A.A.E.E.E.E.T.G.G.G.S.A.A.A.A.A.A.A.A.A.A.A.A.S.G.G.G.S.A.A.A.A.N.N.N.N.< < < < C t.t.t.l.!.!.!.).=X=X=X=XG.G.G.G.S.A.A.A.A.A.A.A.A.A.A.A.A.P.P.P.P.P.P.P.P.)       ",
"    P.P.P.P.P.P.P.P.L.G.G.G.S.A.A.A.A.A.A.A.A.A.A.A.A.A.A.A.A.C.Y Y Y Y A.A.A.A.A.A.A.A.S.G.G.G.W.&X&X&X&X&X&X&X&XU.P.P.P.P.P.P.P./.&X&X&X&X&X&X&X&X&X&X&X&X&X&X&X&X XG.G.G.G.A.A.A.A.A.A.A.A.B.N.N.N.B.A.A.A.A.N.N.N.N.< < < < B V V V K.tXtXtXtXG.G.G.G.A.A.A.A.A.A.A.A.A.A.A.A.S.P.P.P.P.G.G.G.G.S.A.A.A.A.A.A.A.S.G.G.G.G.G.G.G.G.S.A.A.A.V.N.N.N.N.A.A.A.A.A.A.A.A.A.A.A.A.A.A.A.A.A.A.A.A.A.A.A.A.A.E.E.E.E.T.G.G.G.S.A.A.A.A.A.A.A.A.A.A.A.A.S.G.G.G.S.A.A.A.A.N.N.N.N.< < < < C t.t.t.l.!.!.!.).=X=X=X=XG.G.G.G.S.A.A.A.A.A.A.A.A.A.A.A.A.P.P.P.P.P.P.P.P.)       ",
"    P.P.P.P.P.P.P.P.L.G.G.G.S.A.A.A.A.A.A.A.A.A.A.A.A.A.A.A.A.C.Y Y Y Y A.A.A.A.A.A.A.A.S.G.G.G.W.&X&X&X&X&X&X&X&XU.P.P.P.P.P.P.P./.&X&X&X&X&X&X&X&X&X&X&X&X&X&X&X&X XG.G.G.G.A.A.A.A.A.A.A.A.B.N.N.N.B.A.A.A.A.N.N.N.N.< < < < B V V V K.tXtXtXtXG.G.G.G.A.A.A.A.A.A.A.A.A.A.A.A.S.P.P.P.P.G.G.G.G.S.A.A.A.A.A.A.A.S.G.G.G.G.G.G.G.G.S.A.A.A.V.N.N.N.N.A.A.A.A.A.A.A.A.A.A.A.A.A.A.A.A.A.A.A.A.A.A.A.A.A.E.E.E.E.T.G.G.G.S.A.A.A.A.A.A.A.A.A.A.A.A.S.G.G.G.S.A.A.A.A.N.N.N.N.< < < < C t.t.t.l.!.!.!.}.=X=X=X=XG.G.G.G.S.A.A.A.A.A.A.A.A.A.A.A.A.P.P.P.P.P.P.P.P.)       ",
"    L.L.L.L.L.L.L.L.G.S.S.S.S.A.A.A.A.A.A.A.A.A.A.A.A.A.A.A.A.V.d.d.d.d.A.A.A.A.S.S.S.S.S.G.G.G.R. X X X X X X X XL.L.L.L.P.P.P.P.W. X X X X X X X X X X X X X X X X).S.S.S.S.A.A.A.A.A.A.A.A.V.B.B.B.V.V.V.V.V.B.B.B.B.l 3 3 3 C A A A b.0X0X0X0XS.S.S.S.A.A.A.A.A.A.A.A.S.G.G.G.G.L.L.L.L.S.S.S.S.S.A.A.A.S.S.S.S.S.G.G.G.G.S.S.S.S.A.A.A.A.V.B.B.B.B.A.A.A.A.A.A.A.A.A.A.A.A.A.A.A.A.A.A.A.A.A.G.G.G.G.R.R.R.R.G.S.S.S.S.A.A.A.A.A.A.A.A.S.S.S.S.S.S.S.S.S.A.A.A.A.B.B.B.B.l 3 3 3 T y.y.y.l.Q.Q.Q.!.*X*X*X*XG.S.S.S.S.A.A.A.A.A.A.A.A.S.S.S.S.L.L.L.L.L.L.L.L.(       ",
"    G.G.G.G.G.G.G.G.S.A.A.A.A.A.A.A.A.A.A.A.A.A.A.A.A.A.A.A.A.A.A.A.A.A.A.A.A.A.G.G.G.G.G.G.G.G.S.A.A.A.A.A.A.A.A.A.A.A.A.L.P.P.P.L.G.G.G.G.G.G.G.G.G.G.G.G.G.G.G.G.S.A.A.A.A.A.A.A.A.A.A.A.A.A.A.A.A.V.N.N.N.N.A.A.A.A.K J J J W t.t.t.c.].].].].A.A.A.A.A.A.A.A.A.A.A.A.G.P.P.P.P.G.G.G.G.A.A.A.A.A.A.A.A.S.G.G.G.G.G.G.G.G.A.A.A.A.A.A.A.A.A.A.A.A.A.A.A.A.A.A.A.A.A.A.A.A.A.A.A.A.A.A.A.A.A.A.E.E.E.E.G.G.G.G.S.A.A.A.A.A.A.A.A.A.A.A.A.G.G.G.G.S.A.A.A.A.A.A.A.A.A.A.A.A.K J J J u.a.a.a.l.Y.Y.Y.T.&X&X&X&XG.A.A.A.A.A.A.A.A.A.A.A.A.G.G.G.G.G.G.G.G.G.G.G.G.(       ",
"    G.G.G.G.G.G.G.G.S.A.A.A.A.A.A.A.A.A.A.A.A.A.A.A.A.A.A.A.A.A.A.A.A.A.A.A.A.A.G.G.G.G.G.G.G.G.S.A.A.A.A.A.A.A.A.A.A.A.A.L.P.P.P.L.G.G.G.G.G.G.G.G.G.G.G.G.G.G.G.G.S.A.A.A.A.A.A.A.A.A.A.A.A.A.A.A.A.V.N.N.N.N.A.A.A.A.K J J J W t.t.t.c.].].].].A.A.A.A.A.A.A.A.A.A.A.A.G.P.P.P.P.G.G.G.G.A.A.A.A.A.A.A.A.S.G.G.G.G.G.G.G.G.A.A.A.A.A.A.A.A.A.A.A.A.A.A.A.A.A.A.A.A.A.A.A.A.A.A.A.A.A.A.A.A.A.A.E.E.E.E.G.G.G.G.S.A.A.A.A.A.A.A.A.A.A.A.A.G.G.G.G.S.A.A.A.A.A.A.A.A.A.A.A.A.K J J J u.a.a.a.l.Y.Y.Y.T.&X&X&X&XG.A.A.A.A.A.A.A.A.A.A.A.A.G.G.G.G.G.G.G.G.G.G.G.G.(       ",
"    G.G.G.G.G.G.G.G.S.A.A.A.A.A.A.A.A.A.A.A.A.A.A.A.A.A.A.A.A.A.A.A.A.A.A.A.A.A.G.G.G.G.G.G.G.G.S.A.A.A.A.A.A.A.A.A.A.A.A.L.P.P.P.L.G.G.G.G.G.G.G.G.G.G.G.G.G.G.G.G.S.A.A.A.A.A.A.A.A.A.A.A.A.A.A.A.A.V.N.N.N.N.A.A.A.A.K J J J W t.t.t.c.].].].].A.A.A.A.A.A.A.A.A.A.A.A.G.P.P.P.P.G.G.G.G.A.A.A.A.A.A.A.A.S.G.G.G.G.G.G.G.G.A.A.A.A.A.A.A.A.A.A.A.A.A.A.A.A.A.A.A.A.A.A.A.A.A.A.A.A.A.A.A.A.A.A.E.E.E.E.G.G.G.G.S.A.A.A.A.S.A.A.A.A.A.A.A.G.G.G.G.S.A.A.A.A.A.A.A.A.A.A.A.A.K J J J u.a.a.a.l.Y.Y.Y.T.&X&X&X&XG.A.A.A.A.A.A.A.A.A.A.A.A.G.G.G.G.G.G.G.G.G.G.G.G.(       ",
"    S.S.S.S.S.S.S.S.S.A.A.A.A.A.A.A.A.A.A.A.A.A.A.A.A.A.A.A.A.A.A.A.A.A.A.A.A.A.G.G.G.G.G.G.G.G.S.A.A.A.A.A.A.A.A.A.A.A.A.G.P.P.P.L.G.G.G.G.S.S.S.S.G.G.G.G.S.S.S.S.S.A.A.A.A.A.A.A.A.A.A.A.A.A.A.A.A.V.N.N.N.N.A.A.A.A.J F F F W t.t.t.c.).).).W.A.V.V.A.A.A.A.A.A.A.A.A.G.P.P.P.P.S.S.S.S.A.A.A.A.A.A.A.A.S.G.G.G.G.G.G.G.G.A.A.A.A.A.A.A.A.A.A.A.A.A.A.A.A.A.V.V.V.V.A.A.A.A.A.A.A.A.A.A.A.A.A.R.R.R.R.G.G.G.G.S.S.S.S.A.V.V.V.V.V.V.V.V.S.S.S.S.S.A.A.A.A.A.A.A.A.A.A.A.A.J F F F u.a.a.a.l.Y.Y.Y.T.&X&X&X&XS.A.A.A.A.A.A.A.A.A.A.A.A.G.G.G.G.S.S.S.S.S.S.S.S.(       ",
"    Y Y Y Y 9.N.N.N.V.A.A.A.A.A.A.A.A.A.A.A.A.A.A.A.A.A.A.A.A.A.A.A.A.A.A.A.A.A.A.A.A.A.A.A.A.A.A.A.A.A.A.A.A.A.A.N.N.N.N.N.N.N.N.B.A.A.A.A.N.N.N.N.A.A.A.A.B.N.N.N.B.A.A.A.A.A.A.A.A.A.A.A.A.A.A.A.A.A.A.A.A.A.A.A.A.A.< < < < B V V V Z Y Y Y T N.N.9.N.A.A.A.A.A.A.A.A.A.A.A.A.V.Y Y Y Y A.A.A.A.N.N.N.N.V.A.A.A.A.A.A.A.A.A.A.A.A.A.A.A.A.A.A.A.A.A.A.A.A.A.Y Y Y Y 9.N.N.N.N.N.N.N.N.A.A.A.A.N.N.N.N.A.A.A.A.T.E.E.E.S.Y Y Y Y Y Y Y Y Y Y Y Y _ N.N.N.B.A.A.A.A.N.N.N.N.< < < < n V V V W A.A.A.A.N.N.N.N.A.A.A.A.A.A.A.A.A.A.A.A.S.E.E.E.E.T Y Y Y Y Y Y Y h       ",
"    Y Y Y Y 9.N.N.N.V.A.A.A.A.A.A.A.A.A.A.A.A.A.A.A.A.A.A.A.A.A.A.A.A.A.A.A.A.A.A.A.A.A.A.A.A.A.A.A.A.A.A.A.A.A.A.N.N.N.N.N.N.N.N.B.A.A.A.A.N.N.N.N.A.A.A.A.B.N.N.N.B.A.A.A.A.A.A.A.A.A.A.A.A.A.A.A.A.A.A.A.A.A.A.A.A.A.< < < < B V V V Z Y Y Y T N.N.N.N.A.A.A.A.A.A.A.A.A.A.A.A.V.Y Y Y Y A.A.A.A.N.N.N.N.V.A.A.A.A.A.A.A.A.A.A.A.A.A.A.A.A.A.A.A.A.A.A.A.A.A.Y Y Y Y 9.N.N.N.N.N.N.N.N.A.A.A.A.N.N.N.N.A.A.A.A.T.E.E.E.S.Y Y Y Y Y Y Y Y Y Y Y Y _ N.N.N.B.A.A.A.A.N.N.N.N.< < < < n V V V W A.A.A.A.N.N.N.N.A.A.A.A.A.A.A.A.A.A.A.A.S.E.E.E.E.T Y Y Y Y Y Y Y h       ",
"    Y Y Y Y 9.N.N.N.V.A.A.A.A.A.A.A.A.A.A.A.A.A.A.A.A.A.A.A.A.A.A.A.A.A.A.A.A.A.A.A.A.A.A.A.A.A.A.A.A.A.A.A.A.A.A.N.N.N.N.N.N.N.N.B.A.A.A.A.N.N.N.N.A.A.A.A.B.N.N.N.B.A.A.A.A.A.A.A.A.A.A.A.A.A.A.A.A.A.A.A.A.A.A.A.A.A.< < < < B V V V Z Y Y Y T N.N.N.N.A.A.A.A.A.A.A.A.A.A.A.A.V.Y Y Y Y A.A.A.A.N.N.N.N.V.A.A.A.A.A.A.A.A.A.A.A.A.A.A.A.A.A.A.A.A.A.A.A.A.A.Y Y Y Y 9.N.N.N.N.N.N.N.N.A.A.A.A.N.N.N.N.A.A.A.A.T.E.E.E.S.Y Y Y Y Y Y Y Y Y Y Y Y _ N.N.N.B.A.A.A.A.N.N.N.N.< < < < n V V V W A.A.A.A.N.N.N.N.A.A.A.A.A.A.A.A.A.A.A.A.S.E.E.E.E.T Y Y Y Y Y Y Y h       ",
"    Y Y Y Y 9.N.N.N.V.A.A.A.A.A.A.A.A.A.A.A.A.A.A.A.A.A.A.A.A.A.A.A.A.A.A.A.A.A.A.A.A.A.A.A.A.A.A.A.A.A.A.A.A.A.A.N.N.N.N.N.N.N.N.B.A.A.A.A.N.N.N.N.A.A.A.A.B.N.N.N.B.A.A.A.A.A.A.A.A.A.A.A.A.A.A.A.A.A.A.A.A.A.A.A.A.A.< < < < B V V V Z Y Y Y T N.N.N.N.A.A.A.A.A.A.A.A.A.A.A.A.V.Y Y Y Y A.A.A.A.N.N.N.N.V.A.A.A.A.A.A.A.A.A.A.A.A.A.A.A.A.A.A.A.A.A.A.A.A.A.Y Y Y Y 9.N.N.N.N.N.N.N.N.A.A.A.A.N.N.N.N.A.A.A.A.T.E.E.E.S.Y Y Y Y Y Y Y Y Y Y Y Y _ N.N.N.B.A.A.A.A.N.N.N.N.< < < < n V V V W A.A.A.A.N.N.N.N.A.A.A.A.A.A.A.A.A.A.A.A.S.E.E.E.E.T Y Y Y Y Y Y Y h       ",
"    Y Y Y Y Y Y Y Y _ N.N.N.N.A.A.A.A.A.A.A.A.A.A.A.A.A.A.A.A.A.A.A.A.A.A.A.A.A.N.N.N.N.V.A.A.A.A.A.A.A.A.A.A.A.A.A.A.A.A.A.A.A.A.V.N.N.N.N.A.A.A.A.A.A.A.A.A.A.A.A.A.A.A.A.A.A.A.A.A.A.A.A.A.A.A.A.A.A.A.A.A.A.N.N.N.N.< < < < A t.t.t.i.9.9.9.N.A.A.A.A.A.A.A.A.T.E.E.E.C.Y Y Y Y Y Y Y Y A.A.A.A.A.A.A.A.A.A.A.A.A.A.A.A.A.A.A.A.A.A.A.A.A.A.A.A.A.A.A.A.A.A.9.9.9.9.N.N.N.N.V.A.A.A.V.N.N.N.N.A.A.A.A.N.N.N.N._ T T T E 9.9.9.9.Y Y Y Y V.V.V.V.A.A.A.A.V.N.N.N.N.N.N.N.N.< < < < n V V V T N.N.N.N.A.A.A.A.N.N.N.N.V.A.A.A.A.A.A.A.V.T T T T Y Y Y Y Y Y Y Y h       ",
"    Y Y Y Y Y Y Y Y _ N.N.N.N.A.A.A.A.A.A.A.A.A.A.A.A.A.A.A.A.A.A.A.A.A.A.A.A.A.N.N.N.N.V.A.A.A.A.A.A.A.A.A.A.A.A.A.A.A.A.A.A.A.A.V.N.N.N.N.A.A.A.A.A.A.A.A.A.A.A.A.A.A.A.A.A.A.A.A.A.A.A.A.A.A.A.A.A.A.A.A.A.A.N.N.N.N.< < < < T t.t.t.i.N.N.N.N.A.A.A.A.A.A.A.A.R.E.E.E.C.Y Y Y Y Y Y Y Y A.A.A.A.A.A.A.A.A.A.A.A.A.A.A.A.A.A.A.A.A.A.A.A.A.A.A.A.A.A.A.A.A.A.N.N.N.N.N.N.N.N.V.A.A.A.V.N.N.N.N.A.A.A.A.N.N.N.N._ Y Y Y E N.N.N.9.Y Y Y Y V.A.A.A.A.A.A.A.V.N.N.N.N.N.N.N.N.1 < < < n V V V T N.N.N.N.A.A.A.A.N.N.N.N.V.A.A.A.S.A.A.A.V.Y Y Y Y Y Y Y Y Y Y Y Y h       ",
"    Y Y Y Y Y Y Y Y _ N.N.N.N.A.A.A.A.A.A.A.A.A.A.A.A.A.A.A.A.A.A.A.A.A.A.A.A.A.N.N.N.N.V.A.A.A.A.A.A.A.A.A.A.A.A.A.A.A.A.A.A.A.A.V.N.N.N.N.A.A.A.A.A.A.A.A.A.A.A.A.A.A.A.A.A.A.A.A.A.A.A.A.A.A.A.A.A.A.A.A.A.A.N.N.N.N.< < < < T t.t.t.i.N.N.N.N.A.A.A.A.A.A.A.A.R.E.E.E.C.Y Y Y Y Y Y Y Y A.A.A.A.A.A.A.A.A.A.A.A.A.A.A.A.A.A.A.A.A.A.A.A.A.A.A.A.A.A.A.A.A.A.N.N.N.N.N.N.N.N.V.A.A.A.V.N.N.N.N.A.A.A.A.N.N.N.N._ Y Y Y E N.N.N.9.Y Y Y Y V.A.A.A.A.A.A.A.V.N.N.N.N.N.N.N.N.< < < < n V V V T N.N.N.N.A.A.A.A.N.N.N.N.V.A.A.A.A.A.A.A.V.Y Y Y Y Y Y Y Y Y Y Y Y h       ",
"    Y Y Y Y Y Y Y Y _ N.N.N.N.A.A.A.A.A.A.A.A.A.A.A.A.A.A.A.A.A.A.A.A.A.A.A.A.A.N.N.N.N.V.A.A.A.A.A.A.A.A.A.A.A.A.A.A.A.A.A.A.A.A.V.N.N.N.N.A.A.A.A.A.A.A.A.A.A.A.A.A.A.A.A.A.A.A.A.A.A.A.A.A.A.A.A.A.A.A.A.A.A.N.N.N.N.< < < < T t.t.t.i.N.N.N.N.A.A.A.A.A.A.A.A.R.E.E.E.C.Y Y Y Y Y Y Y Y A.A.A.A.A.A.A.A.A.A.A.A.A.A.A.A.A.A.A.A.A.A.A.A.A.A.A.A.A.A.A.A.A.A.N.N.N.N.N.N.N.N.V.A.A.A.V.N.N.N.N.A.A.A.A.N.N.N.N._ Y Y Y E N.N.N.9.Y Y Y Y V.A.A.A.A.A.A.A.V.N.N.N.N.N.N.N.N.< < < < n V V V T N.N.N.N.A.A.A.A.N.N.N.N.V.A.A.A.A.A.A.A.V.Y Y Y Y Y Y Y Y Y Y Y Y h       ",
"    H H H H H H H H R E E E E u.u.u.u.A.A.A.A.A.A.A.A.V.B.B.B.z.u.u.u.u.A.A.A.A.N.N.N.N._ u.u.u.u.u.u.u.u.u.u.u.u.V.A.A.A.A.A.A.A.A.V.V.V.V.A.A.A.A.A.A.A.A.A.A.A.A.A.A.A.A.V.u.u.u.u.u.u.u.u.C.A.A.A.A.A.A.A.V.E E E E < < < < T t.t.t.i.N.N.N.9.u.u.u.u.u.u.u.u.d.d.d.d.r.Y Y Y Y ` ` ` ` A.A.A.A.d.u.u.u.u.u.u.u.d.B.B.B.B.A.A.A.A.A.A.A.A.h.u.u.u.d.A.A.A.A.N.N.N.N.V.V.V.V.V.B.B.B.N.N.N.N.N.B.B.B.B.E E E E f.C.C.C.h.E E E E C.C.C.C.u.u.u.u.h.B.B.B.B.V.V.V.V.E E E E < < < < n V V V A E E E E B.B.B.B.V.V.V.V.A.A.A.A.V.B.B.B.N.H H H H H H H H H H H H 3       ",
"    J J J J J J J J I Y Y Y Y Y Y Y Y A.A.A.A.A.A.A.A.B.N.N.N.] Y Y Y Y A.A.A.A.N.N.N.N.! Y Y Y Y Y Y Y Y Y Y Y Y V.A.A.A.A.A.A.A.A.A.A.A.A.A.A.A.A.A.A.A.A.A.A.A.A.A.A.A.A.V.Y Y Y Y Y Y Y Y C.A.A.A.A.A.A.A.V.Y Y Y Y < < < < T t.t.t.i.N.N.N.9.Y Y Y Y Y Y Y Y Y Y Y Y Y Y Y Y T N.N.N.N.A.A.A.A.r.Y Y Y Y Y Y Y T N.N.N.N.A.A.A.A.A.A.A.A.f.Y Y Y T A.A.A.A.N.N.N.N.A.A.A.A.V.N.N.N.N.N.N.N.N.N.N.N.N.T Y Y Y h.A.A.A.C.Y Y Y Y A.A.A.A.T Y Y Y _ N.N.N.B.A.A.A.V.Y Y Y Y < < < < n V V V Z Y Y Y Y N.N.N.N.A.A.A.A.A.A.A.A.V.N.N.N.9.J J J J J J J J J J J J 3       ",
"    J J J J J J J J I Y Y Y Y Y Y Y Y A.A.A.A.A.A.A.A.B.N.N.N.] Y Y Y Y A.A.A.A.N.N.N.N.! Y Y Y Y Y Y Y Y Y Y Y Y V.A.A.A.A.A.A.A.A.A.A.A.A.A.A.A.A.A.A.A.A.A.A.A.A.A.A.A.A.V.Y Y Y Y Y Y Y Y C.A.A.A.A.A.A.A.V.Y Y Y Y < < < < T t.t.t.i.N.N.N.9.Y Y Y Y Y Y Y Y Y Y Y Y Y Y Y Y T N.N.N.N.A.A.A.A.r.Y Y Y Y Y Y Y T N.N.N.N.A.A.A.A.A.A.A.A.f.Y Y Y T A.A.A.A.N.N.N.N.A.A.A.A.V.N.N.N.N.N.N.N.N.N.N.N.N.T Y Y Y h.A.A.A.C.Y Y Y Y A.A.A.A.T Y Y Y _ N.N.N.B.A.A.A.V.Y Y Y Y < < < < n V V V Z Y Y Y Y N.N.N.N.A.A.A.A.A.A.A.A.V.N.N.N.9.J J J J J J J J J J J J 3       ",
"    J J J J J J J J I Y Y Y Y Y Y Y Y A.A.A.A.A.A.A.A.B.N.N.N.] Y Y Y Y A.A.A.A.N.N.N.N.! Y Y Y Y Y Y Y Y Y Y Y Y V.A.A.A.A.A.A.A.A.A.A.A.A.A.A.A.A.A.A.A.A.A.A.A.A.A.A.A.A.V.Y Y Y Y Y Y Y Y C.A.A.A.A.A.A.A.V.Y Y Y Y < < < < T t.t.t.i.N.N.N.9.Y Y Y Y Y Y Y Y Y Y Y Y Y Y Y Y T N.N.N.N.A.A.A.A.r.Y Y Y Y Y Y Y T N.N.N.N.A.A.A.A.A.A.A.A.f.Y Y Y T A.A.A.A.N.N.N.N.A.A.A.A.V.N.N.N.N.N.N.N.N.N.N.N.N.T Y Y Y h.A.A.A.C.Y Y Y Y A.A.A.A.T Y Y Y _ N.N.N.B.A.A.A.V.Y Y Y Y < < < < n V V V Z Y Y Y Y N.N.N.N.A.A.A.A.A.A.A.A.V.N.N.N.9.J J J J J J J J J J J J 3       ",
"    D D D D J J J J H I I I I I I I R 9.9.9.9.) ) ) ) ( Q Q Q R x x x x P P P P J J J J z h h h z x x x x x x x x ) ) ) ) ( P P P ( ) ) ) ) ) ) ) ) ] 9.9.9.( P P P P P P P P x x x x I I I I ` 9.9.9.] ) ) ) ) x x x x j j j j W y.y.y.i.` ` ` ` x x x x x x x x x x x x I I I I R ' ' ' ' 9.9.9.9.R I I I I I I I R Q Q Q Q 9.9.9.9.` ) ) ) R x x x I P P P P Q Q Q Q ) ) ) ) ( Q Q Q Q Q Q Q Q ' ' ' ' I x x x ( 9.9.9.` I I I R 9.9.9.9.R I I I ( ' ' ' ) ) ) ) ) x x x x j j j j B V V V V x x x x Q Q Q Q ] 9.9.9.` ) ) ) ( Q Q Q Q D D D D J J J J J J J J 3       ",
"    < < < < F J J J J J J J J J J J J J J J J < < < < < < < < < < < < <                         X < < < < < < < < < < < < X       X < < < < < < < < F J J J O                 < < < < J J J J J J J J D < < < < < < < < V V V V p.a.a.a.p.t.t.t.W < < < < < < < < < < < < l J J J J J J J J J J J J J J J J J J J J F < < < < J J J J < < < < < < < < =         < < < < < < < < < < < < < < < < < J J J J < < < < m J J J J J J J J J J J J J J J J J J J J D < < < < < < < < V V V V V V V V n < < < < < < < < F J J J 3 < < < < < < < < < < < < J J J J J J J J 3       ",
"    < < < < F J J J J J J J J J J J J J J J J < < < < < < < < < < < < <                         X < < < < < < < < < < < < X       X < < < < < < < < J J J J O                 < < < < J J J J J J J J D < < < < < < < < V V V V p.a.a.a.p.t.t.t.W < < < < < < < < < < < < l J J J J J J J J J J J J J J J J J J J J F < < < < J J J J < < < < < < < < =         < < < < < < < < < < < < < < < < < J J J J < < < < m J J J J J J J J J J J J J J J J J J J J D < < < < < < < < V V V V V V V V n < < < < < < < < F J J J 3 < < < < < < < < < < < < J J J J J J J J 3       ",
"    < < < < F J J J J J J J J J J J J J J J J < < < < < < < < < < < < <                         X < < < < < < < < < < < < X       X < < < < < < < < F J J J O                 < < < < J J J J J J J J D < < < < < < < < V V V V p.a.a.a.p.t.t.t.W < < < < < < < < < < < < l J J J J J J J J J J J J J J J J J J J J F < < < < J J J J < < < < < < < < =         < < < < < < < < < < < < < < < < < J J J J < < < < m J J J J J J J J J J J J J J J J J J J J D < < < < < < < < V V V V V V V V n < < < < < < < < F J J J 3 < < < < < < < < < < < < J J J J J J J J 3       ",
"    < < < < F J J J J J J J J J J J J J J J J < < < < < < < < < < < < < X X X X X X X X X       X < < < < < < < < < < < < O X X X O < < < < < < < < J J J J *       X X X X X < < < < J J J J J J J J D < < < < < < < < V V V V p.a.a.a.p.y.y.y.t.< < < < < < < < < < < < z J J J J K K K K J J J J J J J J J J J J J < < < < J J J J < < < < < < < < < X X X X < < < < < < < < < < < < < < < < < J J J J < < < < D J J J J J J J J J J J J J J J J J J J J D < < < < < < < < V V V V V V V V B < < < < < < < < J K K K l < < < < < < < < < < < < J J J J J K K K 2       ",
"    t.t.t.t.V V V V V V V V V V V V V V V V V V V V V A t.t.t.t.V V V V t.t.t.t.t.t.t.t.A V V V V V V V V t.t.t.t.V V V V A t.t.t.t.t.t.t.t.t.t.t.t.t.t.t.t.A V V V A t.t.t.t.V V V V V V V V W t.t.t.T V V V V t.t.t.t.t.t.t.t.a.a.a.a.a.a.a.a.a.t.t.t.t.t.t.t.t.a.a.a.a.p.t.t.t.y.a.a.a.a.t.t.t.t.t.t.t.t.t.t.t.t.t.t.t.t.t.t.t.t.t.C V V V A t.t.t.t.t.t.t.t.t.t.t.t.t.t.t.t.t.t.t.t.t.t.t.t.t.t.t.t.t.t.t.t.t.t.t.t.t.t.t.t.t.t.V V V V V V V V V V V V V V V V V t.t.t.t.V V V V T t.t.t.W V V V C a.a.a.a.a.a.a.a.a.a.a.a.a.a.a.a.a.a.a.a.a.y.t.t.t.a.a.a.a.V       ",
"    t.t.t.t.V V V V V V V V V V V V V V V V V V V V V A t.t.t.t.V V V V t.t.t.t.t.t.t.t.A V V V V V V V V t.t.t.t.C V V V A t.t.t.t.t.t.t.t.t.t.t.t.t.t.t.t.A V V V A t.t.t.t.V V V V V V V V W t.t.t.T V V V V t.t.t.t.t.t.t.t.a.a.a.a.a.a.a.a.a.t.t.t.t.t.t.t.t.a.a.a.a.p.t.t.t.y.a.a.a.a.t.t.t.t.t.t.t.t.t.t.t.t.t.t.t.t.t.t.t.t.t.C V V V A t.t.t.t.t.t.t.t.t.t.t.t.t.t.t.t.t.t.t.t.t.t.t.t.t.t.t.t.t.t.t.t.t.t.t.t.t.t.t.t.t.t.V V V V V V V V V V V V V V V V V t.t.t.t.V V V V T t.t.t.W V V V C a.a.a.a.a.a.a.a.a.a.a.a.a.a.a.a.a.a.a.a.a.y.t.t.t.a.a.a.a.V       ",
"    t.t.t.t.V V V V V V V V V V V V V V V V V V V V V A t.t.t.t.V V V V t.t.t.t.t.t.t.t.A V V V V V V V V t.t.t.t.V V V V T t.t.t.t.t.t.t.t.t.t.t.t.t.t.t.t.A V V V A t.t.t.t.V V V V V V V V W t.t.t.T V V V V t.t.t.t.t.t.t.t.a.a.a.a.a.a.a.a.a.t.t.t.t.t.t.t.t.a.a.a.a.p.t.t.t.y.a.a.a.a.t.t.t.t.t.t.t.t.t.t.t.t.t.t.t.t.t.t.t.t.t.C V V V A t.t.t.t.t.t.t.t.t.t.t.t.t.t.t.t.t.t.t.t.t.t.t.t.t.t.t.t.t.t.t.t.t.t.t.t.t.t.t.t.t.t.V V V V V V V V V V V V V V V V V t.t.t.t.V V V V T t.t.t.W V V V C a.a.a.a.a.a.a.a.a.a.a.a.a.a.a.a.a.a.a.a.a.y.t.t.t.a.a.a.a.V       ",
"    t.t.t.t.V V V V V V V V V V V V V V V V V V V V V A t.t.t.t.V V V V t.t.t.t.t.t.t.t.A V V V V V V V V t.t.t.t.V V V V T t.t.t.t.t.t.t.t.t.t.t.t.t.t.t.t.A V V V A t.t.t.t.V V V V V V V V W t.t.t.T V V V V t.t.t.t.t.t.t.t.a.a.a.a.a.a.a.a.a.t.t.t.t.t.t.t.t.a.a.a.a.p.t.t.t.y.a.a.a.a.t.t.t.t.t.t.t.t.t.t.t.t.t.t.t.t.t.t.t.t.t.C V V V A t.t.t.t.t.t.t.t.t.t.t.t.t.t.t.t.t.t.t.t.t.t.t.t.t.t.t.t.t.t.t.t.t.t.t.t.t.t.t.t.t.t.V V V V V V V V V V V V V V V V V t.t.t.t.V V V V T t.t.t.W V V V C a.a.a.a.a.a.a.s.a.a.a.a.a.a.a.a.a.a.a.a.a.y.t.t.t.a.a.a.a.V       ",
"    P.P.P.P.P.P.P.P.P.P.P.P.P.P.P.P.P.P.P.P.P.P.P.P.P.G.A.A.A.V.9.9.9.9.Y Y Y Y t.t.t.t.t.t.t.t.u.] ] ] B.tXtXtXtXtXtXtXtXtXtXtXtXqX&X&X&X&X].].].].].].].].G.V.V.V.V.V.V.V.B.Y Y Y Y ] ] ] ] ] ] ] ] ] ] ] ] B.%X%X%X%X&X&X&X&X&X&X&X&X&X&X&X&X&X].].].].].].].].].].].].].].].]./.9.9.9.9.] ] ] ] B.V.V.V.V.V.V.V.B.Y Y Y Y Y Y Y Y Y Y Y Y _ 9.9.9.9.9.9.9.9.a.a.a.a.a.a.a.a.a.a.a.a.l.S.S.S.S.S.S.S.S.S.S.S.S.S.S.S.S.S.S.S.S.S.S.S.S.S.S.S.S.S.B.] ] ] B.S.S.S.S.&X&X&X&X].].].].].].].].E.9.9.9.9.e.Y Y Y < < < < U.%X%X%X=X>X>X>X>XS.S.S.S.P.P.P.P.P.P.P.P.)       ",
"    P.P.P.P.P.P.P.P.P.P.P.P.P.P.P.P.P.P.P.P.P.P.P.P.P.G.A.A.A.V.N.N.N.9.Y Y Y Y t.t.t.t.t.t.t.t.u.M.M.M.B.tXtXtXtXtXtXtXtXtXtXtXtXeX&X&X&X&X].].].].].].].].G.V.V.V.V.V.V.V.V.Y Y Y Y ] M.M.M.M.9.9.M.M.M.M.M.B.=X=X=X=X&X&X&X&X&X&X&X&X&X&X&X&X&X].].].].].].].].].].].].].].].].).N.N.N.N.M.M.M.M.V.V.V.V.V.V.V.V.B.Y Y Y Y Y Y Y Y Y Y Y Y _ N.N.N.N.N.N.N.N.a.a.a.a.a.a.a.a.a.a.a.a.l.Y.Y.Y.Y.Y.Y.Y.Y.Y.Y.Y.Y.Y.Y.Y.Y.Y.Y.Y.Y.Y.Y.Y.Y.Y.Y.Y.Y.Y.B.M.M.M.B.Y.Y.Y.T.&X&X&X&X].].].].].].].].W.N.N.N.9.Y Y Y Y < < < < U.=X=X=X=X,X,X,X>XG.G.G.G.P.P.P.P.P.P.P.P.)       ",
"    P.P.P.P.P.P.P.P.P.P.P.P.P.P.P.P.P.P.P.P.P.P.P.P.P.G.A.A.A.V.N.N.N.9.Y Y Y Y t.t.t.t.t.t.t.t.u.M.M.M.B.tXtXtXtXtXtXtXtXtXtXtXtXeX&X&X&X&X].].].].].].].].G.V.V.V.V.V.V.V.V.Y Y Y Y ] M.M.M.M.M.M.M.M.M.M.M.B.=X=X=X=X&X&X&X&X&X&X&X&X&X&X&X&X&X].].].].].].].].].].].].].].].].).N.N.N.N.M.M.M.M.V.V.V.V.V.V.V.V.B.Y Y Y Y Y Y Y Y Y Y Y Y _ N.N.N.N.N.N.N.N.a.a.a.a.a.a.a.a.a.a.a.a.l.Y.Y.Y.Y.Y.Y.Y.Y.Y.Y.Y.Y.Y.Y.Y.Y.Y.Y.Y.Y.Y.Y.Y.Y.Y.Y.Y.Y.Y.B.M.M.M.B.Y.Y.Y.T.&X&X&X&X].].].].].].].].W.N.N.N.9.Y Y Y Y < < < < U.=X=X=X=X,X,X,X>XG.G.G.G.P.P.P.P.P.P.P.P.)       ",
"    P.P.P.P.P.P.P.P.P.P.P.P.P.P.P.P.P.P.P.P.P.P.P.P.P.G.A.A.A.V.N.N.N.9.Y Y Y Y t.t.t.t.t.t.t.t.u.M.M.M.B.tXtXtXtXtXtXtXtXtXtXtXtXeX&X&X&X&X].].].].].].].].G.V.V.V.V.V.V.V.V.Y Y Y Y ] M.M.M.M.M.M.M.M.M.M.M.B.=X=X=X=X&X&X&X&X&X&X&X&X&X&X&X&X&X].].].].].].].].].].].].].].].].).N.N.N.N.M.M.M.M.V.V.V.V.V.V.V.V.B.Y Y Y Y Y Y Y Y Y Y Y Y _ N.N.N.N.N.N.N.N.a.a.a.a.a.a.a.a.a.a.a.a.l.Y.Y.Y.Y.Y.Y.Y.Y.Y.Y.Y.Y.Y.Y.Y.Y.Y.Y.Y.Y.Y.Y.Y.Y.Y.Y.Y.Y.Y.B.M.M.M.B.Y.Y.Y.T.&X&X&X&X].].].].].].].].W.N.N.N.9.Y Y Y Y < < < < U.=X=X=X=X,X,X,X>XG.G.G.G.P.P.P.P.P.P.P.P.)       ",
"    P.P.P.P.G.G.G.G.G.G.G.G.G.G.G.G.G.G.G.G.G.G.G.G.G.G.S.S.S.S.V.V.V.V.] ] ] ] k j j j V A A A i..X.X.XoX[.[.[.[.[.[.[.[.[.[.[.[./.R.R.R.R.G.G.G.G.W.W.W.W.W.W.W.W.E.A.A.A.V.C.C.C.C.E T T E G.W.W.W.]..X.X.X.XR.R.R.R.R.T.T.T.T.T.T.T.R.R.R.R.R.R.R.R.R.G.G.G.G.G.G.G.G.S.V.V.V.V.P P P P G.L.L.L.W.W.W.W.R.A.A.A.V.C.C.C.C.Y Y Y Y ` ] ] ] B.V.V.V.V.E E E E k k k k p.a.a.a.c.S.S.S.R.0X0X0X0X@X@X@X@X.X.X.X.X.X.X.X.X X).).).)..X.X.X.X.X.X.X.X].W.W.W.)..X.X.X.XR.R.R.R.R.R.R.R.R.R.R.R.G.V.V.V.V.] ] ] ] ] ] ] ] G.E.E.E.W.Q.Q.Q.Q.S.S.S.S.G.G.G.G.G.G.G.G.(       ",
"    P.P.P.P.G.G.G.G.G.G.G.G.S.A.A.A.A.A.A.A.A.A.A.A.A.S.G.G.G.S.A.A.A.A.N.N.N.N.< < < < k V V V a.=X=X=X=XP.P.P.P.P.P.P.P.P.P.P.P.L.A.A.A.A.A.A.A.A.P.P.P.P./.].].].W.A.A.A.A.A.A.A.A.Y Y Y Y I.].].]..X=X=X=X*XV.V.V.V.V.V.V.V.V.V.V.V.V.A.A.A.A.G.G.G.G.A.A.A.A.A.A.A.A.V.N.N.N.9.J J J J P.P.P.P.].].].].E.A.A.A.A.A.A.A.A.Y Y Y Y ] N.N.N.V.A.A.A.V.Y Y Y Y < < < < p.a.a.a.c.Y.Y.Y.!.tXtXtXtX=X=X=X=X&X&X&X&X&X&X&X&X&X].].].].&X&X&X&X&X&X&X&X X].].]. X&X&X&X&XA.A.A.A.G.G.G.G.G.G.G.G.S.A.A.A.A.N.N.N.N.A.A.A.A.A.A.A.A.S.G.G.G.G.A.A.A.A.A.A.A.A.A.A.A.A.P       ",
"    P.P.P.P.G.G.G.G.G.G.G.G.S.A.A.A.A.A.A.A.A.A.A.A.A.S.G.G.G.S.A.A.A.A.N.N.N.N.< < < < k V V V a.=X=X=X=XP.P.P.P.P.P.P.P.P.P.P.P.L.A.A.A.A.A.A.A.A.P.P.P.P./.].].].W.A.A.A.A.A.A.A.A.Y Y Y Y I.].].]..X=X=X=X*XV.V.V.V.V.V.V.V.V.V.V.V.V.A.A.A.A.G.G.G.G.A.A.A.A.A.A.A.A.V.N.N.N.9.J J J J P.P.P.P.].].].].E.A.A.A.A.A.A.A.A.Y Y Y Y ] N.N.N.V.A.A.A.V.Y Y Y Y < < < < p.a.a.a.C.Y.Y.Y.!.tXtXtXtX=X=X=X=X&X&X&X&X&X&X&X&X&X].].].].&X&X&X&X&X&X&X&X X].].]. X&X&X&X&XA.A.A.A.G.G.G.G.G.G.G.G.S.A.A.A.A.N.N.N.N.A.A.A.A.A.A.A.A.S.G.G.G.G.A.A.A.A.A.A.A.A.A.A.A.A.P       ",
"    P.P.P.P.G.G.G.G.G.G.G.G.S.A.A.A.A.A.A.A.A.A.A.A.A.S.G.G.G.S.A.A.A.A.N.N.N.N.< < < < k V V V a.=X=X=X=XP.P.P.P.P.P.P.P.P.P.P.P.L.A.A.A.A.A.A.A.A.P.P.P.P./.].].].W.A.A.A.A.A.A.A.A.Y Y Y Y I.].].]..X=X=X=X*XV.V.V.V.V.V.V.V.V.V.V.V.V.A.A.A.A.G.G.G.G.A.A.A.A.A.A.A.A.V.N.N.N.9.J J J J P.P.P.P.].].].].E.A.A.A.A.A.A.A.A.Y Y Y Y ] N.N.N.V.A.A.A.V.Y Y Y Y < < < < p.a.a.a.C.Y.Y.Y.!.tXtXtXtX=X=X=X=X&X&X&X&X&X&X&X&X&X].].].].&X&X&X&X&X&X&X&X X].].]. X&X&X&X&XA.A.A.A.G.G.G.G.G.G.G.G.S.A.A.A.A.N.N.N.N.A.A.A.A.A.A.A.A.S.G.G.G.G.A.A.A.A.A.A.A.A.A.A.A.A.P       ",
"    L.L.L.L.G.S.S.S.S.S.S.S.S.A.A.A.A.A.A.A.A.S.S.S.S.S.S.S.S.S.A.A.A.A.B.B.B.B.D 3 3 l V A A A a.{.{.{.[.L.L.L.L.P.P.P.P.L.L.L.L.G.S.S.S.S.G.G.G.G.L.L.L.L.E.W.W.W.R.A.A.A.A.A.A.A.A.d.d.d.d.J.W.W.W.W.].].].].V.V.V.V.B.B.B.B.V.V.V.V.A.A.A.A.A.S.S.S.S.A.A.A.A.A.A.A.A.N.) ) ) ) ` ` ` ` G.L.L.L.E.W.W.W.R.A.A.A.A.A.A.A.A.d.d.d.d.B.B.B.B.V.A.A.A.V.Y Y Y Y < < < < y.p.p.p.H.].].].[.*X*X*X*X[.[.[.[.XXXXXXXX X|.|.|.].W.W.W.W.|.|.|.|.|.|.|.|.!.W.W.W.W.].].].].A.A.A.A.S.S.S.S.S.S.S.S.S.A.A.A.A.B.B.B.B.A.A.A.A.A.A.A.A.S.S.S.S.S.A.A.A.A.A.A.A.A.G.G.G.G.(       ",
"    G.G.G.G.S.A.A.A.A.A.A.A.A.A.A.A.A.A.A.A.A.G.G.G.G.S.A.A.A.A.A.A.A.A.A.A.A.A.K J J J W t.t.t.a.P.P.P.P.A.A.A.A.P.P.P.P.G.A.A.A.S.G.G.G.G.P.P.P.P.S.A.A.A.A.A.A.A.A.A.A.A.A.A.A.A.A.V.V.V.V.V.V.V.V.B.N.N.N.N.A.A.A.A.N.N.N.N.V.A.A.A.A.A.A.A.A.A.A.A.A.A.A.A.A.A.A.A.A.] J J J K P.P.P.P.A.A.A.A.A.A.A.A.A.A.A.A.A.A.A.A.A.A.A.A.A.A.A.A.A.A.A.A.A.V.Y Y Y Y < < < < W t.t.t._.=X=X=X@XA.A.A.A.A.A.A.A.).].].].E.G.G.G.S.A.A.A.A.G.G.G.G.G.G.G.G.S.A.A.A.A.A.A.A.A.A.A.A.A.A.A.A.A.A.A.A.A.A.A.A.A.A.A.A.A.A.A.A.A.A.A.A.A.A.A.A.A.A.A.A.A.A.A.A.A.A.A.L.P.P.P.)       ",
"    G.G.G.G.S.A.A.A.A.A.A.A.A.A.A.A.A.A.A.A.A.G.G.G.G.S.A.A.A.A.A.A.A.A.A.A.A.A.K J J J W t.t.t.a.P.P.P.P.A.A.A.A.P.P.P.P.G.A.A.A.S.G.G.G.G.P.P.P.P.S.A.A.A.A.A.A.A.A.A.A.A.A.A.A.A.A.V.V.V.V.V.V.V.V.B.N.N.N.N.A.A.A.A.N.N.N.N.V.A.A.A.A.A.A.A.A.A.A.A.A.A.A.A.A.A.A.A.A.] J J J K P.P.P.P.A.A.A.A.A.A.A.A.A.A.A.A.A.A.A.A.A.A.A.A.A.A.A.A.A.A.A.A.A.V.Y Y Y Y < < < < W t.t.t._.=X=X=X@XA.A.A.A.A.A.A.A.).].].].E.G.G.G.S.A.A.A.A.G.G.G.G.G.G.G.G.S.A.A.A.A.A.A.A.A.A.A.A.A.A.A.A.A.A.A.A.A.A.A.A.A.A.A.A.A.A.A.A.A.A.A.A.A.A.A.A.A.A.A.A.A.A.A.A.A.A.A.L.P.P.P.)       ",
"    G.G.G.G.S.A.A.A.A.A.A.A.A.A.A.A.A.A.A.A.A.G.G.G.G.S.A.A.A.A.A.A.A.A.A.A.A.A.K J J J W t.t.t.a.P.P.P.P.A.A.A.A.P.P.P.P.G.A.A.A.S.G.G.G.G.P.P.P.P.S.A.A.A.A.A.A.A.A.A.A.A.A.A.A.A.A.V.V.V.V.V.V.V.V.B.N.N.N.N.A.A.A.A.N.N.N.N.V.A.A.A.A.A.A.A.A.A.A.A.A.A.A.A.A.A.A.A.A.] J J J K P.P.P.P.A.A.A.A.A.A.A.A.A.A.A.A.A.A.A.A.A.A.A.A.A.A.A.A.A.A.A.A.A.V.Y Y Y Y < < < < W t.t.t._.=X=X=X@XA.A.A.A.A.A.A.A.).].].].E.G.G.G.S.A.A.A.A.G.G.G.G.G.G.G.G.S.A.A.A.A.A.A.A.A.A.A.A.A.A.A.A.A.A.A.A.A.A.A.A.A.A.A.A.A.A.A.A.A.A.A.A.A.A.A.A.A.A.A.A.A.A.A.A.A.A.A.L.P.P.P.)       ",
"    S.G.G.G.S.S.S.S.S.S.S.S.A.V.V.V.V.V.V.V.V.S.S.S.S.S.A.A.A.A.A.A.A.A.A.A.A.A.J F F F T t.t.t.i.P.P.P.P.A.A.A.A.P.P.P.P.G.A.A.A.S.G.G.G.G.P.P.P.P.S.A.A.A.A.A.A.A.A.A.A.A.A.A.A.A.A.V.V.V.V.V.B.B.B.B.N.N.N.N.V.V.V.V.N.N.N.N.V.A.A.A.A.A.A.A.A.V.V.V.V.A.A.A.A.V.V.V.V.] K K K P P.P.P.P.A.A.A.A.A.A.A.A.A.A.A.A.A.A.A.A.A.A.A.A.A.A.A.A.A.A.A.A.A.V.T T T Y < < < < T t.t.t.K.@X@X@X.XA.A.A.A.A.A.A.A.).].].].E.G.G.G.S.A.A.A.A.G.G.G.G.G.G.G.G.S.A.A.A.A.A.A.A.A.S.S.S.S.A.A.A.A.A.A.A.A.A.A.A.A.A.A.A.A.A.A.A.A.A.V.V.V.V.V.A.A.A.A.A.A.A.A.A.A.A.A.L.P.P.P.)       ",
"    A.A.A.A.E.E.E.E.E.E.E.E.S.Y Y Y Y Y Y Y Y Y Y Y Y _ N.N.N.N.A.A.A.A.N.N.N.N.< < < < C t.t.t.i.P.P.P.P.G.G.G.G.G.G.G.G.S.A.A.A.S.G.G.G.G.A.A.A.A.A.A.A.A.A.A.A.A.A.A.A.A.A.A.A.A.A.N.N.N.N.E Y Y Y d.A.A.A.V.Y Y Y Y V.A.A.A.A.A.A.A.A.A.A.A.V.Y Y Y Y S.G.G.G.r.Y Y Y d.A.A.A.A.A.A.A.A.A.A.A.A.A.A.A.A.A.A.A.A.A.A.A.A.A.N.N.N.N.A.A.A.A.A.A.A.A.V.N.N.N.9.< < < < V V V V Z Y Y Y r.A.A.A.A.N.N.N.N.A.A.A.A.A.A.A.A.A.A.A.A.A.A.A.A.A.A.A.A.A.A.A.A.A.A.A.A.A.S.E.E.E.E.N.N.N.N.V.A.A.A.A.A.A.A.A.A.A.A.A.A.A.A.A.d.Y Y Y E N.N.N.N.N.N.N.N.A.A.A.A.B.N.N.N.J       ",
"    A.A.A.A.E.E.E.E.E.E.E.E.S.Y Y Y Y Y Y Y Y Y Y Y Y _ N.N.N.N.A.A.A.A.N.N.N.N.< < < < C t.t.t.a.P.P.P.P.G.G.G.G.G.G.G.G.S.A.A.A.S.G.G.G.G.A.A.A.A.A.A.A.A.A.A.A.A.A.A.A.A.A.A.A.A.A.N.N.N.N.E Y Y Y d.A.A.A.V.Y Y Y Y V.A.A.A.A.A.A.A.A.A.A.A.V.Y Y Y Y S.G.G.G.r.Y Y Y d.A.A.A.A.A.A.A.A.A.A.A.A.A.A.A.A.A.A.A.A.A.A.A.A.A.N.N.N.N.A.A.A.A.A.A.A.A.V.N.N.N.9.< < < < V V V V Z Y Y Y r.A.A.A.A.N.N.N.N.A.A.A.A.A.A.A.A.A.A.A.A.A.A.A.A.A.A.A.A.A.A.A.A.A.A.A.A.A.S.E.E.E.E.N.N.N.N.V.A.A.A.A.A.A.A.A.A.A.A.A.A.A.A.A.d.Y Y Y E N.N.N.N.N.N.N.N.A.A.A.A.B.N.N.N.J       ",
"    A.A.A.A.E.E.E.E.E.E.E.E.S.Y Y Y Y Y Y Y Y Y Y Y Y _ N.N.N.N.A.A.A.A.N.N.N.N.< < < < C t.t.t.a.P.P.P.P.G.G.G.G.G.G.G.G.S.A.A.A.S.G.G.G.G.A.A.A.A.A.A.A.A.A.A.A.A.A.A.A.A.A.A.A.A.A.N.N.N.N.E Y Y Y d.A.A.A.V.Y Y Y Y V.A.A.A.A.A.A.A.A.A.A.A.V.Y Y Y Y S.G.G.G.r.Y Y Y d.A.A.A.A.A.A.A.A.A.A.A.A.A.A.A.A.A.A.A.A.A.A.A.A.A.N.N.N.N.A.A.A.A.A.A.A.A.V.N.N.N.9.< < < < V V V V Z Y Y Y r.A.A.A.A.N.N.N.N.A.A.A.A.A.A.A.A.A.A.A.A.A.A.A.A.A.A.A.A.A.A.A.A.A.A.A.A.A.S.E.E.E.E.N.N.N.N.V.A.A.A.A.A.A.A.A.A.A.A.A.A.A.A.A.d.Y Y Y E N.N.N.N.N.N.N.N.A.A.A.A.B.N.N.N.J       ",
"    A.A.A.A.E.E.E.E.E.E.E.E.S.Y Y Y Y Y Y Y Y Y Y Y Y _ N.N.N.N.A.A.A.A.N.N.N.N.< < < < C t.t.t.a.P.P.P.P.G.G.G.G.G.G.G.G.S.A.A.A.S.G.G.G.G.A.A.A.A.A.A.A.A.A.A.A.A.A.A.A.A.A.A.A.A.A.N.N.N.N.E Y Y Y d.A.A.A.V.Y Y Y Y V.A.A.A.A.A.A.A.A.A.A.A.V.Y Y Y Y S.G.G.G.r.Y Y Y d.A.A.A.A.A.A.A.A.A.A.A.A.A.A.A.A.A.A.A.A.A.A.A.A.A.N.N.N.N.A.A.A.A.A.A.A.A.V.N.N.N.9.< < < < V V V V Y Y Y Y r.A.A.A.A.N.N.N.N.A.A.A.A.A.A.A.A.A.A.A.A.A.A.A.A.A.A.A.A.A.A.A.A.A.A.A.A.A.S.E.E.E.E.N.N.N.N.V.A.A.A.A.A.A.A.A.A.A.A.A.A.A.A.A.d.Y Y Y E N.N.N.N.N.N.N.N.A.A.A.A.B.N.N.N.J       ",
"    N.N.N.N.T Y Y Y Y Y Y Y E N.9.9.9.Y Y Y Y V.A.A.A.A.A.A.A.V.N.N.N.N.N.N.N.N.< < < < T a.a.a.l.S.A.A.S.G.G.G.G.S.A.A.A.S.G.G.G.S.A.A.A.A.A.A.A.A.N.N.N.N.V.A.A.A.A.A.A.A.A.A.A.A.A.T Y Y Y z.A.A.A.V.N.N.N.N.A.A.A.A.A.A.A.A.A.A.A.A.A.A.A.A.A.A.A.A.A.T Y Y Y C.A.A.A.f.Y Y Y T A.A.A.A.A.A.A.A.A.A.A.A.A.A.A.A.A.N.N.N.N.A.A.A.A.A.A.A.A.A.A.A.A.A.A.A.A.A.J J J J V V V V Z Y Y Y T N.N.N.N.A.A.A.A.N.N.N.N.V.A.A.A.A.A.A.A.A.A.A.A.A.A.A.A.A.A.A.A.A.G.E.E.E.E.N.N.N.N.A.A.A.A.B.N.N.N.B.A.A.A.A.A.A.A.A.A.A.A.A.B.9.9.9.9.N.N.N.N.A.A.A.A.N.N.N.N.V.A.A.A.P       ",
"    N.N.N.N.T Y Y Y Y Y Y Y T N.N.N.9.Y Y Y Y V.A.A.A.A.A.A.A.V.N.N.N.N.N.N.N.N.< < < < T a.a.a.l.A.A.A.A.G.G.G.G.A.A.A.A.S.G.G.G.S.A.A.A.A.A.A.A.A.N.N.N.N.V.A.A.A.A.A.A.A.A.A.A.A.A.Y Y Y Y C.A.A.A.V.N.N.N.N.A.A.A.A.A.A.A.A.A.A.A.A.A.A.A.A.A.A.A.A.A.Y Y Y Y C.A.A.A.f.Y Y Y T A.A.A.A.A.A.A.A.A.A.A.A.A.A.A.A.A.N.N.N.N.A.A.A.A.A.A.A.A.A.A.A.A.A.A.A.A.A.J J J J V V V V Z Y Y Y T N.N.N.N.A.A.A.A.N.N.N.N.V.A.A.A.A.A.A.A.A.A.A.A.A.A.A.A.A.A.A.A.A.G.E.E.E.E.N.N.N.N.A.A.A.A.B.N.N.N.B.A.A.A.A.A.A.A.A.A.A.A.A.B.N.N.N.N.N.N.N.N.A.A.A.A.N.N.N.N.V.A.A.A.P       ",
"    N.N.N.N.T Y Y Y Y Y Y Y T N.N.N.9.Y Y Y Y V.A.A.A.A.A.A.A.V.N.N.N.N.N.N.N.N.< < < < T a.a.a.l.A.A.A.A.G.G.G.G.A.A.A.A.S.G.G.G.S.A.A.A.A.A.A.A.A.N.N.N.N.V.A.A.A.A.A.A.A.A.A.A.A.A.Y Y Y Y C.A.A.A.V.N.N.N.N.A.A.A.A.A.A.A.A.A.A.A.A.A.A.A.A.A.A.A.A.A.Y Y Y Y C.A.A.A.f.Y Y Y T A.A.A.A.A.A.A.A.A.A.A.A.A.A.A.A.A.N.N.N.N.A.A.A.A.A.A.A.A.A.A.A.A.A.A.A.A.A.J J J J V V V V Z Y Y Y T N.N.N.N.A.A.A.A.N.N.N.N.V.A.A.A.A.A.A.A.A.A.A.A.A.A.A.A.A.A.A.A.A.G.E.E.E.E.N.N.N.N.A.A.A.A.B.N.N.N.B.A.A.A.A.A.A.A.A.A.A.A.A.B.N.N.N.N.N.N.N.N.A.A.A.A.N.N.N.N.V.A.A.A.P       ",
"    N.N.N.N.T Y Y Y Y Y Y Y T N.N.N.9.Y Y Y Y V.A.A.A.A.A.A.A.V.N.N.N.N.N.N.N.N.< < < < T a.a.a.l.A.A.A.A.G.G.G.G.A.A.A.A.S.G.G.G.S.A.A.A.A.A.A.A.A.N.N.N.N.V.A.A.A.A.A.A.A.A.A.A.A.A.Y Y Y Y C.A.A.A.V.N.N.N.N.A.A.A.A.A.A.A.A.A.A.A.A.A.A.A.A.A.A.A.A.A.Y Y Y Y C.A.A.A.f.Y Y Y T A.A.A.A.A.A.A.A.A.A.A.A.A.A.A.A.A.N.N.N.N.A.A.A.A.A.A.A.A.A.A.A.A.A.A.A.A.A.J J J J V V V V Z Y Y Y T N.N.N.N.A.A.A.A.N.N.N.N.V.A.A.A.A.A.A.A.A.A.A.A.A.A.A.A.A.A.A.A.A.G.E.E.E.E.N.N.N.N.A.A.A.A.B.N.N.N.B.A.A.A.A.A.A.A.A.A.A.A.A.B.N.N.N.N.N.N.N.N.A.A.A.A.N.N.N.N.V.A.A.A.P       ",
"    T T T T Y Y Y Y d.C.C.C.z.T T T E C.C.C.C.r.r.r.r.` N.N.N.B.V.V.V.V.T T T T < < < < C y.y.y.i.N.N.N.N.S.S.S.S.A.A.A.A.S.S.S.S.S.A.A.A.V.r.r.r.r.V.V.V.V.A.A.A.A.A.A.A.A.A.N.N.N.N.Y Y Y Y ] N.N.N.] K K K K z z z z E r.r.r.r.r.r.r._ N.N.N.N.r.E E r.C.C.C.C.d.E E E T Y Y Y Y r.r.r.r.A.A.A.A.A.A.A.A.A.A.A.A.A.V.V.V.V.A.A.A.A.A.A.A.A.A.A.A.A.A.A.A.A.A.1 1 1 1 V V V V Z Y Y Y Y T T T E N.N.N.N.V.V.V.V.B.N.N.N.B.A.A.A.A.A.A.A.A.A.A.A.A.T.R.R.R.S.r.r.r.r.T T T T N.N.N.N.N.N.N.N.B.A.A.A.A.A.A.A.A.A.A.A.A.B.N.N.N.B.V.V.V.V.N.N.N.N.N.N.N.N.N.N.N.N.K       ",
"    Y Y Y Y Y Y Y Y f.A.A.A.C.Y Y Y Y A.A.A.A.T Y Y Y _ N.N.N.N.A.A.A.V.Y Y Y Y < < < < V t.t.t.u.N.N.N.N.A.A.A.A.A.A.A.A.A.A.A.A.A.A.A.A.V.Y Y Y Y V.A.A.A.A.A.A.A.A.A.A.A.A.N.N.N.N.Y Y Y Y ` N.N.N.' J J J F < < < < Y Y Y Y Y Y Y Y ! N.N.N.9.Y Y Y Y A.A.A.A.r.Y Y Y Y Y Y Y Y Y Y Y Y A.A.A.A.A.A.A.A.A.A.A.A.A.A.A.A.A.A.A.A.A.A.A.A.A.A.A.A.A.A.A.A.A.A.< < < < V V V V Z Y Y Y Y Y Y Y Y N.N.N.N.A.A.A.A.B.N.N.N.N.A.A.A.A.A.A.A.A.A.A.A.A.T.E.E.E.S.Y Y Y Y Y Y Y Y 9.N.N.N.N.N.N.N.B.A.A.A.A.A.A.A.A.A.A.A.A.B.N.N.N.B.A.A.A.A.N.N.N.N.N.N.N.N.N.N.N.N.J       ",
"    Y Y Y Y Y Y Y Y f.A.A.A.C.Y Y Y Y A.A.A.A.T Y Y Y _ N.N.N.N.A.A.A.V.Y Y Y Y < < < < C t.t.t.u.N.N.N.N.A.A.A.A.A.A.A.A.A.A.A.A.A.A.A.A.V.Y Y Y Y V.A.A.A.A.A.A.A.A.A.A.A.A.N.N.N.N.Y Y Y Y ` N.N.N.' J J J F < < < < Y Y Y Y Y Y Y Y ! N.N.N.9.Y Y Y Y A.A.A.A.r.Y Y Y Y Y Y Y Y Y Y Y Y A.A.A.A.A.A.A.A.A.A.A.A.A.A.A.A.A.A.A.A.A.A.A.A.A.A.A.A.A.A.A.A.A.A.< < < < V V V V Z Y Y Y Y Y Y Y Y N.N.N.N.A.A.A.A.B.N.N.N.N.A.A.A.A.A.A.A.A.A.A.A.A.T.E.E.E.S.Y Y Y Y Y Y Y Y 9.N.N.N.N.N.N.N.B.A.A.A.A.A.A.A.A.A.A.A.A.B.N.N.N.B.A.A.A.A.N.N.N.N.N.N.N.N.N.N.N.N.J       ",
"    Y Y Y Y Y Y Y Y f.A.A.A.C.Y Y Y Y A.A.A.A.T Y Y Y _ N.N.N.N.A.A.A.V.Y Y Y Y < < < < C t.t.t.u.N.N.N.N.A.A.A.A.A.A.A.A.A.A.A.A.A.A.A.A.V.Y Y Y Y V.A.A.A.A.A.A.A.A.A.A.A.A.N.N.N.N.Y Y Y Y ` N.N.N.' J J J F < < < < Y Y Y Y Y Y Y Y ! N.N.N.9.Y Y Y Y A.A.A.A.r.Y Y Y Y Y Y Y Y Y Y Y Y A.A.A.A.A.A.A.A.A.A.A.A.A.A.A.A.A.A.A.A.A.A.A.A.A.A.A.A.A.A.A.A.A.A.< < < < V V V V Z Y Y Y Y Y Y Y Y N.N.N.N.A.A.A.A.B.N.N.N.N.A.A.A.A.A.A.A.A.A.A.A.A.T.E.E.E.S.Y Y Y Y Y Y Y Y 9.N.N.N.N.N.N.N.B.A.A.A.A.A.A.A.A.A.A.A.A.B.N.N.N.B.A.A.A.A.N.N.N.N.N.N.N.N.N.N.N.N.J       ",
"    I I I I I I I I ( ] ] ] ` I I I R ] ] ] ] R I I I Q ) ) ) ( ( ( ( ( z z z z < < < < z V V V U K K K K ( ( ( ( ] ] ] ] ] ] ] ] ] ] ] ] ] I I I I ] ] ] ] ] ] ] ] ' ( ( ( ( K K K K z z z z D D D D D m m m l < < < < z z z z h h h h z K K K K z z z z ] ] ] ] R I I I I I I I I I I I I ] ] ] ] ] ] ] ] ) Q Q Q ( ] ] ] ] ] ] ] ] ( ( ( ( ( ( ( ( ( J J J J < < < < k k k k z z z z z z z z z ) ) ) ) ] ] ] ] ' ) ) ) ) ] ] ] ] ] ] ] ] ] ] ] ] N.N.N.N.] I I I I I I I I K K K K ( ) ) ) ( ( ( ( ( ( ( ( ( K J J J K K K K Q ( ( ( ( ) ) ) ) ) ) ) ) ) ) ) ) D       ",
"    J J J J J J J J J J J J J J J J J J J J J J J J J J J J J F < < < < < < < < < < < < < < < < < < < < < < < < < F J J J J J J J J J J J J J J J J J J J J J J J J D < < < < < < < < < < < < X       X < < < < < < < < < < < < X       X < < < < < < < < J J J J J J J J J J J J J J J J J J J J J J J J J 3 * * * = J J J J J J J J < < < < < < < < =         < < < < < < < < < < < < < < < < < J J J J J J J J J J J J J J J J J J J J J J J J J J J J J J J J J J J J J J < < < < D J J J D < < < < < < < <         * < < < < < < < < J J J J J J J J J J J J 3       ",
"    J J J J J J J J J J J J J J J J J J J J J J J J J J J J J F < < < < < < < < < < < < < < < < < < < < < < < < < F J J J J J J J J J J J J J J J J J J J J J J J J D < < < < < < < < < < < < X       X < < < < < < < < < < < < X       X < < < < < < < < J J J J J J J J J J J J J J J J J J J J J J J J J 3 * * * = J J J J J J J J < < < < < < < < =         < < < < < < < < < < < < < < < < < J J J J J J J J J J J J J J J J J J J J J J J J J J J J J J J J J J J J J J < < < < D J J J D < < < < < < < <         * < < < < < < < < J J J J J J J J J J J J 3       ",
"    J J J J J J J J J J J J J J J J J J J J J J J J J J J J J F < < < < < < < < < < < < < < < < < < < < < < < < < F J J J J J J J J J J J J J J J J J J J J J J J J D < < < < < < < < < < < < X       X < < < < < < < < < < < < X       X < < < < < < < < J J J J J J J J J J J J J J J J J J J J J J J J J 3 * * * = J J J J J J J J < < < < < < < < =         < < < < < < < < < < < < < < < < < J J J J J J J J J J J J J J J J J J J J J J J J J J J J J J J J J J J J J J < < < < D J J J D < < < < < < < <         * < < < < < < < < J J J J J J J J J J J J 3       ",
"    K K K K J J J J J J J J J F F F F F F F F F F F F F F F F D < < < < < < < < < < < < < < < < < < < < < < < < < J K K K K K K K K K K K K K K K K J J J J J J J J D < < < < < < < < < < < < X       O < < < < < < < < < < < < X       O < < < < < < < < K K K K K K K K K K K K K K K K K J J J J J J J J 3 * * * = F F F F F F F F < < < < < < < < < X X X X < < < < < < < < < < < < < < < < < K K K K K K K K K K K K K K K K K J J J J J J J J F F F F F F F F F F F F F < < < < D J J J D < < < < < < < < X X X X = < < < < < < < < K K K K K K K K K K K K 3       ",
"    A.A.A.A.A V V V V V V V B < < < < < < < < k k k k k k k k n M M M M M M M M M M M M M M M M M J J J J J J J J 9.N.N.N.V.A.A.A.A.A.A.A.A.A.A.A.A.C V V V V V V V n < < < < < < < < g g g g k k k k n M M M M M M M M M M M M n k k k n J J J J J J J J 9.N.N.N.V.A.A.A.A.A.A.A.A.A.A.A.A.V V V V V V V V k < < < < < < < < g g g g k k k k k k k k n M M M M M M M M n k k k D J J J J J J J J N.N.N.N.A.A.A.A.A.A.A.A.A.A.A.A.V.V V V V V V V V j < < < < < < < < k k k k k k k k n M M M M M M M M k k k k M M M M J J J J J J J J K N.N.N.N.A.A.A.A.A.A.A.A.P       ",
"    A.A.A.A.A V V V V V V V B < < < < < < < < k k k k k k k k n M M M M M M M M M M M M M M M M M J J J J J J J J 9.N.N.N.V.A.A.A.A.A.A.A.A.A.A.A.A.C V V V V V V V n < < < < < < < < g g g g k k k k n M M M M M M M M M M M M n k k k n J J J J J J J J 9.N.N.N.V.A.A.A.A.A.A.A.A.A.A.A.A.V V V V V V V V k < < < < < < < < g g g g k k k k k k k k n M M M M M M M M n k k k D J J J J J J J J N.N.N.N.A.A.A.A.A.A.A.A.A.A.A.A.V.V V V V V V V V j < < < < < < < < k k k k k k k k n M M M M M M M M k k k k M M M M J J J J J J J J K N.N.N.N.A.A.A.A.A.A.A.A.P       ",
"    A.A.A.A.A V V V V V V V B < < < < < < < < k k k k k k k k n M M M M M M M M M M M M M M M M M J J J J J J J J 9.N.N.N.V.A.A.A.A.A.A.A.A.A.A.A.A.C V V V V V V V n < < < < < < < < g g g g k k k k n M M M M M M M M M M M M n k k k n J J J J J J J J 9.N.N.N.V.A.A.A.A.A.A.A.A.A.A.A.A.V V V V V V V V k < < < < < < < < g g g g k k k k k k k k n M M M M M M M M n k k k D J J J J J J J J N.N.N.N.A.A.A.A.A.A.A.A.A.A.A.A.V.V V V V V V V V j < < < < < < < < k k k k k k k k n M M M M M M M M k k k k M M M M J J J J J J J J K N.N.N.N.A.A.A.A.A.A.A.A.P       ",
"    A.A.A.A.A V V V V V V V B < < < < < < < < k k k k k k k k n M M M M M M M M M M M M M M M M M J J J J J J J J 9.N.N.N.V.A.A.A.A.A.A.A.A.A.A.A.A.C V V V V V V V n < < < < < < < < g g g g k k k k n M M M M M M M M M M M M n k k k n J J J J J J J J 9.N.N.N.V.A.A.A.A.A.A.A.A.A.A.A.A.V V V V V V V V k < < < < < < < < g g g g k k k k k k k k n M M M M M M M M n k k k D J J J J J J J J N.N.N.N.A.A.A.A.A.A.A.A.A.A.A.A.V.V V V V V V V V j < < < < < < < < k k k k k k k k n M M M M M M M M k k k k M M M M J J J J J J J J K N.N.N.N.A.A.A.A.A.A.A.A.P       ",
"    A.A.A.A.A.A.A.A.B.9.9.9.] V V V V V V V V < < < < l F F F F F F F F F F F F F F F F J J J J P 9.9.9.N.A.A.A.A.P.P.P.P.P.P.P.P.P.P.P.P.P.A.A.A.A.A.A.A.A.B.9.9.9.` V V V V V V V V < < < < h h h h j k k k n M M M M K K K K J J J J / N.N.N.N.A.A.A.A.P.P.P.P.P.P.P.P.P.P.P.P.P.A.A.A.A.A.A.A.A.N.9.9.9.! V V V V V V V V < < < < D F F F J K K K K K K P / ) ) ) ) J J J J ( 9.9.9.N.A.A.A.A.P.P.P.P.P.P.P.P.P.P.P.P.L.A.A.A.A.A.A.A.A.N.9.9.9.! V V V V V V V V < < < < h h h h j g g g k M M M M K K K K J J J J ) 9.9.9.B.A.A.A.A.P.P.P.P.P.P.P.P.P.P.P.P.)       ",
"    A.A.A.A.A.A.A.A.B.N.N.N.] V V V V V V V V < < < < l F F J J F F F F F F F F F F F F J J J J P N.N.N.N.A.A.A.A.P.P.P.P.P.P.P.P.P.P.P.P.P.A.A.A.A.A.A.A.A.B.N.N.N.` V V V V V V V V < < < < h h h h j k k k k M M M M K K K K J J J J / N.N.N.N.A.A.A.A.P.P.P.P.P.P.P.P.P.P.P.P.P.A.A.A.A.A.A.A.A.N.N.N.N.! V V V V V V V V < < < < D F F F J K K K K ^ / / / ' ' ' ' K J J J ) N.N.N.N.A.A.A.A.P.P.P.P.P.P.P.P.P.P.P.P.L.A.A.A.A.A.A.A.A.N.N.N.N.! V V V V V V V V < < < < h h h h h g g g k M M M M K K K K J J J J ' 9.N.N.B.A.A.A.S.P.P.P.P.P.P.P.P.P.P.P.P.)       ",
"    A.A.A.A.A.A.A.A.B.N.N.N.] V V V V V V V V < < < < l F F F J F F F F F F F F F F F F J J J J P N.N.N.N.A.A.A.A.P.P.P.P.P.P.P.P.P.P.P.P.P.A.A.A.A.A.A.A.A.B.N.N.N.` V V V V V V V V < < < < h h h h j k k k k M M M M K K K K J J J J ( N.N.N.N.A.A.A.A.P.P.P.P.P.P.P.P.P.P.P.P.P.A.A.A.A.A.A.A.A.N.N.N.N.! V V V V V V V V < < < < D F F F J K K K K / / / / ' ' ' ' K J J J ) N.N.N.N.A.A.A.A.P.P.P.P.P.P.P.P.P.P.P.P.L.A.A.A.A.A.A.A.A.N.N.N.N.! V V V V V V V V < < < < h h h h h g g g k M M M M K K K K J J J J ' N.N.N.B.A.A.A.S.P.P.P.P.P.P.P.P.P.P.P.P.)       ",
"    A.A.A.A.A.A.A.A.B.N.N.N.] V V V V V V V V < < < < l F F F F F F F F F F F F F F F F J J J J P N.N.N.N.A.A.A.A.P.P.P.P.P.P.P.P.P.P.P.P.P.A.A.A.A.A.A.A.A.B.N.N.N.` V V V V V V V V < < < < h h h h j k k k k M M M M K K K K J J J J ( N.N.N.N.A.A.A.A.P.P.P.P.P.P.P.P.P.P.P.P.P.A.A.A.A.A.A.A.A.N.N.N.N.! V V V V V V V V < < < < D F F F J K K K K / / / / ' ' ' ' K J J J ) N.N.N.N.A.A.A.A.P.P.P.P.P.P.P.P.P.P.P.P.L.A.A.A.A.A.A.A.A.N.N.N.N.! V V V V V V V V < < < < h h h h h g g g k M M M M K K K K J J J J ' N.N.N.B.A.A.A.S.P.P.P.P.P.P.P.P.P.P.P.P.)       ",
"    A.A.A.A.A.A.A.A.B.N.N.N.9.] ] ] ] p.p.p.p.V V V V k < < < < h h h h K K K K J J J J ( ] ] ] 9.V.V.V.A.L.L.L.L.XXoXoXoX/.P.P.P.L.S.S.S.S.A.A.A.A.A.A.A.A.B.N.N.N.9.] ] ] ] p.p.p.p.V V V V j < < < < * * * = n n n n J J J J ' ] ] ] N.V.V.V.A.L.L.L.L.oXoXoXoXW.P.P.P.L.S.S.S.S.A.A.A.A.A.A.A.A.N.N.N.N.9.] ] ] ] p.p.p.p.V V V V 1 < < < m J J J J Q Q Q Q K K K K ] ] ] ] B.V.V.V.S.L.L.L.P.oXoXoXoXU.P.P.P.G.S.S.S.S.A.A.A.A.A.A.A.A.N.N.N.N.9.] ] ] f.p.p.p.p.V V V V < < < < = * * * ; n n n n J J J J ] ] ] ] B.V.V.V.S.L.L.L.P.oXoXoXoXP.P.P.P.G.S.S.S./       ",
"    A.A.A.A.A.A.A.A.B.N.N.N.N.N.N.N.9.a.a.a.a.C V V V j < < < < h h h h K K K K J J J J ) N.N.N.B.A.A.A.S.P.P.P.P.&X&X&X&X`.P.P.P.L.A.A.A.A.A.A.A.A.A.A.A.A.B.N.N.N.N.N.N.N.9.a.a.a.a.V V V V j < < < = * * * * k k k k J J J J ] N.N.N.B.A.A.A.S.P.P.P.P.&X&X&X&XW.P.P.P.G.A.A.A.A.A.A.A.A.A.A.A.A.N.N.N.N.N.N.N.N.9.a.a.a.a.V V V V < < < < l F F F J Q Q Q Q J J J J 9.N.N.N.V.A.A.A.S.P.P.P.P.&X&X&X&XU.P.P.P.G.A.A.A.A.A.A.A.A.A.A.A.A.N.N.N.N.N.N.N.N.z.a.a.a.a.V V V V < < < < * * * * = k k k n J J J J 9.N.N.N.V.A.A.A.G.P.P.P.U.&X&X&X&XU.P.P.P.G.A.A.A.P       ",
"    A.A.A.A.A.A.A.A.B.N.N.N.N.N.N.N.9.a.a.a.a.C V V V j < < < < h h h h K K K K J J J J ) N.N.N.B.A.A.A.S.P.P.P.P.&X&X&X&X`.P.P.P.L.A.A.A.A.A.A.A.A.A.A.A.A.B.N.N.N.N.N.N.N.9.a.a.a.a.V V V V j < < < = * * * * k k k k J J J J ] N.N.N.B.A.A.A.S.P.P.P.P.&X&X&X&XW.P.P.P.G.A.A.A.A.A.A.A.A.A.A.A.A.N.N.N.N.N.N.N.N.9.a.a.a.a.V V V V < < < < l F F F J Q Q Q Q J J J J 9.N.N.N.V.A.A.A.S.P.P.P.P.&X&X&X&XU.P.P.P.G.A.A.A.A.A.A.A.A.A.A.A.A.N.N.N.N.N.N.N.N.z.a.a.a.a.V V V V < < < < * * * * = k k k n J J J J 9.N.N.N.V.A.A.A.G.P.P.P.U.&X&X&X&XU.P.P.P.G.A.A.A.P       ",
"    A.A.A.A.A.A.A.A.B.N.N.N.N.N.N.N.9.a.a.a.a.C V V V j < < < < h h h h K K K K J J J J ) N.N.N.B.A.A.A.S.P.P.P.P.&X&X&X&X`.P.P.P.L.A.A.A.A.A.A.A.A.A.A.A.A.B.N.N.N.N.N.N.N.9.a.a.a.s.V V V V j < < < = * * * * k k k k J J J J ] N.N.N.B.A.A.A.S.P.P.P.P.&X&X&X&XW.P.P.P.G.A.A.A.A.A.A.A.A.A.A.A.A.N.N.N.N.N.N.N.N.9.a.a.a.a.V V V V < < < < l F F F J Q Q Q Q J J J J 9.N.N.N.V.A.A.A.S.P.P.P.P.&X&X&X&XU.P.P.P.G.A.A.A.A.A.A.A.A.A.A.A.A.N.N.N.N.N.N.N.N.z.a.a.a.a.V V V V < < < < * * * * = k k k n J J J J 9.N.N.N.V.A.A.A.G.P.P.P.U.&X&X&X&XU.P.P.P.G.A.A.A.P       ",
"    A.A.A.A.V.V.V.V.N.N.N.N.N.N.N.N.9.t.t.t.t.t.t.t.t.n < < < < D D D D K K K K m l l l ( N.N.N.N.V.V.V.V.G.G.G.G.).).).).E.G.G.G.G.A.A.A.A.A.A.A.A.V.V.V.V.N.N.N.N.N.N.N.N.9.t.t.t.t.t.t.t.t.j < < < < > > > > k k k k l l l l ' N.N.N.N.V.V.V.V.G.G.G.G.).).).).L.G.G.G.G.A.A.A.A.A.A.A.A.V.V.V.V.N.N.N.N.N.N.N.N.9.t.t.t.t.t.t.t.t.h < < < l J J J K P P P P l l l l ] N.N.N.B.V.V.V.V.G.G.G.G.).).).).L.G.G.G.G.A.A.A.A.A.A.A.A.V.V.V.V.N.N.N.N.N.N.N.N.] t.t.t.t.t.t.t.t.< < < < > > > > < k k k k l l l l 9.N.N.N.B.V.V.V.A.G.G.G.L.).).).).L.G.G.G.S.A.A.A.P       ",
"    A.A.A.A.N.N.N.N.N.N.N.N.N.N.N.N.9.V V V V a.a.a.a.V < < < 3 K K K K K K K K < < < < Q N.N.N.N.N.N.N.N.A.A.A.A.A.A.A.A.A.A.A.A.A.A.A.A.A.A.A.A.A.N.N.N.N.N.N.N.N.N.N.N.N.9.V V V V a.a.a.a.z < < < 1 2 2 2 3 g g g g < < < < ) N.N.N.N.N.N.N.N.A.A.A.A.A.A.A.A.A.A.A.A.A.A.A.A.A.A.A.A.A.N.N.N.N.N.N.N.N.N.N.N.N.9.V V V V a.a.a.a.j < < < m K K K K K K K K < < < < ] N.N.N.N.N.N.N.N.A.A.A.A.A.A.A.A.A.A.A.A.A.A.A.A.A.A.A.A.A.N.N.N.N.N.N.N.N.N.N.N.N.` V V V V a.s.a.a.< < < < , 2 2 2 3 k k k k < < < < 9.N.N.N.N.N.N.N.B.A.A.A.A.A.A.A.A.A.A.A.A.A.A.A.A.P       ",
"    A.A.A.A.N.N.N.N.N.N.N.N.N.N.N.N.9.V V V V a.a.a.a.V < < < 3 K K K K K K K K < < < < Q N.N.N.N.N.N.N.N.A.A.A.A.A.A.A.A.A.A.A.A.A.A.A.A.A.A.A.A.A.N.N.N.N.N.N.N.N.N.N.N.N.9.V V V V a.a.a.a.z < < < 1 2 2 2 3 g g g g < < < < ) N.N.N.N.N.N.N.N.A.A.A.A.A.A.A.A.A.A.A.A.A.A.A.A.A.A.A.A.A.N.N.N.N.N.N.N.N.N.N.N.N.9.V V V V a.a.a.a.j < < < m K K K K K K K K < < < < ] N.N.N.N.N.N.N.N.A.A.A.A.A.A.A.A.A.A.A.A.A.A.A.A.A.A.A.A.A.N.N.N.N.N.N.N.N.N.N.N.N.` V V V V a.a.a.a.< < < < , 2 2 2 3 k k k k < < < < 9.N.N.N.N.N.N.N.B.A.A.A.A.A.A.A.A.A.A.A.A.A.A.A.A.P       ",
"    A.A.A.A.N.N.N.N.N.N.N.N.N.N.N.N.9.V V V V a.a.a.a.V < < < 3 K K K K K K K K < < < < Q N.N.N.N.N.N.N.N.A.A.A.A.A.A.A.A.A.A.A.A.A.A.A.A.A.A.A.A.A.N.N.N.N.N.N.N.N.N.N.N.N.9.V V V V a.a.a.a.z < < < 1 2 2 2 3 g g g g < < < < ) N.N.N.N.N.N.N.N.A.A.A.A.A.A.A.A.A.A.A.A.A.A.A.A.A.A.A.A.A.N.N.N.N.N.N.N.N.N.N.N.N.9.V V V V a.a.a.a.j < < < m K K K K K K K K < < < < ] N.N.N.N.N.N.N.N.A.A.A.A.A.A.A.A.A.A.A.A.A.A.A.A.A.A.A.A.A.N.N.N.N.N.N.N.N.N.N.N.N.` V V V V a.a.a.a.< < < < , 2 2 2 3 k k k k < < < < 9.N.N.N.N.N.N.N.B.A.A.A.A.A.A.A.A.A.A.A.A.A.A.A.A.P       ",
"    A.A.A.A.N.N.N.N.N.N.N.N.N.9.9.9.9.C C C C a.a.a.a.V < < < 3 K K K K K K K K < < < < Q N.N.N.N.N.N.N.N.S.S.S.S.S.S.S.S.S.A.A.A.A.A.A.A.A.A.A.A.A.N.N.N.N.N.N.N.N.N.9.9.9.9.C C C C a.a.a.a.z < < < 1 , , , , j j j j < < < < ) N.N.N.N.N.N.N.N.S.S.S.S.S.S.S.S.S.A.A.A.A.A.A.A.A.A.A.A.A.N.N.N.N.N.N.N.N.N.9.9.9.9.C C C C a.a.a.a.j < < < m K K K K K K K K < < < < ] N.N.N.N.N.N.N.B.S.S.S.S.S.S.S.S.A.A.A.A.A.A.A.A.A.A.A.A.A.N.N.N.N.N.N.N.N.9.9.9.9.` C C C A a.a.a.a.< < < < 1 , , , , k k k k < < < < 9.N.N.N.N.N.N.N.V.S.S.S.S.S.S.S.S.A.A.A.A.A.A.A.A.P       ",
"    N.N.N.N.N.N.N.N.V.A.A.A.Z.a.a.a.a.a.a.a.a.a.a.a.a.V < < < 3 K K K K K K K K < < < < Q N.N.N.B.A.A.A.S.P.P.P.P.P.P.P.P.G.A.A.A.V.N.N.N.N.N.N.N.N.N.N.N.N.V.A.A.A.Z.a.a.a.a.a.a.a.a.a.a.a.a.z < < < = * * * * k k k k < < < < ) N.N.N.B.A.A.A.S.P.P.P.P.P.P.P.P.G.A.A.A.V.N.N.N.N.N.N.N.N.N.N.N.N.V.A.A.A.c.a.a.a.a.a.a.a.a.a.a.a.a.j < < < m K K K K K K K K < < < < ] N.N.N.V.A.A.A.S.P.P.P.P.P.P.P.P.S.A.A.A.B.N.N.N.N.N.N.N.N.N.N.N.N.A.A.A.A.l.a.a.a.a.a.a.a.a.a.a.a.a.< < < < * * * * = k k k k < < < < 9.N.N.N.V.A.A.A.G.P.P.P.P.P.P.P.P.S.A.A.A.B.N.N.N.J       ",
"    N.N.N.N.N.N.N.N.V.A.A.A.Z.a.a.a.a.a.a.a.a.a.a.a.a.V < < < 3 K K K K K K K K < < < < Q N.N.N.B.A.A.A.S.P.P.P.P.P.P.P.P.G.A.A.A.V.N.N.N.N.N.N.N.N.N.N.N.N.V.A.A.A.Z.a.a.a.a.a.a.a.a.a.a.a.a.z < < < = * * * * k k k k < < < < ) N.N.N.B.A.A.A.S.P.P.P.P.P.P.P.P.G.A.A.A.V.N.N.N.N.N.N.N.N.N.N.N.N.V.A.A.A.c.a.a.a.a.a.a.a.a.a.a.a.a.j < < < m K K K K K K K K < < < < ] N.N.N.V.A.A.A.S.P.P.P.P.P.P.P.P.S.A.A.A.B.N.N.N.N.N.N.N.N.N.N.N.N.A.A.A.A.l.a.a.a.a.a.a.a.a.a.s.s.s.h < < < * * * * = k k k k < < < < 9.N.N.N.V.A.A.A.G.P.P.P.P.P.P.P.P.S.A.A.A.B.N.N.N.J       ",
"    N.N.N.N.N.N.N.N.V.A.A.A.Z.a.a.a.a.a.a.a.a.a.a.a.a.V < < < 3 K K K K K K K K < < < < Q N.N.N.B.A.A.A.S.P.P.P.P.P.P.P.P.G.A.A.A.V.N.N.N.N.N.N.N.N.N.N.N.N.V.A.A.A.Z.a.a.a.a.a.a.a.a.a.a.a.a.z < < < = * * * * k k k k < < < < ) N.N.N.B.A.A.A.S.P.P.P.P.P.P.P.P.G.A.A.A.V.N.N.N.N.N.N.N.N.N.N.N.N.V.A.A.A.c.a.a.a.a.a.a.a.a.a.a.a.a.j < < < m K K K K K K K K < < < < ] N.N.N.V.A.A.A.S.P.P.P.P.P.P.P.P.S.A.A.A.B.N.N.N.N.N.N.N.N.N.N.N.N.A.A.A.A.l.a.a.a.a.a.a.a.a.a.s.s.a.h < < < * * * * = k k k k < < < < 9.N.N.N.V.A.A.A.G.P.P.P.P.P.P.P.P.S.A.A.A.B.N.N.N.J       ",
"    N.N.N.N.N.N.N.N.V.A.A.A.Z.a.a.a.a.a.a.a.a.a.a.a.a.V < < < 3 K K K K K K K K < < < < Q N.N.N.B.A.A.A.A.P.P.P.P.P.P.P.P.G.A.A.A.V.N.N.N.N.N.N.N.N.N.N.N.N.V.A.A.A.C.a.a.a.a.a.a.a.a.a.a.a.a.z < < < = * * * * k k k k < < < < ) N.N.N.B.A.A.A.S.P.P.P.P.P.P.P.P.S.A.A.A.V.N.N.N.N.N.N.N.N.N.N.N.N.V.A.A.A.c.a.a.a.a.a.a.s.a.a.a.a.a.j < < < m K K K K K K K K < < < < ] N.N.N.V.A.A.A.S.P.P.P.P.P.P.P.P.S.A.A.A.B.N.N.N.N.N.N.N.N.N.N.N.N.A.A.A.A.c.a.a.a.a.a.a.a.a.a.a.a.a.h < < < * * * * = k k k k < < < < 9.N.N.N.V.A.A.A.G.P.P.P.P.P.P.P.P.A.A.A.A.B.N.N.N.J       ",
"    N.N.N.N.1 < < < < < < < 1 J J J J J J J J V V V V j < < < 3 K K K K K K K K < < < < Q N.N.N.' J J J J J J J J < < < < < < < < D N.N.N.N.N.N.N.N.< < < < < < < < l J J J J J J J J V V V V j < < < = * * * * k k k k < < < < ) N.N.N.) J J J J J J J J < < < < < < < < J N.N.N.N.N.N.N.N.< < < < < < < < l J J J J J J J J V V V V < < < < l F F J J K K K K < < < < ] N.N.N.( J J J J J J J J < < < < < < < < K N.N.N.N.N.N.N.9.< < < < < < < < D J J J J J J J J V V V V < < < < * * * * = k k k k < < < < 9.N.N.N./ J J J J J J J J < < < < < < < < ( N.N.N.J       ",
"    N.N.N.N.1 < < < < < < < < J J J J J J J J V V V V j < < < 3 K K K K K K K K < < < < Q N.N.N.' J J J J J J J J < < < < < < < < D N.N.N.N.N.N.N.N.< < < < < < < < 3 J J J J J J J J V V V V j < < < = * * * * k k k k < < < < ) N.N.N.) J J J J J J J J < < < < < < < < J N.N.N.N.N.N.N.N.< < < < < < < < l J J J J J J J J V V V V < < < < 3 F F J J K K K K < < < < ] N.N.N.( J J J J J J J J < < < < < < < < K N.N.N.N.N.N.N.9.< < < < < < < < D J J J J J J J J V V V V < < < < * * * * = k k k k < < < < 9.N.N.N./ J J J J J J J F < < < < < < < < ( N.N.N.J       ",
"    N.N.N.N.1 < < < < < < < < J J J J J J J J V V V V j < < < 3 K K K K K K K K < < < < Q N.N.N.' J J J J J J J J < < < < < < < < D N.N.N.N.N.N.N.N.< < < < < < < < 3 J J J J J J J J V V V V j < < < = * * * * k k k k < < < < ) N.N.N.) J J J J J J J J < < < < < < < < J N.N.N.N.N.N.N.N.< < < < < < < < l J J J J J J J J V V V V < < < < 3 F F F J K K K K < < < < ] N.N.N.( J J J J J J J J < < < < < < < < K N.N.N.N.N.N.N.9.< < < < < < < < D J J J J J J J J V V V V < < < < * * * * = k k k k < < < < 9.N.N.N./ J J J J J J J F < < < < < < < < ( N.N.N.J       ",
"    N.N.N.N.1 < < < < < < < < J J J J J J J J V V V V j < < < 3 K K K K K K K K < < < < Q N.N.N.' J J J J J J J J < < < < < < < < D N.N.N.N.N.N.N.N.< < < < < < < < 3 J J J J J J J J V V V V j < < < = * * * * k k k k < < < < ) N.N.N.) J J J J J J J J < < < < < < < < J N.N.N.N.N.N.N.N.< < < < < < < < l J J J J J J J J V V V V < < < < l F F F J K K K K < < < < ] N.N.N.( J J J J J J J J < < < < < < < < K N.N.N.N.N.N.N.9.< < < < < < < < D J J J J J J J J V V V V < < < < * * * * = k k k k < < < < 9.N.N.N./ J J J J J J J F < < < < < < < < ( N.N.N.J       ",
"    V.A.A.A.O                 X X X X J J J J V V V V j < < < < h h h h K K K K < < < < Q N.N.N.' J J J F X X X X                 , A.A.A.A.A.A.A.A.X               X X X X X J J J J V V V V j < < < *       X k k k k < < < < ) N.N.N.) J J J F 7 7 7 7  . . . .9 9 9 9 6.A.A.V.A.A.A.A.A.e 9 9 9  . . . .9 7 7 7 6 J J J J V V V V < < < < h h h h h K K K K < < < < ] N.N.N.( J J J D X X X X                 K A.A.A.A.A.A.A.V.                X X X X O J J J J V V V V < < < < * * * * = k k k k < < < < 9.N.N.N./ J J J 3 X X X X                 ( A.A.A.P       ",
"    A.A.A.A.X                         J J J J V V V V j < < < < h h h h K K K K < < < < Q N.N.N.' J J J F                         , A.A.A.A.A.A.A.A.X                         J J J J V V V V j < < < *         k k k k < < < < ) N.N.N.) J J J F 5 5 5 5 { { { { [ 9 9 9 6.A.A.A.A.A.A.A.A.9 9 9 9 { { { { 9 5 5 5 7 J J J J V V V V < < < < h h h h h K K K K < < < < ] N.N.N.( J J J D                         K A.A.A.A.A.A.A.V.                        O J J J J V V V V < < < < * * * * = k k k k < < < < 9.N.N.N./ J J J 3                         ( A.A.A.P       ",
"    A.A.A.A.X                         J J J J V V V V j < < < < h h h h K K K K < < < < Q N.N.N.' J J J F                         , A.A.A.A.A.A.A.A.X                         J J J J V V V V j < < < *         k k k k < < < < ) N.N.N.) J J J F 5 5 5 5 { { { { [ 9 9 9 6.A.A.A.A.A.A.A.A.9 9 9 9 { { { { 9 5 5 5 7 J J J J V V V V < < < < h h h h h K K K K < < < < ] N.N.N.( J J J D                         K S.A.A.A.A.A.A.V.                        O J J J J V V V V < < < < * * * * = k k k k < < < < 9.N.N.N./ J J J 3                         ( A.A.A.P       ",
"    A.A.A.A.X                         J J J J V V V V j < < < < h h h h K K K K < < < < Q N.N.N.' J J J F                         , A.A.A.A.A.A.A.A.X                         J J J J V V V V j < < < *         k k k k < < < < ) N.N.N.) J J J F 5 5 5 5 { { { { [ 9 9 9 6.A.A.A.A.A.A.A.A.9 9 9 9 { { { } 9 5 5 5 7 J J J J V V V V < < < < h h h h h K K K K < < < < ] N.N.N.( J J J D                         K S.A.A.A.A.A.A.V.                        O J J J J V V V V < < < < * * * * = k k k k < < < < 9.N.N.N./ J J J 3                         ( A.A.A.P       ",
"    ' ' ' ' D S S S , O O O X         J J J J T A A A k < < < < < < < < , , , , < < < < J ( ( ( / J J J F         O O O O 3 S S S J ' ' ' ' ' ' ' ' D S S S > O O O X         J J J J A A A A j < < < ; = = = = n n n n < < < < K ( ( ( / J J J F 8 8 8 8 { { { { } } } } 1.' ' ' ' ' ' ' ' O.} } } } { { { [ 8 8 8 8 J J J J A A A A < < < < ; * * * * , , , , < < < < / ( ( ( P J J J D         O O O O a S S S P ' ' ' ' ' ' ' ' S S S S O O O O X       O J J J J A A A A < < < < < < < < j n n n n < < < < ( ( ( ( K J J J 3         O O O O a S D S ( ' ' ' D       ",
"    J J J J 9.N.N.N.J < < < *         J J J J t.t.t.t.n < < < < * * * O         < < < < D J J J J J J J F         < < < < ( N.N.N.' J J J J J J J J 9.N.N.N.D < < < *         J J J J t.t.t.t.k < < < < k k k k M M M M < < < < F J J J J J J J F 9 9 9 9 { { { { %.&.&.&.@.J J J J J J J J %.&.&.&.} { } { [ 9 9 9 e J J J J t.t.t.t.h < < < O                 < < < < F J J J J J J J D         < < < < ] N.N.N.( J J J J J J J J N.N.N.N.< < < < X       O J J J J t.t.t.t.< < < < j k k k n M M M M < < < < F J J J J J J J 3         < < < < 9.N.N.N.P J J J 3       ",
"    J J J J 9.N.N.N.J < < < *         J J J J t.t.t.t.n < < < < * * * O         < < < < D J J J J J J J F         < < < < ( N.N.N.' J J J J J J J J 9.N.N.9.m < < < *         J J J J t.t.t.t.k < < < < k k k k M M M M < < < < F J J J J J J J F 9 9 9 9 { { { { %.&.&.&.@.J J J J J J J J %.&.&.&.} { { } [ 9 9 9 e J J J J t.t.t.t.h < < < O                 < < < < F J J J J J J J D         < < < < ] N.N.N.( J J J J J J J J N.N.N.N.< < < < X       O J J J J t.t.t.t.< < < < j k k k n M M M M < < < < F J J J J J J J 3         < < < < 9.N.N.N.P J J J 3       ",
"    J J J J 9.N.N.N.J < < < *         J J J J t.t.t.t.n < < < < * * * O         < < < < D J J J J J J J F         < < < < ( N.N.N.' J J J J J J J J 9.N.N.N.D < < < *         J J J J t.t.t.t.k < < < h k k k k M M M M < < < < F J J J J J J J F 9 9 9 9 { { { { %.&.&.&.@.J J J J J J J J %.&.&.&.} { { { [ 9 9 9 e J J J J t.t.t.t.h < < < O                 < < < < F J J J J J J J D         < < < < ] N.N.N.( J J J J J J J J N.N.N.N.< < < < X       O J J J J t.t.t.t.< < < < j k k k n M M M M < < < < F J J J J J J J 3         < < < < 9.N.N.N.P J J J 3       ",
"    D D D D ] z.z.z.K l l l < X X X X J J J J W t.t.t.z < < < < * * * * X X X X < < < < D K K K K K K K K O O O O 3 l l l ) N.N.N.' F F F F D D D D 9.z.z.z.G l l l < X X X X J J J J t.t.t.t.j < < < j n n n n M M M M < < < < F K K K K K K K K t t t t } } } } %.&.&.&.@.F F F F D D D D %.%.%.%.} } } } { 9 9 9 e J J J J t.t.t.t.h < < < * X X X X X X X X < < < < J K K K K K K K F O O O O l l l l 9.N.N.N.( F F F F D D D D z.z.z.z.l l l l * X X X * J J J J t.t.t.t.< < < < j n n n n M M M M < < < < K K K K K K K K D O O O O l l l l 9.N.N.N.K F F F 3       ",
"            p.a.a.a.z.N.N.N.] V V V V V V V V V V V V j < < < < g g g g g g g g < < < < Q N.N.N.N.N.N.N.N.N.N.N.N.N.N.N.N.V.A.A.A.] < < < <         p.a.a.a.z.N.N.N.` V V V V V V V V V V V V j < < < j M M M M M M M M < < < < ) N.N.N.N.N.N.N.N.N.N.N.N.&.&.&.&.=.-.-.-.X.< < < <         +.+.+.+.%.&.&.&.} 9 9 9 e V V V V V V V V < < < < < g g g j k k k k < < < < ] N.N.N.N.N.N.N.N.N.N.N.N.N.N.N.N.A.A.A.A.H < < < *         a.a.a.a.9.N.N.N.! V V V V V V V V V V V V < < < < z M M M M M M M M < < < < 9.N.N.N.N.N.N.N.N.N.N.N.N.N.N.N.N.A.A.A.A.D < < < *       ",
"            p.a.a.a.z.N.N.N.` V V V V V V V V V V V V j < < < < g g g g g g g g < < < < Q N.N.N.N.N.N.N.N.N.N.N.N.N.N.N.N.V.A.A.A.] < < < <         p.a.a.a.z.N.N.N.` V V V V V V V V V V V V j < < < j M M M M M M M M < < < < ) N.N.N.N.N.N.N.N.N.N.N.N.&.&.&.&.=.-.-.-.X.< < < <         +.+.+.+.%.&.&.&.} 9 9 9 e V V V V V V V V < < < < < g g g j k k k k < < < < ] N.N.N.N.N.N.N.N.N.N.N.N.N.N.N.N.A.A.A.A.H < < < *         a.a.a.a.9.N.N.N.! V V V V V V V V V V V V < < < < z M M M M M M M M < < < < 9.N.N.N.N.N.N.N.N.N.N.N.N.N.N.N.N.A.A.A.A.D < < < *       ",
"            p.a.a.a.z.N.9.9.` V V V V V V V V V V V V j < < < < g g g g g g g g < < < < Q N.N.N.N.N.N.N.N.N.N.N.N.N.N.N.N.V.A.A.A.] < < < <         p.a.a.a.z.N.N.N.` V V V V V V V V V V V V j < < < j M M M M M M M M < < < < ) N.N.N.N.N.N.N.N.N.N.N.N.&.&.&.&.=.-.-.-.X.< < < <         +.+.+.+.%.&.&.&.} 9 9 9 e V V V V V V V V < < < < ; g g g j k k k k < < < < ] N.N.N.N.N.N.N.N.N.N.N.N.N.N.N.N.A.A.A.A.H < < < *         a.a.a.a.9.N.N.N.! V V V V V V V V V V V V < < < < z M M M M M M M M < < < < 9.N.N.N.N.N.N.N.N.N.N.N.N.N.N.N.N.A.A.A.A.D < < < *       ",
"            p.a.a.a.z.N.9.9.` V V V V V V V V V V V V j < < < < g g g g g g g g < < < < Q 9.9.9.9.N.N.N.N.N.N.N.N.N.N.N.N.V.A.A.A.] < < < <         p.a.a.a.z.N.N.N.` V V V V V V V V V V V V j < < < j M M M M M M M M < < 1 1 ) 9.9.9.N.N.N.N.N.N.N.N.N.%.&.&.&.=.-.-.-.X.< < < <         +.+.+.+.%.&.&.&.} 9 9 9 e V V V V V V V V < < < < < g g g j n n n n < < < < ] 9.9.9.N.N.N.N.N.N.N.N.N.N.N.N.N.A.A.A.A.H < < < *         a.a.a.a.9.N.N.N.! V V V V V V V V V V V V < < < < z M M M M M M M M < < < < ] 9.9.9.N.N.N.N.N.N.N.N.N.N.N.N.N.A.A.A.A.D < < < *       ",
"            p.a.a.a.a.a.a.a.l.A.A.A.A.a.a.a.a.h < < < j k k k n M M M M M M M M x.Z.Z.Z.H < < < D A.A.A.A.A.A.A.A.A.A.A.A.A.A.A.A.(                 p.a.a.a.a.a.a.a.l.A.A.A.A.a.a.a.a.< < < < h h h h h h h h h K K K K K K K K 3 < < < H A.A.A.A.A.A.A.A.A.A.A.A.:.-.-.-.[                 +.+.+.+.+.+.+.+.7.A.A.A.Z.a.a.a.a.< < < < n M M M n k k k M C.C.B.z.P P P P < < < < ( A.A.A.A.A.A.A.A.A.A.A.A.A.A.A.A.a                 a.a.a.a.a.a.a.a.c.A.A.A.Z.a.a.a.a.< < < < K P P P ) ` ` ` ) P P P P Z.Z.Z.x.< < < < ` A.A.A.A.A.A.A.A.A.A.A.A.A.A.A.A.,               ",
"            p.a.a.a.a.a.a.a.l.A.A.A.A.a.a.a.a.h < < < j k k k n M M M M M M M M x.Z.Z.Z.H < < < D A.A.A.A.A.A.A.A.A.A.A.A.A.A.A.A.(                 p.a.a.a.a.a.a.a.l.A.A.A.S.a.a.a.a.< < < < h h h h h h h h h K K K K K K K K 3 < < < H A.A.A.A.A.A.A.A.A.A.A.A.:.-.-.-.[                 +.+.+.+.+.+.+.+.7.A.A.A.Z.a.a.a.a.< < < < n M M M n k k k M C.C.B.B.P P P P < < < < ( A.A.A.A.A.A.A.A.A.A.A.A.A.A.A.A.a                 a.a.a.a.a.a.a.a.c.A.A.A.Z.a.a.a.a.< < < < K P P P ) ` ` ` ) P P P P Z.Z.x.x.< < < < ` A.A.A.A.A.A.A.A.A.A.A.A.A.A.A.A.,               ",
"            p.a.a.a.a.a.a.a.l.A.A.A.A.a.a.a.a.h < < < j k k k n M M M M M M M M x.Z.Z.Z.H < < < D A.A.A.A.A.A.A.A.A.A.A.A.A.A.A.A.(                 p.a.a.a.a.a.a.a.l.A.A.A.S.a.a.a.a.< < < < h h h h h h h h h K K K K K K K K 3 < < < H A.A.A.A.A.A.A.A.A.A.A.A.:.-.-.-.[                 +.+.+.+.+.+.+.+.7.A.A.A.V.a.a.a.a.< < < < n M M M n k k k M C.B.B.B.P P P P < < < < ( A.A.A.A.A.A.A.A.A.A.A.A.A.A.A.A.a                 a.a.a.a.a.a.a.a.c.A.A.A.Z.a.a.a.a.< < < < K P P P ) ` ` ` ) P P P P Z.Z.Z.Z.1 < < < ` A.A.A.A.A.A.A.A.A.A.A.A.A.A.A.A.,               ",
"            p.a.a.a.a.a.a.a.l.A.A.A.A.a.a.a.a.< < < < j k k k n M M M M M M M M x.Z.Z.Z.H < < < D A.A.A.A.A.A.A.A.A.A.A.A.A.A.A.A.(                 p.a.a.a.a.a.a.a.l.A.A.A.S.a.a.a.a.< < < < h h h h h h h h h K K K K K K K K 3 < < < H A.A.A.A.A.A.A.A.A.A.A.A.:.-.-.-.[                 +.+.+.+.+.+.+.+.7.A.A.A.Z.a.a.a.a.< < < < n M M M n k k k M C.C.B.B.P P P P < < < < ( A.A.A.A.A.A.A.A.A.A.A.A.A.A.A.A.a                 a.a.a.a.a.a.a.a.c.A.A.A.Z.a.a.a.a.< < < < K P P P ) ` ` ` ) P P P P Z.Z.Z.Z.1 < < < ` A.A.A.A.A.A.A.A.A.A.A.A.A.A.A.A.,               ",
"    N.N.N.N.V.Z.Z.Z.Z.Z.Z.Z.C.A A A C h h h h < < < < = * * * = n n n n z.z.z.z.( P / / l < < < 3 K K K K N.N.N.N.A.A.A.A.L.P.P.P.L.D.D.D.D.N.N.N.N.V.Z.Z.Z.Z.Z.Z.Z.z.A A A C h h h h < < < < D F F F D h h h h K K K K K K K K 3 < < < l K K K K N.N.N.N.A.A.A.A.5.1X1X1X<X-.-.-.:.N.N.N.N.=.=.=.=.0.V.V.V.` A A A C h h h h < < < < M M M M ! x.x.x.z./ / / / K K K K < < < < D K K K / N.N.N.N.A.A.A.A.L.P.P.P.J.D.D.D.Z.N.N.N.B.Z.Z.Z.Z.Z.Z.Z.Z.~ A A A V h h h h < < < < K K K K K P P P P K K K K P P P P < < < < F K K K ( N.N.N.N.A.A.A.A.P.P.P.P.J.D.D.D.Q       ",
"    A.A.A.A.A.A.A.A.A.A.A.A.C.V V V V < < < < < < < < * * * * = k k k n C.B.B.B.P P P P l < < < 3 J J J J N.N.N.N.A.A.A.A.L.P.P.P.P.P.P.P.P.A.A.A.A.A.A.A.A.A.A.A.A.z.V V V V < < < < < < < < D F F F D h h h h K K K K K K K K 3 < < < l J J J K N.N.N.N.A.A.A.A.3X1X1X1X1X1X1X1X2XA.A.A.A.-.-.-.-.0.A.A.A.` V V V V < < < < < < < < n M M M ~ Z.Z.Z.x.P P P P K K K K < < < < l J J J K N.N.N.N.A.A.A.A.P.P.P.P.P.P.P.P.L.A.A.A.A.A.A.A.A.A.A.A.A.~ V V V n < < < < < < < < K K K K K K K K K K K K K K K K K < < < < D J J J / N.N.N.N.A.A.A.A.P.P.P.P.P.P.P.P.)       ",
"    A.A.A.A.A.A.A.A.A.A.A.A.C.V V V V < < < < < < < < * * * * = k k k n C.x.B.B.P P P P l < < < 3 J J J J N.N.N.N.A.A.A.A.L.P.P.P.P.P.P.P.P.A.A.A.A.A.A.A.A.A.A.A.A.z.V V V V < < < < < < < < D F F F D h h h h K K K K K K K K 3 < < < l J J J K N.N.N.N.A.A.A.A.3X1X1X1X1X1X1X1X2XA.A.A.A.-.-.-.-.0.A.A.A.` V V V V < < < < < < < < n M M M ~ Z.Z.Z.x.P P P P K K K K < < < < l J J J K N.N.N.N.A.A.A.A.P.P.P.P.P.P.P.P.L.A.A.A.A.A.A.A.A.A.A.A.A.~ V V V n < < < < < < < < K K K K K K K K K K K K K K K K K < < < < D J J J / N.N.N.N.A.A.A.A.P.P.P.P.P.P.P.P.)       ",
"    A.A.A.A.A.A.A.A.A.A.A.A.C.V V V V < < < < < < < < * * * * = k k k n x.x.C.C.P P P P l < < < 3 J J J J N.N.N.N.A.A.A.A.L.P.P.P.P.P.P.P.P.A.A.A.A.A.A.A.A.A.A.A.A.z.V V V V < < < < < < < < D F F F D h h h h K K K K K K K K 3 < < < l J J J K N.N.N.N.A.A.A.A.3X1X1X1X1X1X1X1X2XA.A.A.A.-.-.-.-.0.A.A.A.` V V V V < < < < < < < < n M M M ~ Z.Z.Z.x.P P P P K K K K < < < < l J J J K N.N.N.N.A.A.A.A.P.P.P.P.P.P.P.P.L.A.A.A.A.A.A.A.A.A.A.A.A.~ V V V n < < < < < < < < K K K K K K K K K K K K K K K K K < < < < D J J J / N.N.N.N.A.A.A.A.P.P.P.P.P.P.P.P.)       ",
"    A.A.A.A.V.V.V.V.9.' ' ' ( V V V V < < < < 3 l l l > * * * = n n n M 9.9.9.9.P K K K F D D D m l l l l ( ( ( ( ' ' ' ' V.G.G.G.G.Z.Z.Z.Z.A.A.A.A.V.V.V.V.] ' ' ' Q V V V V < < < < l l l l F J J J F m m m D K K K K K K K K D D D D m l l l D ( ( ( ( ' ' ' ' w.w.w.w.5.-.-.-.:.A.A.A.A.&.=.=.=.8.' ' ' ! V V V V < < < < 1 1 1 1 k k k k R z.z.z.9.P P P P K K K K J J J J D l l l D ( ( ( ( ' ' ' ' G.G.G.G.G.Z.Z.Z.Z.A.A.A.A.V.V.V.V.' ' ' ' R V V V n < < < < D D D D K K K K K K K K K K K K K K K K K D D D D l l l l F ( ( ( ( ' ' ' ' G.G.G.G.Z.Z.Z.Z.P       ",
"    A.A.A.A.N.N.N.N.( J J J J V V V V < < < < D F F F , * * * = M M M M ` ` ` ` P K K K K K K K F < < < < J J J J J J J J 9.A.A.A.V.N.N.N.N.A.A.A.A.N.N.N.N./ J J J H V V V V < < < < F F F F K K K K K F F F F K K K K K K K K K K K K D < < < < J J J J J J J J B.A.A.A.7.&.&.&.;.A.A.A.A.&.&.&.&.L J J J H V V V V < < < < 2 2 2 2 j g g g H ` ` ` ) K K K K K K K K ) ` ` ` D < < < < J J J J J J J J V.A.A.A.B.N.N.N.N.A.A.A.A.N.N.N.N.K J J J C V V V n < < < < K K K K K K K K K K K K K K K K K K K K K K K K K l < < < 3 J J J J J J J J V.A.A.A.B.N.N.N.J       ",
"    A.A.A.A.N.N.N.N.( J J J J V V V V < < < < D F F F , * * * = M M M M ` ` ` ` P K K K K K K K F < < < < J J J J J J J J 9.A.A.A.V.N.N.N.N.A.A.A.A.N.N.N.N./ J J J H V V V V < < < < F F F F K K K K K F F F F K K K K K K K K K K K K D < < < < J J J J J J J J B.A.A.A.7.&.&.&.;.A.A.A.A.&.&.&.&.L J J J H V V V V < < < < 2 2 2 2 j g g g H ` ` ` ) K K K K K K K K ) ` ` ` D < < < < J J J J J J J J V.A.A.A.B.N.N.N.N.A.A.A.A.N.N.N.N.K J J J C V V V n < < < < K K K K K K K K K K K K K K K K K K K K K K K K K l < < < 3 J J J J J J J J V.A.A.A.B.N.N.N.J       ",
"    A.A.A.A.N.N.N.N.( J J J J V V V V < < < < D F F F , * * * = M M M M ` ` ` ` K K K K K K K K F < < < < J J J J J J J J 9.A.A.A.V.N.N.N.N.A.A.A.A.N.N.N.N./ J J J H V V V V < < < < F F F F K K K K K F F F F K K K K K K K K K K K K D < < < < J J J J J J J J B.A.A.A.7.&.&.&.;.A.A.A.A.&.&.&.&.L J J J H V V V B < < < < 2 2 2 2 j g g g H ` ` ` ) K K K K K K K K ) ` ` ` D < < < < J J J J J J J J V.A.A.A.B.N.N.N.N.A.A.A.A.N.N.N.N.K J J J C V V V n < < < < K K K K K K K K K K K K K K K K K K K K K K K K K l < < < 3 J J J J J J J J V.A.A.A.B.N.N.N.J       ",
"    9.N.N.N.' ) ) ) P J J J J A A A A < < < < D F F F 3 * * * < M M M M ` ` ` ` P K K K K K K K F < < < < K K K K J J J J ' N.N.N.9.) ) ) ' N.N.N.N.' ) ) ) K J J J H A A A A < < < < F J J J K K K K K J J J J K K K K K K K K K K K K D < < < < K K K K J J J J ] N.N.N.6.| | | o.9.9.9.9.| | | | f F F F H A A A V < < < < , , , , < g g g D ( ( ( ( K K K K K K K K ) ) ) ) D < < < 1 K K K K J J J J 9.N.N.N.] ) ) ) ] N.N.N.9.) ) ) ) J J J J U A A A V < < < < K K K K K K K K K K K K K K K K K K K K K K K K K 3 < < < l K K K K J J J J 9.N.N.N.] ) ) ) D       ",
"    < < < < < < < < m J J J K a.a.a.a.< < < < D F F F a 2 2 2 3 k k k n ` ` ` ` P P P P K K K K F < < < < N.N.N.N.K J J J 3 < < < < < < < < < < < < < < < < D J J J ! a.a.a.p.< < < < K K K K J F F F J K K K K K K K K K K K K J F F F m < < < < N.N.N.N.J J J J 1 < < < - @ @ @ @ @ @ @ @ @ @ @ @ 9 [ [ [ ,.a.a.a.p.< < < < * O O * ; g g g h h h h h K K K K F F F F K K K K l < < < l N.N.N.9.J J J J < < < < < < < < < < < < < < < < < F J J J u.a.a.a.t.< < < < K K K K K K K K K K K K K K K K K K K K K P P P P l < < < D N.N.N.9.J J J J < < < < < < < < *       ",
"    < < < < < < < < m J J J K a.a.a.a.< < < < D F F F a 2 2 2 3 k k k n ` ` ` ` P P P P K K K K F < < < < N.N.N.N.K J J J 3 < < < < < < < < < < < < < < < < D J J J ! a.a.a.p.< < < < K K K K J F F F J K K K K K K K K K K K K J F F F m < < < < N.N.N.N.J J J J 1 < < < - @ @ @ @ @ @ @ @ @ @ @ @ 9 [ [ [ N a.a.a.p.< < < < * O * * ; g g g h h h h h K K K K F F F F K K K K l < < < l N.N.N.9.J J J J < < < < < < < < < < < < < < < < < F J J J u.a.a.a.t.< < < < K K K K K K K K K K K K K K K K K K K K K P P P P l < < < D N.N.N.9.J J J J < < < < < < < < *       ",
"    < < < < < < < < m J J J K a.a.a.a.< < < < D F F F a 2 2 2 3 k k k n ` ` ` ` P P P P K K K K F < < < < N.N.N.N.K J J J 3 < < < < < < < < < < < < < < < < D J J J ! a.a.a.p.< < < < K K K K J F F F J K K K K K K K K K K K K J F F F m < < < < N.N.N.N.J J J J 1 < < < - @ @ @ @ @ @ @ @ @ @ @ @ 9 [ [ [ N a.a.a.p.< < < < * O O O ; g g g h h h h h K K K K F F F F K K K K l < < < l N.N.N.9.J J J J < < < < < < < < < < < < < < < < < F J J J u.a.a.a.t.< < < < K K K K K K K K K K K K K K K K K K K K K P P P P l < < < D N.N.N.9.J J J J < < < < < < < < *       ",
"    < < < < < < < < D J J J K a.a.a.a.< < < < D F F F a 2 2 2 3 k k k n ` ` ` ` P P P P K K K K F < < < < 9.9.9.9.K J J J l < < < < < < < < < < < < < < < < D J J J ! a.a.a.p.< < < < K K K K J F F F J K K K K K K K K K K K K J F F F m < < < < 9.9.9.9.J J J J 3 < < < - 4 4 4 4 4 @ 4 4 4 4 4 4 9 [ [ [ N a.a.a.p.< < < < * * * * ; g g g h h h h h K K K K F F F F K K K K l < < < l 9.9.9.9.J J J J < < < < < < < < < < < < < < < < < F J J J u.a.a.a.t.< < < < K K K K K K K K K K K K K K K K K K K K K P P P P l < < < D 9.9.9.9.J J J J < < < < < < < < *       ",
"    A.A.A.A.A.A.A.A.c.a.a.a.p.V V V V < < < < J K K K 3 * * * = k k k k F F F F K K K K K K K K F < < < < J J J J 9.N.N.N.V.A.A.A.A.A.A.A.A.A.A.A.A.A.A.A.A.l.a.a.a.y.V V V V < < < < K K K K J F F F J K K K K K K K K K K K K J F F F m < < < < J J J J 9.N.N.N.V.A.A.A.w.-.-.-.-.-.-.-.-.-.-.-.-.k.a.a.a.t.V V V V < < < < * * * * k k k k j h h h h F F F F K K K K J F F F 3 < < < < J J J J N.N.N.N.A.A.A.A.A.A.A.A.A.A.A.A.A.A.A.A.A.a.a.a.a.t.V V V B < < < < F F F F F F F F K K K K K K K K K F F F F K K K K l < < < 3 J J J K N.N.N.N.A.A.A.A.A.A.A.A.P       ",
"    A.A.A.A.A.A.A.A.c.a.a.a.p.V V V V < < < < J K K K 3 * * * = k k k k F F F F K K K K K K K K F < < < < J J J J 9.N.N.N.V.A.A.A.A.A.A.A.A.A.A.A.A.A.A.A.A.l.a.a.a.y.V V V V < < < < K K K K J F F F J K K K K K K K K K K K K J F F F m < < < < J J J J 9.N.N.N.V.A.A.A.w.-.-.-.-.-.-.-.-.-.-.-.-.k.a.a.a.t.V V V V < < < < * * * * k k k k j h h h h F F F F K K K K J F F F 3 < < < < J J J J N.N.N.N.A.A.A.A.A.A.A.A.A.A.A.A.A.A.A.A.A.a.a.a.a.t.V V V n < < < < F F F F F F F F K K K K K K K K K F F J F K K K K l < < < 3 J J J K N.N.N.N.A.A.A.A.A.A.A.A.P       ",
"    A.A.A.A.A.A.A.A.c.a.a.a.p.V V V V < < < < J K K K 3 * * * = k k k k F F F F K K K K K K K K F < < < < J J J J 9.N.N.N.V.A.A.A.A.A.A.A.A.A.A.A.A.A.A.A.A.l.a.a.a.y.V V V V < < < < K K K K J F F F J K K K K K K K K K K K K J F F F a < < < < J J J J 9.N.N.N.V.A.A.A.w.-.-.-.-.-.-.-.-.-.-.-.-.k.a.a.a.t.V V V V < < < < * * * * k k k k j h h h h F F F F K K K K J F F F 3 < < < < J J J J N.N.N.N.A.A.A.A.A.A.A.A.A.A.A.A.A.A.A.A.A.a.a.a.a.t.V V V n < < < < F F F F F F F F K K K K K K K K K F F F F K K K K l < < < 3 J J J K N.N.N.N.A.A.A.A.A.A.A.A.P       ",
"    A.A.A.A.A.A.A.A.c.a.a.s.p.V V V V < < < < J K K K 3 * * * = k k k k F F F F K K K K K K K K F < < < < J J J J 9.N.N.N.V.A.A.A.A.A.A.A.A.A.A.A.A.A.A.A.A.l.a.a.a.y.V V V V < < < < K K K K J F F F J K K K K K K K K K K K K J F F F m < < < < J J J J 9.N.N.N.V.A.A.A.w.-.-.-.-.-.-.-.-.-.-.-.-.k.a.a.a.t.V V V V < < < < * O * * k k k k j h h h h F F F F K K K K J F F F 3 < < < < J J J J N.N.N.N.A.A.A.A.A.A.A.A.A.A.A.A.A.A.A.A.A.a.a.a.a.t.V V V n < < < < F F F F F F F F K K K K K K K K K J F F F K K K K l < < < 3 J J J K N.N.N.N.A.A.A.A.A.A.A.A.P       ",
"    N.N.N.N.N.N.N.N.( K K K G < < < < D D D D h h h h < * * * = k k k k h h h h F F F F K K K K J h h h h < < < < J K K K ' N.N.N.N.N.N.N.N.N.N.N.N.N.N.N.N.( K K K D < < < < D D D D K K K K K K K K K K K K K K K K K s s s s s s s s s r r r q - - - - K K K K #.%.%.%.%.&.&.&.&.&.&.&.&.&.&.&.&. . . . .q < < < < h h h h * * * * ; j j j h h h h h h h h h F F F F K K K K J D D D D < < < < K K K K 9.N.N.N.N.N.N.N.N.N.N.N.N.N.N.N.N.K K K K l < < < 1 D D D D F F F F 2 3 3 3 F K K K K K K K K h h h h F F F F J J J J D < < < < K K K K N.N.N.N.N.N.N.N.J       ",
"    N.N.N.N.N.N.N.N.( J J J F < < < < F F F F h h h h < * * * = k k k k h h h h F F F F K K K K J h h h h < < < < F J J J ' N.N.N.N.N.N.N.N.N.N.N.N.N.N.N.N./ J J J D < < < < F F F F K K K K K K K K K K K K K K K K K r r r r s d d d s r r r r $ $ $ % J J J J +.&.&.&.&.&.&.&.&.&.&.&.&.&.&.&.&.[ [ [ [ q < < < < h h h h * * * * ; g g g h h h h h h h h h F F F F K K K K J F J J D < < < < J J J J 9.N.N.N.N.N.N.N.N.N.N.N.N.N.N.N.N.K J J J l < < < 1 F F F F F F F F 3 2 2 2 D K K K K K K K K h h h h F F F F K K K K F < < < < J J J J 9.N.N.N.N.N.N.N.J       ",
"    N.N.N.N.N.N.N.N.( J J J F < < < 1 J J F F h h h h < * * * = k k k k h h h h F F F F K K K K J h h h h < < < < F J J J ' N.N.N.N.N.N.N.N.N.N.N.N.N.N.N.N./ J J J D < < < < F F F F K K K K K K K K K K K K K K K K K r r r r s d d d s r r r r $ $ $ % J J J J +.&.&.&.&.&.&.&.&.&.&.&.&.&.&.&.&.[ [ [ [ q < < < < h h h h * * * * ; g g g h h h h h h h h h F F F F K K K K J F J J D < < < < J J J J 9.N.N.N.N.N.N.N.N.N.N.N.N.N.N.N.N.K J J J l < < < 1 F F F F F F F F 3 2 2 2 D K K K K K K K K h h h h F F F F K K K K F < < < < J J J J 9.N.N.N.N.N.N.N.J       ",
"    N.N.N.N.N.N.N.N.( J J J F < < < < F F F F h h h h < * * * = k k k k h h h h F F F F K K K K J h h h h < < < < F J J J ' N.N.N.N.N.N.N.N.N.N.N.N.N.N.N.N./ J J J D < < < < F F F F K K K K K K K K K K K K K K K K K r r r r s d d d s r r r r $ $ $ $ J J J J +.&.&.&.&.&.&.&.&.&.&.&.&.&.&.&.&.[ [ [ [ q < < < < h h h h * * * * ; g g g j h h h h h h h h F F F F K K K K J F F F D < < < < J J J J 9.N.N.N.N.N.N.N.N.N.N.N.N.N.N.N.N.K J J J l < < < 1 F F F F F F F F 3 2 2 2 D K K K K K K K K h h h h F F F F K K K K F < < < < J J J J 9.N.N.N.N.N.N.N.J       ",
"    J J J J J J J J D S S S 3 * * * * , , , , * * * * * ; ; ; < n n n n j j j j , , , , 3 S S S 3 < < < < , 1 1 1 a S S S F J J J J J J J J J J J J J J J J D S S S 3 * * * = , , , , > > > > , 3 3 3 , > > > > > > > > # # # # 6 6 6 6 # # # # # o o o o p p p p 8 8 8 8 9 [ [ [ [ [ [ [ [ [ [ [ [ 8 8 8 8 6 % % % % - = = = $ $ $ $ j k k k j h h h h < < ; ; , , , , 3 3 3 3 3 a 3 a 3 1 1 1 1 S S S S D D D D F J J J J J J J J J J J J S S S S 3 1 1 1 1 , , , , a a a a > > > > 1 3 3 3 , > > > > < < < < 1 , , , 3 S S S 3 * * * = S S S S J J J J J J J J 2       ",
"    2 2 2 2 2 2 2 2 2 2 2 2 , * * * * * * * *         * g g g j M M M M k k k k * * * * , 2 2 2 , * * * * 2 2 2 2 2 2 2 2 2 2 2 2 2 2 2 2 2 2 2 2 2 2 2 2 2 2 2 2 2 , * * * * * * * *         O * * * X                 o o o o o o o o o o o o o o o . o 4 5 5 5 + + + + @ 5 5 5 5 5 5 5 5 5 5 5 5 5 5 5 5 @ + + + + + + + + 4 4 4 4 n k k k j g g g ; * * * * * * * * * * * * > 2 2 2 2 2 2 2 2 2 2 2 2 * * * * > 2 2 2 2 2 2 2 2 2 2 2 2 2 2 2 2 2 2 2 2 , * * * * 2 2 2 2 * * * * * * * * O         O O * * * * * * , 2 2 2 , * * * * 2 2 2 2 2 2 2 2 2 2 2 2 :       ",
"    2 2 2 2 2 2 2 2 2 2 2 2 , * * * * * * * *         * g g g j M M M M k k k k * * * * , 2 2 2 , * * * * 2 2 2 2 2 2 2 2 2 2 2 2 2 2 2 2 2 2 2 2 2 2 2 2 2 2 2 2 2 , * * * * * * * *         O * * * X                 o o o o o o o o o o o o o o o o o 4 5 5 5 + + + + @ 5 5 5 5 5 5 5 5 5 5 5 5 5 5 5 5 @ + + + + + + + + 4 4 4 4 n k k k j g g g ; * * * * * * * * * * * * > 2 2 2 2 2 2 2 2 2 2 2 2 * * * * > 2 2 2 2 2 2 2 2 2 2 2 2 2 2 2 2 2 2 2 2 , * * * * 2 2 2 2 * O * * * * * * O         * * * * * * * * , 2 2 2 , * * * * 2 2 2 2 2 2 2 2 2 2 2 2 :       ",
"    2 2 2 2 2 2 2 2 2 2 2 2 , * * * * * * * *         * g g g j M M M M k k k k * * * * , 2 2 2 , * * * * 2 2 2 2 2 2 2 2 2 2 2 2 2 2 2 2 2 2 2 2 2 2 2 2 2 2 2 2 2 , * * * * * * * *         O * * * X                 o o o o o o o o o o o o o o o o o 4 5 5 5 + + + + @ 5 5 5 5 5 5 5 5 5 5 5 5 5 5 5 5 @ + + + + + + + + 4 4 4 4 n k k k j g g g ; * * * * * * * * * * * * > 2 2 2 2 2 2 2 2 2 2 2 2 * * * * > 2 2 2 2 2 2 2 2 2 2 2 2 2 2 2 2 2 2 2 2 , * * * * 2 2 2 2 * * * * * * * * O         * * * * * * * * , 2 2 2 , * * * * 2 2 2 2 2 2 2 2 2 2 2 2 :       ",
"    l l l l 3 3 3 3 3 3 3 3 3 < < < < ; ; ; ; O O O O ; j j j k C C C C V V V V < < < < l m m m l < < < < l l l l m m m m m l l l l 3 3 3 3 3 3 3 3 2 2 2 2 2 2 2 2 , - - - - - - - = o . . . % % % % o . . . . + + + + @ @ @ @ 6 6 6 6 @ @ @ @ @ @ @ @ @ 8 8 8 8 4 4 4 4 4 8 8 8 8 7 7 7 7 7 7 7 7 7 7 7 7 4 @ @ @ @ @ @ @ @ 5 5 5 5 w b b b i i i i 0 % % % % % % % % ; < < < 1 p p p p 3 3 3 3 l l l l ; ; ; ; 1 l l l l 3 3 3 3 l l l l l l l l l l l l 3 < < < < l l l l ; ; ; ; < < < < = O O O O ; ; ; ; ; ; ; ; 1 3 3 3 1 < < < < l l l l l l l l l l l l >       ",
"    t.t.t.t.V V V V V V V V C t.t.t.t.V V V V t.t.t.t.A V V V A a.a.a.a.a.a.a.a.a.a.a.a.a.a.a.a.a.a.a.a.a.t.t.t.t.a.a.a.a.y.t.t.t.T V V V V V V V V w y y y y y y y y v v v v y y y y v v v v e 9 9 9 9 9 9 9 9 +.+.+.+.} { } } +.+.+.+.o.} } } } } } { { } } } } { { { { { { { { { 9 9 9 9 9 9 9 9 9 9 9 9 9 9 9 9 9 9 9 9 9 9 9 9 9 { } } } { { { { { 9 9 9 9 9 9 9 9 W t.t.t.,.{ { { ..V V V V t.t.t.t.V V V V A t.t.t.t.V V V V t.t.t.t.t.t.t.t.t.t.t.t.t.t.t.t.t.t.t.t.t.V V V V T t.t.t.W V V V V V V V V V V V V V V V V A t.t.t.t.t.t.t.t.t.t.t.t.t.t.t.t.n       ",
"    t.t.t.t.V V V V V V V V C t.t.t.t.V V V V t.t.t.t.A V V V A a.a.a.a.a.a.a.a.a.a.a.a.a.a.a.a.a.a.a.a.a.t.t.t.t.a.a.a.a.y.t.t.t.T V V V V V V V V w y y y y y y y y v v v v y y y y v v v v e 9 9 9 9 9 9 9 9 +.+.+.+.} } } } +.+.+.+.o.} } } } } } } { } } } } { { { { { { { { { 9 9 9 9 9 9 9 9 9 9 9 9 9 9 9 9 9 9 9 9 9 9 9 9 9 { } } } { { { { { 9 9 9 9 9 9 9 9 W t.t.t.,.{ { { ..V V V V t.t.t.t.V V V V A t.t.t.t.V V V V t.t.t.t.t.t.t.t.t.t.t.t.t.t.t.t.t.t.t.t.t.V V V V T t.t.t.W V V V V V V V V V V V V V V V V A t.t.t.t.t.t.t.t.t.t.t.t.t.t.t.t.n       ",
"    t.t.t.t.V V V V V V V V C t.t.t.t.V V V V t.t.t.t.A V V V A a.a.a.a.a.a.a.a.a.a.a.a.a.a.a.a.a.a.a.a.a.t.t.t.t.a.a.a.a.y.t.t.t.T V V V V V V V V w y y y y y y y y v v v v y w y y v v v v e 9 9 9 9 9 9 9 9 +.+.+.+.} { { { +.+.+.+.o.} } } } { { { { } } } } { { { { { { { { { 9 9 9 9 9 9 9 9 9 9 9 9 9 9 9 9 9 9 9 9 9 9 9 9 9 { } } } { { { { { 9 9 9 9 9 9 9 9 W t.t.t.,.{ { { ..V V V V t.t.t.t.V V V V A t.t.t.t.V V V V t.t.t.t.t.t.t.t.t.t.t.t.t.t.t.t.t.t.t.t.t.V V V V T t.t.t.W V V V V V V V V V V V V V V V V A t.t.t.t.t.t.t.t.t.t.t.t.t.t.t.t.n       ",
"    y.y.y.y.A V V V V V V V A y.y.y.t.V V V V t.t.t.t.A V V V A a.a.a.a.s.s.s.s.s.s.s.s.s.s.s.s.a.a.a.a.a.y.y.y.y.a.a.a.a.p.y.y.y.t.V V V V V V V V y y y y y y y y y ,.,.,.v y y y y u v v u e 9 9 9 9 9 9 9 [ +.+.+.+.O.X.X.X.+.*.*.*.+.O.O.O.O.O.O.O.O.} } } } O.O.O.O.O.O.O.O.X.[ [ [ [ e e e e e e e e e 9 9 9 9 9 9 9 9 9 9 9 9 X.O.O.O.O.X.X.X.X.9 9 9 9 e e e e W y.y.y.,.O.O.O...A A A A y.y.y.y.A V V V W y.y.y.t.V V V C t.t.t.t.t.t.t.t.y.y.y.y.y.y.y.y.y.t.y.y.y.A V V V W t.t.t.W V V V V V V V V V V V V V V V V A p.p.p.y.y.y.y.y.y.y.y.y.y.y.y.y.n       ",
"    P.P.P.P.P.P.P.P.P.P.P.P.P.P.P.P.P.P.P.P.P.S.A.A.A.B.N.N.N.N.A.A.A.S.].].].].].].].].].].].].!.G.G.G.G.P.P.P.P.P.P.P.P.P.P.P.P.P.P.P.P.P.P.P.P.P.P.P.P.P.P.P.P.P.L.A.A.A.A.N.N.N.N.e 9 9 9 b V V V N +.+.+.+.{ { { { S.Y.Y.Y.0XtXtXtXtXtXtXtXtX].].].].4X5X5X5X(.].].].].].].].(.6X6X6X6X7X7X7X7X^.P.P.P.L.G.G.G.G.A.A.A.A.A.A.A.A.P.P.P.P.G.A.A.A.S.P.P.P.P.P.P.P.P.P.P.P.P.W.!.!.!.!.!.!.!.!.!.!.!.!.T.Y.Y.Y.Q.!.!.!.Q.Y.Y.Y.Y.Y.Y.Y.Y.N.N.N.N.).&X&X&X&X&X&X&X&XP.P.P.P.S.A.A.A.B.N.N.N.` Y Y Y Y V V V V t.t.t.t.A V V V b.tXtXtXtX@X@X@X@X=X=X=X=X=X=X=X=XD.      ",
"    P.P.P.P.P.P.P.P.P.P.P.P.P.P.P.P.P.P.P.P.P.S.A.A.A.B.N.N.N.N.A.A.A.S.].].].].].].].].].].].].!.G.G.G.G.P.P.P.P.P.P.P.P.P.P.P.P.P.P.P.P.P.P.P.P.P.P.P.P.P.P.P.P.P.L.A.A.A.A.N.N.N.N.e 9 9 9 b V V V N +.+.+.+.{ { { { S.Y.Y.Y.0XtXtXtXtXtXtXtXtX].].].].4X5X5X5X(.].].].].].].].(.6X6X6X6X7X7X7X7X^.P.P.P.L.G.G.G.G.A.A.A.A.A.A.A.A.P.P.P.P.G.A.A.A.S.P.P.P.P.P.P.P.P.P.P.P.P.W.!.!.!.!.!.!.!.!.!.!.!.!.T.Y.Y.Y.Q.!.!.!.Q.Y.Y.Y.Y.Y.Y.Y.Y.N.N.N.N.).&X&X&X&X&X&X&X&XP.P.P.P.S.A.A.A.B.N.N.N.` Y Y Y Y V V V V t.t.t.t.A V V V b.tXtXtXtX@X@X@X@X=X=X=X=X=X=X=X=XD.      ",
"    P.P.P.P.P.P.P.P.P.P.P.P.P.P.P.P.P.P.P.P.P.S.A.A.A.B.N.N.N.N.A.A.A.S.].].].].].].].].].].].].!.G.G.G.G.P.P.P.P.P.P.P.P.P.P.P.P.P.P.P.P.P.P.P.P.P.P.P.P.P.P.P.P.P.L.A.A.A.A.N.N.N.N.e 9 9 9 b V V V N +.+.+.+.{ { { { S.Y.Y.Y.0XtXtXtXtXtXtXtXtX].].].].4X5X5X5X(.].].].].].].].(.6X6X6X6X7X7X7X7X^.P.P.P.L.G.G.G.G.A.A.A.A.A.A.A.A.P.P.P.P.G.A.A.A.S.P.P.P.P.P.P.P.P.P.P.P.P.W.!.!.!.!.!.!.!.!.!.!.!.!.T.Y.Y.Y.Q.!.!.!.Q.Y.Y.Y.Y.Y.Y.Y.Y.N.N.N.N.).&X&X&X&X&X&X&X&XP.P.P.P.S.A.A.A.V.N.N.N.` Y Y Y Y V V V V t.t.t.t.A V V V b.tXtXtXtX@X@X@X@X=X=X=X=X=X=X=X=XD.      ",
"    P.P.P.P.P.P.P.P.P.P.P.P.P.P.P.P.P.P.P.P.P.S.A.A.A.B.N.N.N.N.A.A.A.S.].].].].].].].].].].].].!.G.G.G.G.P.P.P.P.P.P.P.P.P.P.P.P.P.P.P.P.P.P.P.P.P.P.P.P.P.P.P.P.P.L.A.A.A.A.N.N.N.N.e 9 9 9 b V V V N +.+.+.+.{ { { { S.Y.Y.Y.0XtXtXtXtXtXtXtXtX].].].].4X5X5X5X(.].].].].].].].(.6X6X6X6X7X7X7X7X^.P.P.P.L.G.G.G.G.A.A.A.A.A.A.A.A.P.P.P.P.G.A.A.A.S.P.P.P.P.P.P.P.P.P.P.P.P.W.!.!.!.!.!.!.!.!.!.!.!.!.T.Y.Y.Y.Q.!.!.!.Q.Y.Y.Y.Y.Y.Y.Y.Y.N.N.N.N.).&X&X&X&X&X&X&X&XP.P.P.P.S.A.A.A.B.N.N.N.` Y Y Y Y V V V V t.t.t.t.A V V V b.tXtXtXtX@X@X@X@X=X=X=X=X=X=X=X=XD.      ",
"    P.P.P.P.G.G.G.G.S.S.S.S.S.S.S.S.S.G.G.G.G.G.G.G.G.S.A.A.A.V.N.N.N.N.S.S.S.S.S.S.S.S.S.S.S.S.S.A.A.A.S.S.S.S.S.S.S.S.S.T.E.E.E.R.G.G.G.G.S.S.S.S.S.S.S.S.S.S.S.S.S.G.G.G.S.A.A.A.A.9.9.9.9.m < < < q } } } O.q.q.q.q.@X%X%X%XW.R.R.R.R.G.G.G.G.S.S.S.S.-.-.-.-.~.P.P.P.P.P.P.P.^.2X2X2X2Xn.m.m.m.G.G.G.G.S.A.A.A.A.A.A.A.A.A.A.A.A.S.S.S.S.f.T T T r.S.S.S.S.S.S.S.S.G.G.G.G.].&X&X&X&X&X&X&X&XP.P.P.P.P.P.P.P.[.&X&X&X&X&X&X&X&X&X&X&X&X&XoXoXoX!.T.T.T.G.G.G.G.G.S.S.S.S.N.N.N.N.V.A.A.A.V.9.9.9.] < < < < V V V V {.wXwXwX=XR.R.R.R.G.G.G.G.G.G.G.G.G.G.G.G.(       ",
"    P.P.P.P.G.G.G.G.S.A.A.A.A.A.A.A.A.G.G.G.G.G.G.G.G.S.A.A.A.V.N.N.N.N.A.A.A.A.A.A.A.A.A.A.A.A.A.A.A.A.A.A.A.A.A.A.A.A.A.T.E.E.E.R.G.G.G.G.A.A.A.A.A.A.A.A.A.A.A.A.S.G.G.G.G.A.A.A.A.N.N.N.N.m < < < q { { { O.q.q.q.q.=X=X=X=XW.G.G.G.S.A.A.A.A.A.A.A.A.=.-.-.-.m.P.P.P.P.P.P.P.F.1X1X1X1Xn.n.n.n.G.G.G.G.S.A.A.A.A.A.A.A.A.A.A.A.A.A.A.A.A.f.Y Y Y T A.A.A.A.A.A.A.A.G.G.G.G.].&X&X&X&X&X&X&X&XP.P.P.P.P.P.P.P.[.&X&X&X&X&X&X&X&X&X&X&X&X&X&X&X&X!.G.G.G.S.A.A.A.A.A.A.A.A.N.N.N.N.V.A.A.A.V.N.N.N.9.< < < < V V V V $XtXtXtX=XG.G.G.G.A.A.A.A.A.A.A.A.A.A.A.A.P       ",
"    P.P.P.P.G.G.G.G.S.A.A.A.A.A.A.A.A.G.G.G.G.G.G.G.G.S.A.A.A.V.N.N.N.N.A.A.A.A.A.A.A.A.A.A.A.A.A.A.A.A.A.A.A.A.A.A.A.A.A.T.E.E.E.R.G.G.G.G.A.A.A.A.A.A.A.A.A.A.A.A.S.G.G.G.G.A.A.A.A.N.N.N.N.m < < < q { { { O.q.q.q.q.=X=X=X=XW.G.G.G.S.A.A.A.A.A.A.A.A.=.-.-.-.m.P.P.P.P.P.P.P.F.1X1X1X1Xn.n.n.n.G.G.G.G.S.A.A.A.A.A.A.A.A.A.A.A.A.A.A.A.A.f.Y Y Y T A.A.A.A.A.A.A.A.G.G.G.G.].&X&X&X&X&X&X&X&XP.P.P.P.P.P.P.P.[.&X&X&X&X&X&X&X&X&X&X&X&X&X&X&X&X!.G.G.G.S.A.A.A.A.A.A.A.A.N.N.N.N.V.A.A.A.V.N.N.N.9.< < < < V V V V $XtXtXtX=XG.G.G.G.A.A.A.A.A.A.A.A.A.A.A.A.P       ",
"    P.P.P.P.G.G.G.G.S.A.A.A.A.A.A.A.A.G.G.G.G.G.G.G.G.S.A.A.A.V.N.N.N.N.A.A.A.A.A.A.A.A.A.A.A.A.A.A.A.A.A.A.A.A.A.A.A.A.A.T.E.E.E.R.G.G.G.G.A.A.A.A.A.A.A.A.A.A.A.A.S.G.G.G.G.A.A.A.A.N.N.N.N.m < < < q { { { O.q.q.q.q.=X=X=X=XW.G.G.G.S.A.A.A.A.A.A.A.A.=.-.-.-.m.P.P.P.P.P.P.P.~.1X1X1X1Xn.n.n.n.G.G.G.G.S.A.A.A.A.A.A.A.A.A.A.A.A.A.A.A.A.f.Y Y Y T A.A.A.A.A.A.A.A.G.G.G.G.].&X&X&X&X&X&X&X&XP.P.P.P.P.P.P.P.[.&X&X&X&X&X&X&X&X&X&X&X&X&X&X&X&X!.G.G.G.S.A.A.A.A.A.A.A.A.N.N.N.N.V.A.A.A.V.N.N.N.9.< < < < V V V V $XtXtXtX=XG.G.G.G.A.A.A.A.A.A.A.A.A.A.A.A.P       ",
"    L.L.L.L.S.S.S.S.S.A.A.A.S.S.S.S.S.G.G.G.G.S.S.S.S.S.A.A.A.A.V.V.V.V.A.A.A.A.A.A.A.A.A.A.A.A.A.A.A.A.A.A.A.A.A.T.T.T.T.T.T.T.T.G.S.S.S.S.A.A.A.A.A.A.A.A.S.S.S.S.S.S.S.S.S.A.A.A.A.V.V.V.V.K D D D f o.o.o.+.4.4.4.4.*X*X*X*XE.S.S.S.S.A.A.A.A.A.A.A.A.0.w.w.w.F.L.L.L.L.L.L.L.F.<X<X<X<XF.F.F.F.G.S.S.S.S.A.A.A.A.A.A.A.A.A.A.A.A.A.A.A.A.C.h.h.h.z.A.A.A.A.S.S.S.S.G.G.G.G.R.W.W.W.W.W.W.W.W.G.G.G.G.P.P.P.P.W.!.!.!.!.!.!.!.!.!.!.!.!.!.!.!.!.R.S.S.S.S.A.A.A.A.A.A.A.A.V.V.V.V.V.B.B.B.B.V.V.V.B.D D D D T T T T `.*X*X*X XS.S.S.S.A.A.A.A.A.A.A.A.G.L.L.L.(       ",
"    G.G.G.G.S.A.A.A.A.A.A.A.S.G.G.G.G.G.G.G.G.A.A.A.A.A.A.A.A.A.A.A.A.A.A.A.A.A.A.A.A.A.A.A.A.A.A.A.A.A.A.A.A.A.A.E.E.E.E.T.G.G.G.S.A.A.A.A.A.A.A.A.A.A.A.A.S.G.G.G.S.A.A.A.A.A.A.A.A.A.A.A.A.( J J J N +.+.+.+.4.4.4.4.&X&X&X&XR.A.A.A.A.A.A.A.A.A.A.A.A.G.G.G.G.G.G.G.G.G.G.G.G.F.-.-.-.-.G.G.G.G.S.A.A.A.A.A.A.A.A.A.A.A.A.A.A.A.A.A.A.A.A.A.A.A.A.A.A.A.A.A.G.G.G.G.G.G.G.G.S.A.A.A.A.A.A.A.A.A.A.A.A.P.P.P.P.L.G.G.G.G.G.G.G.G.G.G.G.G.G.G.G.G.S.A.A.A.A.A.A.A.A.A.A.A.A.A.A.A.A.B.N.N.N.B.A.A.A.V.J J J J t.t.t.t.I.].].].W.A.A.A.A.A.A.A.A.A.A.A.A.L.P.P.P.)       ",
"    G.G.G.G.S.A.A.A.A.A.A.A.S.G.G.G.G.G.G.G.G.A.A.A.A.A.A.A.A.A.A.A.A.A.A.A.A.A.A.A.A.A.A.A.A.A.A.A.A.A.A.A.A.A.A.E.E.E.E.T.G.G.G.S.A.A.A.A.A.A.A.A.A.A.A.A.S.G.G.G.S.A.A.A.A.A.A.A.A.A.A.A.A.( J J J N +.+.+.+.4.4.4.4.&X&X&X&XR.A.A.A.A.A.A.A.A.A.A.A.A.G.G.G.G.G.G.S.G.G.G.G.G.F.-.-.-.-.G.G.G.G.S.A.A.A.A.A.A.A.A.A.A.A.A.A.A.A.A.A.A.A.A.A.A.A.A.A.A.A.A.A.G.G.G.G.G.G.G.G.S.A.A.A.A.A.A.A.A.A.A.A.A.P.P.P.P.L.G.G.G.G.G.G.G.G.G.G.G.G.G.G.G.G.S.A.A.A.A.A.A.A.A.A.A.A.A.A.A.A.A.B.N.N.N.B.A.A.A.V.J J J J t.t.t.t.I.].].].W.A.A.A.A.A.A.A.A.A.A.A.A.L.P.P.P.)       ",
"    G.G.G.G.S.A.A.A.A.A.A.A.S.G.G.G.G.G.G.G.G.A.A.A.A.A.A.A.A.A.A.A.A.A.A.A.A.A.A.A.A.A.A.A.A.A.A.A.A.A.A.A.A.A.A.E.E.E.E.T.G.G.G.S.A.A.A.A.A.A.A.A.A.A.A.A.S.G.G.G.S.A.A.A.A.A.A.A.A.A.A.A.A.( J J J N +.+.+.+.4.4.4.4.&X&X&X&XR.A.A.A.A.A.A.A.A.A.A.A.A.G.G.G.G.S.S.S.G.G.G.G.G.F.-.-.-.-.G.G.G.G.S.A.A.A.A.A.A.A.A.A.A.A.A.A.A.A.A.A.A.A.A.A.A.A.A.A.A.A.A.A.G.G.G.G.G.G.G.G.S.A.A.A.A.A.A.A.A.A.A.A.A.P.P.P.P.L.G.G.G.G.G.G.G.G.G.G.G.G.G.G.G.G.S.A.A.A.A.A.A.A.A.A.A.A.A.A.A.A.A.B.N.N.N.B.A.A.A.V.J J J J t.t.t.t.I.].].].W.A.A.A.A.A.A.A.A.A.A.A.A.L.P.P.P.)       ",
"    C.C.C.C.A.A.A.A.A.V.V.V.V.S.S.S.S.S.S.S.S.A.A.A.A.A.A.A.A.A.A.A.A.A.A.A.A.A.C.C.C.C.V.V.V.V.V.V.V.V.V.A.A.A.A.T.T.T.T.G.S.S.S.G.G.G.G.S.C.C.C.C.C.C.C.C.C.C.C.C.V.V.V.V.V.A.A.A.A.V.V.V.V.K D D D f o.o.o.o.4.4.4.4.[. X X XG.A.A.A.A.A.A.A.A.A.A.A.A.G.T.T.T.Z.C.C.C.C.C.C.C.x.&.&.&.&.A.S.S.S.A.A.A.A.A.A.A.A.A.A.A.A.A.A.A.A.A.A.A.A.A.A.A.A.A.A.A.A.A.A.S.S.S.S.S.S.S.S.S.A.A.A.A.A.A.A.A.V.V.V.V.G.L.L.L.G.S.S.S.S.S.S.S.S.S.S.S.S.S.S.S.S.A.A.A.A.A.A.A.A.A.A.A.A.A.A.A.A.A.V.B.B.B.V.A.A.A.V.D D D D T W t.t.b.I.I.I.L.V.V.V.V.A.A.A.A.A.A.A.A.G.L.L.L.)       ",
"    Y Y Y Y V.A.A.A.B.N.N.N.N.A.A.A.A.A.A.A.A.A.A.A.A.A.A.A.A.A.A.A.A.A.A.A.A.A.T Y Y Y ` N.N.N.N.N.N.N.N.A.A.A.A.N.N.N.N.V.A.A.A.G.E.E.E.R.Y Y Y Y Y Y Y Y Y Y Y Y E N.N.N.N.A.A.A.A.N.N.N.N.m < < < 0 9 9 9 9 2.2.2.2.9.N.N.N.V.A.A.A.A.A.A.A.A.A.A.A.A.E.E.E.E.r.Y Y Y Y Y Y Y Y 9 9 9 9 9.N.N.N.V.A.A.A.A.A.A.A.A.A.A.A.A.A.A.A.A.A.A.A.A.A.A.A.A.A.A.A.A.A.A.A.A.A.A.A.A.A.A.A.A.A.A.A.A.A.A.N.N.N.N.N.N.N.N.V.A.A.A.V.N.N.N.N.A.A.A.A.N.N.N.N.V.A.A.A.A.A.A.A.A.A.A.A.A.A.A.A.A.A.A.A.A.A.A.A.A.V.< < < < V V V V Y Y Y Y E N.N.N.N.A.A.A.A.A.A.A.A.A.A.A.A.P       ",
"    Y Y Y Y V.A.A.A.B.N.N.N.N.A.A.A.A.A.A.A.A.A.A.A.A.A.A.A.A.A.A.A.A.A.A.A.A.A.T Y Y Y ` N.N.N.N.N.N.N.N.A.A.A.A.N.N.N.N.V.A.A.A.G.E.E.E.R.Y Y Y Y Y Y Y Y Y Y Y Y E N.N.N.N.A.A.A.A.N.N.N.N.m < < < 0 9 9 9 9 2.2.2.2.9.N.N.N.V.A.A.A.A.A.A.A.A.A.A.A.A.E.E.E.E.r.Y Y Y Y Y Y Y Y 9 9 9 9 9.N.N.N.V.A.A.A.A.A.A.A.A.A.A.A.A.A.A.A.A.A.A.A.A.A.A.A.A.A.A.A.A.A.A.A.A.A.A.A.A.A.A.A.A.A.A.A.A.A.A.N.N.N.N.N.N.N.N.V.A.A.A.V.N.N.N.N.A.A.A.A.N.N.N.N.V.A.A.A.A.A.A.A.A.A.A.A.A.A.A.A.A.A.A.A.A.A.A.A.A.V.< < < < V V V V Y Y Y Y E N.N.N.N.A.A.A.A.A.A.A.A.A.A.A.A.P       ",
"    Y Y Y Y V.A.A.A.B.N.N.N.N.A.A.A.A.A.A.A.A.A.A.A.A.A.A.A.A.A.A.A.A.A.A.A.A.A.T Y Y Y ` N.N.N.N.N.N.N.N.A.A.A.A.N.N.N.N.V.A.A.A.G.E.E.E.R.Y Y Y Y Y Y Y Y Y Y Y Y E N.N.N.N.A.A.A.A.N.N.N.N.m < < < 0 9 9 9 9 2.2.2.2.9.N.N.N.V.A.A.A.A.A.A.A.A.A.A.A.A.E.E.E.E.r.Y Y Y Y Y Y Y Y 9 9 9 9 9.N.N.N.V.A.A.A.A.A.A.A.A.A.A.A.A.A.A.A.A.A.A.A.A.A.A.A.A.A.A.A.A.A.A.A.A.A.A.A.A.A.A.A.A.A.A.A.A.A.A.N.N.N.N.N.N.N.N.V.A.A.A.V.N.N.N.N.A.A.A.A.N.N.N.N.V.A.A.A.A.A.A.A.A.A.A.A.A.A.A.A.A.A.A.A.A.A.A.A.A.V.< < < < V V V V Y Y Y Y E N.N.N.N.A.A.A.A.A.A.A.A.A.A.A.A.P       ",
"    Y Y Y Y V.A.A.A.V.N.N.N.N.A.A.A.A.A.A.A.A.A.A.A.A.A.A.A.A.A.A.A.A.A.A.A.A.A.T Y Y Y ` N.N.N.N.N.N.N.N.A.A.A.A.N.N.N.N.V.A.A.A.S.R.R.R.R.Y Y Y Y Y Y Y Y Y Y Y Y ! N.N.N.N.A.A.A.A.N.N.N.N.m < < < 0 9 9 9 e 2.2.2.2.9.N.N.N.V.A.A.A.A.A.A.A.A.A.A.A.A.R.R.R.R.r.Y Y Y Y Y Y Y Y e e e 9 9.9.9.9.V.A.A.A.A.A.A.A.A.A.A.A.A.A.A.A.A.A.A.A.A.A.A.A.A.A.A.A.A.A.A.A.A.A.A.A.A.A.A.A.A.A.A.A.A.A.A.N.N.N.N.N.N.N.N.V.A.A.A.V.N.N.N.N.A.A.A.A.N.N.N.N.V.A.A.A.A.A.A.A.A.A.A.A.A.A.A.A.A.A.A.A.A.A.A.A.A.V.< < < < V V V V Y Y Y Y ! N.N.N.N.A.A.A.A.A.S.S.S.A.V.V.V.P       ",
"    Y Y Y Y V.A.A.A.A.A.A.A.A.A.A.A.A.A.A.A.A.A.A.A.A.A.A.A.A.A.A.A.A.A.A.A.A.A.N.N.N.N.N.N.N.N.B.A.A.A.A.N.N.N.N.A.A.A.A.B.N.N.N.` Y Y Y Y N.N.N.N.Y Y Y Y z.A.A.A.A.A.A.A.A.N.N.N.N.N.N.N.N.m < < < j V V V V $.$.$.$.A.A.A.A.N.N.N.N.B.A.A.A.A.A.A.A.A.Y Y Y Y Y Y Y Y Y Y Y Y Y Y Y Y Y Y Y Y Y ] N.N.N.V.A.A.A.A.A.A.A.A.A.A.A.A.A.A.A.A.A.A.A.A.A.A.A.A.A.N.N.N.N.A.A.A.A.A.A.A.A.A.A.A.A.A.A.A.A.A.A.A.A.A.B.N.N.N.N.A.A.A.A.A.A.A.A.A.A.A.A.A.A.A.A.A.A.A.A.A.A.A.A.A.A.A.A.A.A.A.A.A.V.N.N.N.9.< < < < t.t.t.t.` N.N.N.B.A.A.A.A.A.A.A.A.E.E.E.E.d.Y Y Y h       ",
"    Y Y Y Y V.A.A.A.A.A.A.A.A.A.A.A.A.A.A.A.A.A.A.A.A.A.A.A.A.A.A.A.A.A.A.A.A.A.N.N.N.N.N.N.N.N.B.A.A.A.A.N.N.N.N.A.A.A.A.B.N.N.N.` Y Y Y Y N.N.N.N.Y Y Y Y z.A.A.A.A.A.A.A.A.N.N.N.N.N.N.N.N.m < < < j V V V V $.$.$.$.A.A.A.A.N.N.N.N.B.A.A.A.A.A.A.A.A.Y Y Y Y Y Y Y Y Y Y Y Y Y Y Y Y Y Y Y Y Y ] N.N.N.V.A.A.A.A.A.A.A.A.A.A.A.A.A.A.A.A.A.A.A.A.A.A.A.A.A.N.N.N.N.A.A.A.A.A.A.A.A.A.A.A.A.A.A.A.A.A.A.A.A.A.B.N.N.N.N.A.A.A.A.A.A.A.A.A.A.A.A.A.A.A.A.A.A.A.A.A.A.A.A.A.A.A.A.A.A.A.A.A.V.N.N.N.9.< < < < t.t.t.t.` N.N.N.B.A.A.A.A.A.A.S.A.E.E.E.E.d.Y Y Y h       ",
"    Y Y Y Y V.A.A.A.A.A.S.A.A.A.A.A.A.A.A.A.A.A.A.A.A.A.A.A.A.A.A.A.A.A.A.A.A.A.N.N.N.N.N.N.N.N.B.A.A.A.A.N.N.N.N.A.A.A.A.B.N.N.N.` Y Y Y Y N.N.N.N.Y Y Y Y z.A.A.A.A.A.A.A.A.N.N.N.N.N.N.N.N.m < < < j V V V V $.$.$.$.A.A.A.A.N.N.N.N.B.A.A.A.A.A.A.A.A.Y Y Y Y Y Y Y Y Y Y Y Y Y Y Y Y Y Y Y Y Y ] N.N.N.V.A.A.A.A.A.A.A.A.A.A.A.A.A.A.A.A.A.A.A.A.A.A.A.A.A.N.N.N.N.A.A.A.A.A.A.A.A.A.A.A.A.A.A.A.A.A.A.A.A.A.B.N.N.N.N.A.A.A.A.A.A.A.A.A.A.A.A.A.A.A.A.A.A.A.A.A.A.A.A.A.A.A.A.A.A.A.A.A.V.N.N.N.9.< < < < t.t.t.t.` N.N.N.B.A.A.A.A.A.A.A.A.E.E.E.E.d.Y Y Y h       ",
"    Y Y Y Y V.A.A.A.A.A.S.A.A.A.A.A.A.A.A.A.A.A.A.A.A.A.A.A.A.A.A.A.A.A.A.A.A.A.N.N.N.N.N.N.N.N.B.A.A.A.A.N.N.N.N.A.A.A.A.B.N.N.N.` Y Y Y Y N.N.N.N.Y Y Y Y z.A.A.A.A.A.A.A.A.N.N.N.N.N.N.N.N.m < < < j V V V V $.$.$.$.A.A.A.A.N.N.N.N.B.A.A.A.A.A.A.A.A.Y Y Y Y Y Y Y Y Y Y Y Y Y Y Y Y Y Y Y Y Y ] N.N.N.V.A.A.A.A.A.A.A.A.A.A.A.A.A.A.A.A.A.A.A.A.A.A.A.A.A.N.N.N.N.A.A.A.A.A.A.A.A.A.A.A.A.A.A.A.A.A.A.A.A.A.B.N.N.N.N.A.A.A.A.A.A.A.A.A.A.A.A.A.A.A.A.A.A.A.A.A.A.A.A.A.A.A.A.A.A.A.A.A.V.N.N.N.9.< < < < t.t.t.t.` N.N.N.B.A.A.A.A.A.A.A.A.E.E.E.E.d.Y Y Y h       ",
"    9.9.9.9.V.A.A.A.f.T r.r.r.T T T T N.N.N.N.A.A.A.A.A.A.A.A.C.T T T T A.A.A.A.N.N.N.N.V.A.A.A.V.N.N.N.N.N.N.N.N.N.N.N.N.! Y Y Y d.V.V.V.V.Y Y Y Y V.V.V.V.d.T T T ! N.N.N.N.A.A.A.A.T Y Y Y h < < < j V V V V y y y y 9.N.N.N.V.A.A.A.A.A.A.A.A.N.N.N.N.J J J J J J J J J J J J F 9 9 9 9 J J J J I Y Y Y T T T T r.A.A.A.A.A.A.A.A.N.N.N.N._ T T T r.A.A.A.A.N.N.N.N.T T T T T T T T T T T T T A.A.A.A.A.A.A.A.A.A.A.A.A.A.A.A.A.A.A.A.A.A.A.A.A.A.A.A.A.C.T T T T T T T T V.A.A.A.A.A.A.A.C.Y Y Y Y < < < < t.t.t.t.f.N.N.N.` T T T T T T T T T r.r.r.Y Y Y Y h       ",
"    N.N.N.N.A.A.A.A.d.Y Y Y Y Y Y Y Y N.N.N.N.A.A.A.A.A.A.A.A.C.Y Y Y Y A.A.A.A.N.N.N.N.V.A.A.A.V.N.N.N.N.N.N.N.N.N.N.N.N.E Y Y Y u.A.A.A.V.Y Y Y Y V.A.A.A.d.Y Y Y E N.N.N.N.A.A.A.A.Y Y Y Y j < < < j V V V V w w w w 9.9.N.N.V.A.A.A.A.A.A.A.A.N.N.N.N.J J J J J J J J J J J J F [ [ [ [ J J J J I Y Y Y Y Y Y Y T A.A.A.A.S.A.A.A.N.N.N.N._ Y Y Y T A.A.A.A.N.N.N.N.T Y Y Y Y Y Y Y Y Y Y Y Y A.A.A.A.A.A.A.A.A.A.A.A.A.A.A.A.A.A.A.A.A.A.A.A.A.A.A.A.A.C.Y Y Y Y Y Y Y Y V.A.A.A.A.A.A.A.z.Y Y Y Y < < < < t.t.t.t.` N.N.N.` Y Y Y Y Y Y Y Y Y Y Y Y Y Y Y Y h       ",
"    N.N.N.N.A.A.A.A.d.Y Y Y Y Y Y Y Y N.N.N.N.A.A.A.A.A.A.A.A.C.Y Y Y Y A.A.A.A.N.N.N.N.V.A.A.A.V.N.N.N.N.N.N.N.N.N.N.N.N.E Y Y Y u.A.A.A.V.Y Y Y Y V.A.A.A.d.Y Y Y E N.N.N.N.A.A.A.A.Y Y Y Y j < < < j V V V V w w w w 9.9.N.N.V.A.A.A.A.A.A.A.A.N.N.N.N.J J J J J J J J J J J J F [ [ [ [ J J J J I Y Y Y Y Y Y Y T A.A.A.A.A.A.A.A.N.N.N.N._ Y Y Y T A.A.A.A.N.N.N.N.T Y Y Y Y Y Y Y Y Y Y Y Y A.A.A.A.A.A.A.A.A.A.A.A.A.A.A.A.A.A.A.A.A.A.A.A.A.A.A.A.A.C.Y Y Y Y Y Y Y Y V.A.A.A.A.A.A.A.z.Y Y Y Y < < < < t.t.t.t.` N.N.N.` Y Y Y Y Y Y Y Y Y Y Y Y Y Y Y Y h       ",
"    N.N.N.N.A.A.A.A.d.Y Y Y Y Y Y Y Y N.N.N.N.A.A.A.S.A.A.A.A.C.Y Y Y Y A.A.A.A.N.N.N.N.V.A.A.A.V.N.N.N.N.N.N.N.N.N.N.N.N.E Y Y Y u.A.A.A.V.Y Y Y Y V.A.A.A.u.Y Y Y E N.N.N.N.A.A.A.A.Y Y Y Y j < < < j V V V V w w w w 9.N.N.N.V.A.A.A.A.A.A.A.A.N.N.N.N.J J J J J J J J J J J J F [ [ [ [ J J J J I Y Y Y Y Y Y Y T A.A.A.A.A.A.A.A.N.N.N.N._ Y Y Y T A.A.A.A.N.N.N.N.T Y Y Y Y Y Y Y Y Y Y Y Y A.A.A.A.A.A.A.A.A.A.A.A.A.A.A.A.A.A.A.A.A.A.A.A.A.A.A.A.A.C.Y Y Y Y Y Y Y Y V.A.A.A.A.A.A.A.z.Y Y Y Y < < < < t.t.t.t.` N.N.N.` Y Y Y Y Y Y Y Y Y Y Y Y Y Y Y Y h       ",
"    / / / / ( ( ( ( R H H H H H H H H D D D D ( ( ( ( K G G G D h h h h 3 3 3 3 D D D D G G G G G D D D D D D D D / / / / G h h h G ( ( ( ( H H H H ( ( ( ( R U H H K / / / / G G G G z h h h k n n n B V V V V 1 1 1 1 D D D D ( ( ( ( P G G G G D D D D l 3 3 3 F J J J F f f f f 6 6 6 6 f f f f b b b b b H H H U ( ( ( ( J G G G D D D D z h h h h 3 3 3 3 , , , , * * * * < h h h h h h h h G G G G 2 3 3 3 D G G G G G G G J ( ( ( ( 3 3 3 3 3 3 3 3 3 h h h z H U U U ( ( ( ( K G G G G h h h h n n n n p.p.p.p.i.i.i.i.T h h h h h h h h h h z h G H H H 3       ",
"    J J J J J J J J J J J J J J J J J < < < < F J J J l < < < < < < < <         < < < < < < < < < < < < < < < < < F J J J 3 < < < 3 J J J J J J J J J J J J J J J J J J J J F < < < < < < < < n V V V V V V V V < < < < < < < < F J J J D < < < < < < < < < < < < F J J J f r r r r $ $ $ $ r r r r r r s s f J J J J J J J J < < < < < < < < < < < < =                         O < < < < < < < < < < < <         * < < < < < < < < J J J J                 X < < < < J J J J J J J J 3 < < < < < < < < V V V V a.a.a.a.y.t.t.t.C < < < < < < < < < < < < D J J J 3       ",
"    J J J J J J J J J J J J J J J J J < < < < F J J J l < < < < < < < <         < < < < < < < < < < < < < < < < < F J J J 3 < < < 3 J J J J J J J J J J J J J J J J J J J J F < < < < < < < < n V V V V V V V V < < < < < < < < F J J J D < < < < < < < < < < < < F J J J f r r r r $ $ $ $ r r r r r r r r f J J J J J J J J < < < < < < < < < < < < =                         O < < < < < < < < < < < <         * < < < < < < < < J J J J                 X < < < < J J J J J J J J 3 < < < < < < < < V V V V a.a.a.a.y.t.t.t.C < < < < < < < < < < < < D J J J 3       ",
"    J J J J J J J J J J J J J J J J J < < < < F J J J l < < < < < < < <         < < < < < < < < < < < < < < < < < F J J J 3 < < < 3 J J J J J J J J J J J J J J J J J J J J F < < < < < < < < n V V V V V V V V < < < < < < < < F J J J D < < < < < < < < < < < < F J J J f r r r r $ $ $ $ r r r r r r r r f J J J J J J J J < < < < < < < < < < < < =                         O < < < < < < < < < < < <         * < < < < < < < < J J J J                 X < < < < J J J J J J J J 3 < < < < < < < < V V V V a.a.a.a.y.t.t.t.C < < < < < < < < < < < < D J J J 3       ",
"    R Q Q Q R K K K K R R R K K K K H k k k k H K K K n j j j j k k k k * * * * j k k k k k k k k k k k k k k k k R K K K n k k k n K R R R K K K K H J J J J J J J H H H J G j j j j k k k k V V V V V A A A C j j j j z z z z H L L L M z z z n i i i i i i i i b L L L f d d d t 0 0 0 0 r r r r r r r r f b b b F F F F F 1 1 1 1 1 i i i 1 1 1 1 1 * * * * * * * * * & & & ; j j j j k k k k j j j j = * * * < k k k k k k k z K K K K * & & & * * * * = j j j j J J J J H K K K m j j j j k k k z A A A A a.a.a.a.p.y.y.y.T k k k k k k k k z z z z H K K K 3       ",
"    a.a.a.a.y.t.t.t.t.t.t.t.t.t.t.t.t.t.t.t.t.t.t.t.t.A V V V A t.t.t.t.t.t.t.t.t.t.t.t.t.t.t.t.t.t.t.t.t.t.t.t.t.t.t.t.t.t.t.t.t.t.t.t.t.t.t.t.t.t.V V V V V V V V V V V V V V V V V t.t.t.t.A V V V A t.t.t.t.V V V V a.a.a.a.3.<.<.<.3.a.a.a.a.<.<.<.<.<.<.<.<.>.v v v ,.<.<.<.<.v v v v y y y y y y y y y y y y y y y y y y y y y u v v v y y y y c t.t.t.t.t.t.t.t.V V V V V V V V C t.t.t.t.V V V V t.t.t.t.t.t.t.t.t.t.t.t.t.t.t.t.t.V V V V T t.t.t.t.V V V V V V V V t.t.t.t.A V V V A t.t.t.t.t.t.t.t.a.a.a.a.a.a.a.a.p.t.t.t.t.t.t.t.t.a.a.a.a.y.t.t.t.n       ",
"    a.a.a.a.y.t.t.t.t.t.t.t.t.t.t.t.t.t.t.t.t.t.t.t.t.A V V V A t.t.t.t.t.t.t.t.t.t.t.t.t.t.t.t.t.t.t.t.t.t.t.t.t.t.t.t.t.t.t.t.t.t.t.t.t.t.t.t.t.t.V V V V V V V V V V V V V V V V V t.t.t.t.A V V V A t.t.t.t.V V V V a.a.a.a.3.<.<.<.3.a.a.a.a.<.<.<.<.<.<.<.<.>.v v v ,.<.<.<.<.v v v v y y y y y y y y y y y y y y y y y y y y y u v v v y y y y c t.t.t.t.t.t.t.t.V V V V V V V V C t.t.t.t.V V V V t.t.t.t.t.t.t.t.t.t.t.t.t.t.t.t.t.V V V V T t.t.t.t.V V V V V V V V t.t.t.t.A V V V A t.t.t.t.t.t.t.t.a.a.a.a.a.a.a.a.p.t.t.t.t.t.t.t.t.a.a.a.a.y.t.t.t.n       ",
"    a.a.a.a.y.t.t.t.t.t.t.t.t.t.t.t.t.t.t.t.t.t.t.t.t.A V V V A t.t.t.t.t.t.t.t.t.t.t.t.t.t.t.t.t.t.t.t.t.t.t.t.t.t.t.t.t.t.t.t.t.t.t.t.t.t.t.t.t.t.V V V V V V V V V V V V V V V V V t.t.t.t.A V V V A t.t.t.t.V V V V a.a.a.a.3.<.<.<.3.a.a.a.a.<.<.<.<.<.<.<.<.>.v v v ,.<.<.<.<.v v v v y y y y y y y y y y y y y y y y y y y y y u v v v y y y y c t.t.t.t.t.t.t.t.V V V V V V V V C t.t.t.t.V V V V t.t.t.t.t.t.t.t.t.t.t.t.t.t.t.t.t.V V V V T t.t.t.t.V V V V V V V V t.t.t.t.A V V V A t.t.t.t.t.t.t.t.a.a.a.a.a.a.a.a.p.t.t.t.t.t.t.t.t.a.a.a.a.y.t.t.t.n       ",
"    a.a.a.a.y.t.t.t.t.t.t.t.t.t.t.t.t.t.t.t.t.t.t.t.t.A V V V A t.t.t.t.t.t.t.t.t.t.y.y.y.y.y.y.y.y.y.t.y.y.y.y.y.y.y.y.y.y.y.y.y.y.y.y.y.y.y.y.y.y.A C C C C C C C C V V V C C C C C p.p.y.p.T A A A T y.y.y.y.V V V V a.a.a.a.3.<.<.<.3.v.v.v.v.1.1.1.1.1.1.1.1.,.,.,.,.<.1.1.1.1.,.,.,.,.y y y y y y y y y y y y y y y y y y y y y v ,.,.,.u y y y c t.t.t.t.t.t.t.t.C V V V V V V V A p.p.p.p.A A A A p.p.p.p.p.p.p.p.p.y.y.y.y.y.y.y.y.A C C C W t.t.t.t.V V V V V V V V t.t.t.t.A V V V A p.p.p.p.p.p.p.p.v.v.v.v.v.v.v.v.a.y.y.y.y.y.y.y.y.s.j.j.j.p.y.y.y.n       ",
"    N.N.N.N.M.M.M.M.B.V.V.V.V.V.V.V.V.Y Y Y Y Y Y Y Y Y Y Y Y E N.N.N.N.N.N.N.N.a.a.a.a.a.a.a.a.a.a.a.a.a.Y.Y.Y.Y.Y.Y.Y.Y.Y.Y.Y.Y.Y.Y.Y.Y.Y.Y.Y.Y.Y.Y.Y.Y.Y.Y.Y.Y.Y.A.M.M.M.N.Y.Y.Y.Y.&X&X&X&X X].].].].].].].).N.N.N.N.Y Y Y Y j < < < f.=X=X=X=X,X,X,X,XT.G.G.G.P.P.P.P.P.P.P.P.P.P.P.P.P.P.P.P.P.P.P.P.P.P.P.P.P.P.P.P.P.P.P.P.P.P.S.A.A.A.V.N.N.N.] Y Y Y Y t.t.t.t.t.t.t.t.f.M.M.M.S.tXtXtXtXtXtXtXtXtXtXtXtX0X&X&X&X&X].].].].].].].].A.V.V.V.V.V.V.V.z.Y Y Y Y M.M.M.M.M.M.M.M.M.M.M.M.G.=X=X=X=X&X&X&X&X&X&X&X&X&X&X&X&XoX].].].].].].].].].].].].].].].].9.      ",
"    N.N.N.N.M.M.M.M.B.V.V.V.V.V.V.V.V.Y Y Y Y Y Y Y Y Y Y Y Y E N.N.N.N.N.N.N.N.a.a.a.a.a.a.a.a.a.a.a.a.a.Y.Y.Y.Y.Y.Y.Y.Y.Y.Y.Y.Y.Y.Y.Y.Y.Y.Y.Y.Y.Y.Y.Y.Y.Y.Y.Y.Y.Y.A.M.M.M.N.Y.Y.Y.Y.&X&X&X&X X].].].].].].].).N.N.N.N.Y Y Y Y j < < < f.=X=X=X=X,X,X,X,XT.G.G.G.P.P.P.P.P.P.P.P.P.P.P.P.P.P.P.P.P.P.P.P.P.P.P.P.P.P.P.P.P.P.P.P.P.P.S.A.A.A.V.N.N.N.] Y Y Y Y t.t.t.t.t.t.t.t.f.M.M.M.S.tXtXtXtXtXtXtXtXtXtXtXtX0X&X&X&X&X].].].].].].].].A.V.V.V.V.V.V.V.z.Y Y Y Y M.M.M.M.M.M.M.M.M.M.M.M.G.=X=X=X=X&X&X&X&X&X&X&X&X&X&X&X&XoX].].].].].].].].].].].].].].].].9.      ",
"    N.N.N.N.M.M.M.M.B.V.V.V.V.V.V.V.V.Y Y Y Y Y Y Y Y Y Y Y Y E N.N.N.N.N.N.N.N.a.a.a.a.a.a.a.a.a.a.a.a.a.Y.Y.Y.Y.Y.Y.Y.Y.Y.Y.Y.Y.Y.Y.Y.Y.Y.Y.Y.Y.Y.Y.Y.Y.Y.Y.Y.Y.Y.A.M.M.M.N.Y.Y.Y.Y.&X&X&X&X X].].].].].].].).N.N.N.N.Y Y Y Y h < < < f.=X=X=X=X,X,X,X,XT.G.G.G.P.P.P.P.P.P.P.P.P.P.P.P.P.P.P.P.P.P.P.P.P.P.P.P.P.P.P.P.P.P.P.P.P.P.S.A.A.A.V.N.N.N.] Y Y Y Y t.t.t.t.t.t.t.t.f.M.M.M.S.tXtXtXtXtXtXtXtXtXtXtXtX0X&X&X&X&X].].].].].].].].A.V.V.V.V.V.V.V.z.Y Y Y Y M.M.M.M.M.M.M.M.M.M.M.M.G.=X=X=X=X&X&X&X&X&X&X&X&X&X&X&X&XoX].].].].].].].].].].].].].].].].9.      ",
"    N.N.N.N.M.M.M.M.B.V.V.V.V.V.V.V.V.Y Y Y Y Y Y Y Y Y Y Y Y E N.N.N.N.N.N.N.N.a.a.a.a.a.a.a.a.a.a.a.a.a.Y.Y.Y.Y.Y.Y.Y.Y.Y.Y.Y.Y.Y.Y.Y.Y.Y.Y.Y.Y.Y.Y.Y.Y.Y.Y.Y.Y.Y.A.M.M.M.N.Y.Y.Y.Y.&X&X&X&X X].].].].].].].).N.N.N.N.Y Y Y Y h < < < f.=X=X=X=X,X8X8X,XT.G.G.G.P.P.P.P.P.P.P.P.P.P.P.P.P.P.P.P.P.P.P.P.P.P.P.P.P.P.P.P.P.P.P.P.P.P.S.A.A.A.V.N.N.N.] Y Y Y Y t.t.t.t.t.t.t.t.f.M.M.M.S.tXtXtXtXtXtXtXtXtXtXtXtX0X&X&X&X&X].].].].].].].].A.V.V.V.V.V.V.V.z.Y Y Y Y M.M.M.M.M.M.M.M.M.M.M.M.G.=X=X=X=X&X&X&X&X&X&X&X&X&X&X&X&XoX].].].].].].].].].].].].].].].].9.      ",
"    K K K K L.P.P.P.W.].].].W.A.A.A.A.V.V.V.V.T Y Y Y _ 9.9.9.N.A.A.A.V.Y Y Y Y h < < < T a.a.a.l.S.S.S.R.tXtXtXtX=X%X%X%X&X&X&X&X&X&X&X&X&X].].].].&X&X&X&X&X&X&X&X.X].].].].&X&X&X&XG.G.G.G.G.G.G.G.G.G.G.G.G.A.A.A.A.9.9.9.9.B.V.V.V.A.G.G.G.G.T.T.T.T.S.A.A.A.S.S.S.S.S.S.S.S.S.P.P.P.P.G.G.G.G.G.G.G.G.S.S.S.S.S.S.S.S.S.S.S.S.S.G.G.G.G.S.A.A.A.V.9.9.9.9.< < < < V V V V K.%X%X%X@XU.U.U.U.U.U.U.U.U.U.U.U.L.G.G.G.S.S.S.S.S.P.P.P.P.).].].].R.A.A.A.A.V.V.V.V.Y Y Y Y W.].].].oX%X%X%X.XS.S.S.S.A.A.A.A.A.A.A.A.S.G.G.G.G.G.G.G.G.S.S.S.S.S.S.S.S.V.N.N.N.K       ",
"    J J J J L.P.P.P./.].].].).A.A.A.A.A.A.A.A.T Y Y Y _ N.N.N.N.A.A.A.V.Y Y Y Y < < < < T a.a.a.l.Y.Y.Y.R.tXtXtXtX8X=X=X=X*X&X&X&X&X&X&X&X&X].].].].&X&X&X&X&X&X&X&XoX].].].].&X&X&X&XS.A.A.A.S.G.G.G.G.G.G.G.G.A.A.A.A.N.N.N.N.V.A.A.A.A.A.A.A.A.G.G.G.G.A.A.A.A.A.A.A.A.A.A.A.A.S.P.P.P.P.G.G.G.G.G.G.G.G.S.A.A.A.A.A.A.A.A.A.A.A.A.G.G.G.G.S.A.A.A.V.N.N.N.9.< < < < V V V V K.=X=X=X@XP.P.P.P.P.P.P.P.P.P.P.P.G.A.A.A.A.A.A.A.S.P.P.P.P.].].].].R.A.A.A.A.A.A.A.V.Y Y Y Y ).].].].@X=X=X=X.XV.V.V.V.V.V.V.V.V.V.V.V.A.A.A.A.S.G.G.G.G.A.A.A.A.A.A.A.A.B.N.N.N.J       ",
"    J J J J L.P.P.P./.].].].).A.A.A.A.A.A.A.A.T Y Y Y _ N.N.N.N.A.A.A.V.Y Y Y Y < < < < T a.a.a.l.Y.Y.Y.R.tXtXtXtX8X=X=X=X*X&X&X&X&X&X&X&X&X].].].].&X&X&X&X&X&X&X&XoX].].].].&X&X&X&XS.A.A.A.S.G.G.G.G.G.G.G.G.A.A.A.A.N.N.N.N.V.A.A.A.A.A.A.A.A.G.G.G.G.A.A.A.A.A.A.A.A.A.A.A.A.S.P.P.P.P.G.G.G.G.G.G.G.G.S.A.A.A.A.A.A.A.A.A.A.A.A.G.G.G.G.S.A.A.A.V.N.N.N.9.< < < < V V V V K.=X=X=X@XP.P.P.P.P.P.P.P.P.P.P.P.G.A.A.A.A.A.A.A.S.P.P.P.P.].].].].R.A.A.A.A.A.A.A.V.Y Y Y Y ).].].].@X=X=X=X.XV.V.V.V.V.V.V.V.V.V.V.V.A.A.A.A.S.G.G.G.G.A.A.A.A.A.A.A.A.B.N.N.N.J       ",
"    J J J J L.P.P.P./.].].].).A.A.A.A.A.A.A.A.T Y Y Y _ N.N.N.N.A.A.A.V.Y Y Y Y < < < < T a.a.a.l.Y.Y.Y.R.tXtXtXtX8X=X=X=X*X&X&X&X&X&X&X&X&X].].].].&X&X&X&X&X&X&X&XoX].].].].&X&X&X&XS.A.A.A.S.G.G.G.G.G.G.G.G.A.A.A.A.N.N.N.N.V.A.A.A.A.A.A.A.A.G.G.G.G.A.A.A.A.A.A.A.A.A.A.A.A.S.P.P.P.P.G.G.G.G.G.G.G.G.S.A.A.A.A.A.A.A.A.A.A.A.A.G.G.G.G.S.A.A.A.V.N.N.N.9.< < < < V V V V K.=X=X=X@XP.P.P.P.P.P.P.P.P.P.P.P.G.A.A.A.A.A.A.A.S.P.P.P.P.].].].].R.A.A.A.A.A.A.A.V.Y Y Y Y ).].].].@X=X=X=X.XV.V.V.V.V.V.V.V.V.V.V.V.A.A.A.A.S.G.G.G.G.A.A.A.A.A.A.A.A.B.N.N.N.J       ",
"    Z.Z.Z.Z.G.G.G.G.G.R.R.R.G.A.A.A.A.A.A.A.A.z.z.z.z.C.V.V.V.V.A.A.A.V.Y Y Y Y < < < < C y.y.y.v..X.X.X.X].].].].W.W.W.W.]. X X X].W.W.W.Q.R.R.R.R.Q.W.W.W.W.W.W.W.W.R.R.R.R.W.W.W.W.S.A.A.A.S.S.S.S.S.S.S.S.S.A.A.A.A.V.V.V.V.A.A.A.A.A.A.A.A.A.S.S.S.S.A.A.A.A.A.A.A.A.G.L.L.L.L.G.G.G.G.S.S.S.S.S.S.S.S.S.A.A.A.A.A.A.A.A.S.S.S.S.S.S.S.S.S.A.A.A.A.V.V.V.V.D D D D T T T T b.`.`.`./.G.G.G.G.P.P.P.P.G.G.G.G.G.S.S.S.G.L.L.L.L.G.G.G.G.G.R.R.R.G.A.A.A.A.A.A.A.A.h.h.h.h.G.G.G.G.L.L.L.L.G.A.A.A.A.N.N.N.N.A.A.A.A.A.A.A.A.S.S.S.S.S.A.A.A.A.A.A.A.A.) / / / a       ",
"    P.P.P.P.S.A.A.A.A.A.A.A.A.A.A.A.A.A.A.A.A.A.A.A.A.A.A.A.A.A.A.A.A.V.Y Y Y Y < < < < C t.t.t.v.=X=X=X%XA.A.A.A.A.A.A.A.W.].].].!.G.G.G.G.A.A.A.A.G.G.G.G.G.G.G.G.S.A.A.A.A.A.A.A.A.A.A.A.A.A.A.A.A.A.A.A.A.A.A.A.A.A.A.A.A.A.A.A.A.A.A.A.A.A.A.A.A.A.A.A.A.A.A.A.A.A.A.G.P.P.P.P.G.G.G.G.A.A.A.A.A.A.A.A.A.A.A.A.A.A.A.A.A.G.G.G.G.S.A.A.A.A.A.A.A.A.A.A.A.A.J J J J t.t.t.t.c.P.P.P.L.A.A.A.A.P.P.P.P.S.A.A.A.S.G.G.G.G.P.P.P.P.A.A.A.A.A.A.A.A.A.A.A.A.A.A.A.A.A.V.V.V.V.V.V.V.V.N.N.N.N.B.A.A.A.A.N.N.N.N.A.A.A.A.A.A.A.A.A.A.A.A.A.A.A.A.A.A.A.A.A.( J J J 3       ",
"    P.P.P.P.S.A.A.A.A.A.A.A.A.A.A.A.A.A.A.A.A.A.A.A.A.A.A.A.A.A.A.A.A.V.Y Y Y Y < < < < C t.t.t.v.=X=X=X%XA.A.A.A.A.A.A.A.W.].].].!.G.G.G.G.A.A.A.A.G.G.G.G.G.G.G.G.S.A.A.A.A.A.A.A.A.A.A.A.A.A.A.A.A.A.A.A.A.A.A.A.A.A.A.A.A.A.A.A.A.A.A.A.A.A.A.A.A.A.A.A.A.A.A.A.A.A.A.G.P.P.P.P.G.G.G.G.A.A.A.A.A.A.A.A.A.A.A.A.A.A.A.A.A.G.G.G.G.S.A.A.A.A.A.A.A.A.A.A.A.A.J J J J t.t.t.t.c.P.P.P.L.A.A.A.A.P.P.P.P.S.A.A.A.S.G.G.G.G.P.P.P.P.A.A.A.A.A.A.A.A.A.A.A.A.A.A.A.A.A.V.V.V.V.V.V.V.V.N.N.N.N.B.A.A.A.A.N.N.N.N.A.A.A.A.A.A.A.A.A.A.A.A.A.A.A.A.A.A.A.A.A.( J J J 3       ",
"    P.P.P.P.S.A.A.A.A.A.A.A.A.A.A.A.A.A.A.A.A.A.A.A.A.A.A.A.S.S.A.A.A.V.Y Y Y Y < < < < C t.t.t.b.=X=X=X%XA.A.A.A.A.A.A.A.W.].].].!.G.G.G.G.A.A.A.A.G.G.G.G.G.G.G.G.S.A.A.A.A.A.A.A.A.A.A.A.A.A.A.A.A.A.A.A.A.A.A.A.A.A.A.A.A.A.A.A.A.A.A.A.A.A.A.A.A.A.A.A.A.A.A.A.A.A.A.G.P.P.P.P.G.G.G.G.A.A.A.A.A.A.A.A.A.A.A.A.A.A.A.A.A.G.G.G.G.S.A.A.A.A.A.A.A.A.A.A.A.A.J J J J t.t.t.t.c.P.P.P.L.A.A.A.A.P.P.P.P.S.A.A.A.S.G.G.G.G.P.P.P.P.A.A.A.A.A.A.A.A.A.A.A.A.A.A.A.A.A.V.V.V.V.V.V.V.V.N.N.N.N.B.A.A.A.A.N.N.N.N.A.A.A.A.A.A.A.A.A.A.A.A.A.A.A.A.A.A.A.A.A.( J J J 3       ",
"    L.L.L.L.S.A.A.A.A.A.A.A.A.A.A.A.A.A.A.A.A.V.V.V.V.A.A.A.A.A.A.A.A.A.E E E E < < < < V T T T a.'.'.'.`.A.A.A.A.V.V.V.V.R.W.W.W.E.S.S.S.S.A.A.A.A.S.S.S.S.S.S.S.S.S.A.A.A.A.A.A.A.A.G.G.G.G.A.V.V.V.V.A.A.A.A.A.A.A.A.A.A.A.A.A.A.A.A.V.z.z.z.z.V.V.V.V.V.V.V.V.A.A.A.A.S.G.G.G.G.S.S.S.S.G.G.G.G.G.G.G.G.V.z.z.z.z.z.z.z.z.C.C.C.C.V.V.V.V.V.A.A.A.A.V.V.V.V.D D D D t.t.t.t.c.P.P.P.P.S.S.S.S.L.L.L.L.S.A.A.A.S.G.G.G.G.L.L.L.L.A.A.A.A.A.A.A.A.A.A.A.A.A.A.A.A.A.V.V.V.V.h.h.h.h.B.B.B.B.B.z.z.z.z.B.B.B.B.A.A.A.A.A.A.A.A.V.z.z.z.z.S.S.S.S.C.z.z.z.) ( ( ( D       ",
"    A.A.A.A.A.A.A.A.A.A.A.A.A.A.A.A.A.A.A.A.A.N.N.N.N.V.A.A.A.A.A.A.A.A.N.N.N.N.< < < < k V V V Z Y Y Y Y A.A.A.A.N.N.N.N.V.A.A.A.A.A.A.A.A.A.A.A.A.A.A.A.A.A.A.A.A.A.A.A.A.A.A.A.A.A.E.E.E.E.V.N.N.N.B.A.A.A.A.A.A.A.A.A.A.A.A.A.A.A.A.h.Y Y Y T N.N.N.N.N.N.N.N.V.A.A.A.V.N.N.N.N.A.A.A.A.E.E.E.E.E.E.E.E.z.Y Y Y Y Y Y Y Y Y Y Y Y ] N.N.N.V.A.A.A.V.N.N.N.9.< < < < W t.t.t.c.P.P.P.P.G.G.G.G.G.G.G.G.A.A.A.A.S.G.G.G.S.A.A.A.A.A.A.A.A.A.A.A.A.A.A.A.A.A.A.A.A.A.N.N.N.N.Y Y Y Y h.A.A.A.z.Y Y Y Y A.A.A.A.A.A.A.A.A.A.A.A.z.Y Y Y T G.G.G.G.Y Y Y Y z.A.A.A.P       ",
"    A.A.A.A.A.A.A.A.A.A.A.A.A.A.A.A.A.A.A.A.A.N.N.N.N.V.A.A.A.A.A.A.A.A.N.N.N.N.1 < < < k V V V Z Y Y Y Y A.A.A.A.N.N.N.N.V.A.A.A.A.A.A.A.A.A.A.A.A.A.A.A.A.A.A.A.A.A.A.A.A.A.A.A.A.A.E.E.E.E.V.N.N.N.B.A.A.A.A.A.A.A.A.A.A.A.A.A.A.A.A.h.Y Y Y T N.N.N.N.N.N.N.N.V.A.A.A.V.N.N.9.N.A.A.A.A.E.E.E.E.E.E.E.E.z.Y Y Y Y Y Y Y Y Y Y Y Y ] N.N.N.V.A.A.A.V.N.N.N.9.< < < < W t.t.t.c.P.P.P.P.G.G.G.G.G.G.G.G.A.A.A.A.S.G.G.G.S.A.A.A.A.A.A.A.A.A.A.A.A.A.A.A.A.A.A.A.A.A.N.N.N.N.Y Y Y Y h.A.A.A.z.Y Y Y Y A.A.A.A.A.A.A.A.A.A.A.A.z.Y Y Y T G.G.G.G.Y Y Y Y z.A.A.A.P       ",
"    A.A.A.A.A.A.A.A.A.A.A.A.A.A.A.A.A.A.A.A.A.N.N.N.N.V.A.A.A.A.A.A.A.A.N.N.N.N.< < < < k V V V Z Y Y Y Y A.A.A.A.N.N.N.N.V.A.A.A.A.A.A.A.A.A.A.A.A.A.A.A.A.A.A.A.A.A.A.A.A.A.A.A.A.A.E.E.E.E.V.N.N.N.B.A.A.A.A.A.A.A.A.A.A.A.A.A.A.A.A.h.Y Y Y T N.N.N.N.N.N.N.N.V.A.A.A.V.N.N.9.N.A.A.A.A.E.E.E.E.E.E.E.E.C.Y Y Y Y Y Y Y Y Y Y Y Y ] N.N.N.V.A.A.A.V.N.N.N.9.< < < < W t.t.t.c.P.P.P.P.G.G.G.G.G.G.G.G.A.A.A.A.S.G.G.G.S.A.A.A.A.A.A.A.A.A.A.A.A.A.A.A.A.A.A.A.A.A.N.N.N.N.Y Y Y Y h.A.A.A.z.Y Y Y Y A.A.A.A.A.A.A.A.A.A.A.A.z.Y Y Y T G.G.G.G.Y Y Y Y z.A.A.A.P       ",
"    A.A.A.A.A.A.A.A.A.A.A.A.A.A.A.A.A.A.A.A.A.N.N.N.N.V.A.A.A.A.A.A.A.A.N.N.N.N.1 < < < n V V V Z Y Y Y Y A.A.A.A.N.N.N.N.V.A.A.A.A.A.A.A.A.A.A.A.A.A.A.A.A.A.A.A.A.A.A.A.A.A.S.S.S.S.R.R.R.R.V.N.N.N.B.A.A.A.A.A.A.A.A.A.A.A.A.A.A.A.A.h.Y Y Y T N.N.N.N.N.N.N.N.V.A.A.A.V.N.N.N.N.A.A.A.A.R.R.R.R.R.R.R.R.z.Y Y Y Y Y Y Y Y T T T T 9.N.N.N.V.A.A.A.V.N.N.N.9.< < < < W y.y.y.c.P.P.P.L.G.G.G.G.G.G.G.G.S.A.A.A.S.G.G.G.S.A.A.A.A.A.A.A.A.A.A.A.A.A.A.A.A.A.A.A.A.A.9.9.9.9.T T T T z.A.A.A.z.T T T T A.A.A.A.A.A.A.A.A.A.A.A.z.T T T T S.S.S.S.T T T T z.V.V.V.P       ",
"    A.A.A.A.A.A.A.A.A.A.A.A.A.A.A.A.A.N.N.N.N.A.A.A.A.A.A.A.A.A.A.A.A.A.A.A.A.A.K J J J C V V V Z Y Y Y Y N.N.N.N.A.A.A.A.B.N.N.N.B.A.A.A.A.A.A.A.A.A.A.A.A.A.A.A.A.A.A.A.A.S.E.E.E.E.N.N.N.N.V.A.A.A.V.N.N.N.N.A.A.A.A.A.A.A.A.A.A.A.A.V.N.N.N.N.N.N.N.N.A.A.A.A.N.N.N.N.B.A.A.A.A.N.N.N.N.Y Y Y Y Y Y Y Y _ N.N.N.9.Y Y Y Y A.A.A.A.A.A.A.A.V.N.N.N.N.N.N.N.9.< < < < p.a.a.a.c.A.A.A.S.G.G.G.G.A.A.A.A.G.G.G.G.S.A.A.A.A.A.A.A.A.N.N.N.N.A.A.A.A.A.A.A.A.A.A.A.A.V.Y Y Y Y V.A.A.A.B.N.N.N.B.A.A.A.A.A.A.A.A.A.A.A.A.A.A.A.A.A.A.A.A.V.Y Y Y Y V.A.A.A.u.Y Y Y h       ",
"    A.A.A.A.A.A.A.A.A.A.A.A.A.A.A.A.A.N.N.N.N.A.A.A.A.A.A.A.A.A.A.A.A.A.A.A.A.A.K J J J C V V V Z Y Y Y Y N.N.N.N.A.A.A.A.B.N.N.N.B.A.A.A.A.A.A.A.A.A.A.A.A.A.A.A.A.A.A.A.A.S.E.E.E.E.N.N.N.N.V.A.A.A.V.N.N.N.N.A.A.A.A.A.A.A.A.A.A.A.A.V.N.N.N.N.N.N.N.N.A.A.A.A.N.N.N.N.B.A.A.A.A.N.N.N.N.Y Y Y Y Y Y Y Y _ N.N.N.9.Y Y Y Y A.A.A.A.A.A.A.A.V.N.N.N.N.N.N.N.9.< < < < p.a.a.a.c.A.A.A.S.G.G.G.G.A.A.A.A.G.G.G.G.S.A.A.A.A.A.A.A.A.N.N.N.N.A.A.A.A.A.A.A.A.A.A.A.A.V.Y Y Y Y V.A.A.A.B.N.N.N.B.A.A.A.A.A.A.A.A.A.A.A.A.A.A.A.A.A.A.A.A.V.Y Y Y Y V.A.A.A.u.Y Y Y h       ",
"    A.A.A.A.A.A.A.A.A.A.A.A.A.A.A.A.A.N.N.N.N.A.A.A.A.A.A.A.A.A.A.A.A.A.A.A.A.A.K J J J C V V V Z Y Y Y Y N.N.N.N.A.A.A.A.B.N.N.N.B.A.A.A.A.A.A.A.A.A.A.A.A.A.A.A.A.A.A.A.A.S.E.E.E.E.N.N.N.N.V.A.A.A.V.N.N.N.N.A.A.A.A.A.A.A.A.A.A.A.A.V.N.N.N.N.N.N.N.N.A.A.A.A.N.N.N.N.B.A.A.A.A.N.N.N.N.Y Y Y Y Y Y Y Y _ N.N.N.9.Y Y Y Y A.A.A.A.A.A.A.A.V.N.N.N.N.N.N.N.9.< < < < p.a.a.a.c.A.A.A.S.G.G.G.G.A.A.A.A.G.G.G.G.S.A.A.A.A.A.A.A.A.N.N.N.N.A.A.A.A.A.A.A.A.A.A.A.A.V.Y Y Y Y V.A.A.A.B.N.N.N.B.A.A.A.A.A.A.A.A.A.A.A.A.A.A.A.A.A.A.A.A.V.Y Y Y Y V.A.A.A.u.Y Y Y h       ",
"    A.A.A.A.A.A.A.A.A.A.A.A.A.A.A.A.A.N.N.N.N.A.A.A.A.A.A.A.A.A.A.A.A.A.A.A.A.A.K J J J C V V V Z Y Y Y Y N.N.N.N.A.A.A.A.B.N.N.N.B.A.A.A.A.A.A.A.A.A.A.A.A.A.A.A.A.A.A.A.A.S.E.E.E.E.N.N.N.N.V.A.A.A.V.N.N.N.N.A.A.A.A.A.A.A.A.A.A.A.A.V.N.N.N.N.N.N.N.N.A.A.A.A.N.N.N.N.B.A.A.A.A.N.N.N.N.Y Y Y Y Y Y Y Y _ N.N.N.9.Y Y Y Y A.A.A.A.A.A.A.A.V.N.N.N.N.N.N.N.9.< < < < p.a.a.a.c.A.A.A.S.G.G.G.G.A.A.A.A.G.G.G.G.S.A.A.A.A.A.A.A.A.N.N.N.N.A.A.A.A.A.A.A.A.A.A.A.A.V.Y Y Y Y V.A.A.A.B.N.N.N.B.A.A.A.A.A.A.A.A.A.A.A.A.A.A.A.A.A.A.A.A.V.Y Y Y Y V.A.A.A.u.Y Y Y h       ",
"    Y Y Y Y V.A.A.A.A.A.A.A.A.A.A.A.A.A.A.A.A.A.A.A.A.A.A.A.A.A.A.A.A.A.A.A.A.A.3 < < < n V V V Z Y Y Y Y Y Y Y Y 9.N.N.N.V.A.A.A.V.N.N.N.N.A.A.A.A.A.A.A.A.A.A.A.A.G.E.E.E.R.T T T T Y Y Y Y ] N.N.N.N.N.N.N.N.A.A.A.A.A.A.A.A.A.A.A.A.V.N.N.N.N.A.A.A.A.N.N.N.N.N.N.N.N.N.N.N.N.9.Y Y Y Y Y Y Y Y C.V.V.V.f.Y Y Y T V.V.V.V.T Y Y Y 9.N.N.N.V.A.A.A.V.Y Y Y Y < < < < W y.y.y.f.N.N.N.N.A.A.A.A.A.A.A.A.A.A.A.A.A.A.A.A.C.Y Y Y T A.A.A.A.A.A.A.A.A.A.A.A.V.N.N.N.9.Y Y Y Y 9.N.N.N.( J J J F < < < < Y Y Y Y Y Y Y Y ` N.N.N.` Y Y Y T V.V.V.V.T Y Y Y Y Y Y Y h       ",
"    Y Y Y Y V.A.A.A.A.A.A.A.A.A.A.A.A.A.A.A.A.A.A.A.A.A.A.A.A.A.A.A.A.A.A.A.A.A.1 < < < k V V V Z Y Y Y Y Y Y Y Y 9.N.N.N.V.A.A.A.V.N.N.N.N.A.A.A.A.A.A.A.A.A.A.A.A.G.E.E.E.R.Y Y Y Y Y Y Y Y ` N.N.N.N.N.N.N.N.A.A.A.A.A.A.A.A.A.A.A.A.V.N.N.N.N.A.A.A.A.N.N.N.N.N.N.N.N.N.N.N.N.9.Y Y Y Y Y Y Y Y V.A.A.A.f.Y Y Y T A.A.A.A.Y Y Y Y ] N.N.N.V.A.A.A.V.Y Y Y Y < < < < W t.t.t.f.N.N.N.N.A.A.A.A.A.A.A.A.A.A.A.A.A.A.A.A.C.Y Y Y Y A.A.A.A.A.A.A.A.A.A.A.A.V.N.N.N.9.Y Y Y Y 9.N.N.N./ J J J D < < < < Y Y Y Y Y Y Y Y ` N.N.N.` Y Y Y T A.A.A.A.Y Y Y Y Y Y Y Y h       ",
"    Y Y Y Y V.A.A.A.A.A.A.A.A.A.A.A.A.A.A.A.A.A.A.A.A.A.A.A.A.A.A.A.A.A.A.A.A.A.1 < < < k V V V Z Y Y Y Y Y Y Y Y 9.N.N.N.V.A.A.A.V.N.N.N.N.A.A.A.A.A.A.A.A.A.A.A.A.G.E.E.E.R.Y Y Y Y Y Y Y Y ` N.N.N.N.N.N.N.N.A.A.A.A.A.A.A.A.A.A.A.A.V.N.N.N.N.A.A.A.A.N.N.N.N.N.N.N.N.N.N.N.N.9.Y Y Y Y Y Y Y Y V.A.A.A.f.Y Y Y T A.A.A.A.Y Y Y Y ] N.N.N.V.A.A.A.V.Y Y Y Y < < < < W t.t.t.f.N.N.N.N.A.A.A.A.A.A.A.A.A.A.A.A.A.A.A.A.C.Y Y Y Y A.A.A.A.A.A.A.A.A.A.A.A.V.N.N.N.9.Y Y Y Y 9.N.N.N./ J J J D < < < < Y Y Y Y Y Y Y Y ` N.N.N.` Y Y Y T A.A.A.A.Y Y Y Y Y Y Y Y h       ",
"    Y Y Y Y V.A.A.A.A.A.A.A.A.A.A.A.A.A.A.A.A.A.A.A.A.A.A.A.A.A.A.A.A.A.A.A.S.A.1 < < < k V V V Z Y Y Y Y Y Y Y Y 9.N.N.N.V.A.A.A.V.N.N.N.N.A.A.A.A.A.A.A.A.A.A.A.A.G.E.E.E.R.Y Y Y Y Y Y Y Y ` N.N.N.N.N.N.N.N.A.A.A.A.A.A.A.A.A.A.A.A.V.N.N.N.N.A.A.A.A.N.N.N.N.N.N.N.N.N.N.N.N.9.Y Y Y Y Y Y Y Y V.A.A.A.f.Y Y Y T A.A.A.A.Y Y Y Y ] N.N.N.V.A.A.A.V.Y Y Y Y < < < < W t.t.t.f.N.N.N.N.A.A.A.A.A.A.A.A.A.A.A.A.A.A.A.A.C.Y Y Y Y A.A.A.A.A.A.A.A.A.A.A.A.V.N.N.N.9.Y Y Y Y 9.N.N.N./ J J J D < < < < Y Y Y Y Y Y Y Y ` N.N.N.` Y Y Y T A.A.A.A.Y Y Y Y Y Y Y Y h       ",
"    H H H H ( ( ( ( ( ( ( ( P l l l m ( ( ( ( ( ( ( ( J D D D D D D D D , , , , n n n n V V V V V Z Z Z C j j j j m m m m D D D D G P P P P D D D D / ( ( ( ( ( ( ( ( ( ( ( ( H H H H H H H H D m m m G P P P P D D D D D D D D 3 , , , 3 m m m m D D D D m m m m m m m m J P P P K j j j j H H H H / ( ( ( K H H H H ( ( ( ( H H H H P P P P J D D D D j j j j A A A A p.a.a.a.p.u.u.u.! D D D D ( ( ( ( D D D D K ( ( ( / H H H H D D D D / ( ( ( J D D D D m m m m j j j j > > > > 1 3 3 3 < < < < < j j j j * * * * 3 m m m z j j j h ( ( ( ( h j j j D H H H 3       ",
"    J J J J J J J J J J J J D * * * * J J J J J J J J l < < < < < < < <         B V V V V V V V V V V V V < < < < < < < < < < < < 3 J J J J < < < < F J J J J J J J J J J J J J J J J J J J J 3 < < < 3 J J J F < < < < < < < < X       X < < < < < < < < < < < < < < < < l J J J F < < < < J J J J J J J J J J J J J J J J J J J J J J J J J l < < < < < < < < t.t.t.t.a.a.a.a.p.t.t.t.T < < < < J J J J < < < < m J J J J J J J J < < < < F J J J l < < < < < < < < < < < <         * < < < < < < < < < < < <         * < < < < < < < < J J J J < < < < D J J J 3       ",
"    J J J J J J J J J J J J D * * * * J J J J J J J J l < < < < < < < <         B V V V V V V V V V V V V < < < < < < < < < < < < 3 J J J J < < < < F J J J J J J J J J J J J J J J J J J J J 3 < < < 3 J J J F < < < < < < < < X       X < < < < < < < < < < < < < < < < l J J J F < < < < J J J J J J J J J J J J J J J J J J J J J J J J J l < < < < < < < < t.t.t.t.a.a.a.a.p.t.t.t.T < < < < J J J J < < < < m J J J J J J J J < < < < F J J J l < < < < < < < < < < < <         * < < < < < < < < < < < <         * < < < < < < < < J J J J < < < < D J J J 3       ",
"    J J J J J J J J J J J J D * * * * J J J J J J J J l < < < < < < < <         B V V V V V V V V V V V V < < < < < < < < < < < < 3 J J J J < < < < F J J J J J J J J J J J J J J J J J J J J 3 < < < 3 J J J F < < < < < < < < X       X < < < < < < < < < < < < < < < < l J J J F < < < < J J J J J J J J J J J J J J J J J J J J J J J J J l < < < < < < < < t.t.t.t.a.a.a.a.p.t.t.t.T < < < < J J J J < < < < m J J J J J J J J < < < < F J J J l < < < < < < < < < < < <         * < < < < < < < < < < < <         * < < < < < < < < J J J J < < < < D J J J 3       "
};
