/* XPM */
static char *_0aade49c161410b9af8415e5a7ab893gBpnw4PS0eVzrrS0[] = {
/* columns rows colors chars-per-pixel */
"277 273 255 2 ",
"   c #000000",
".  c #030A05",
"X  c #050A07",
"o  c #0C0B0B",
"O  c #190A0A",
"+  c #07150A",
"@  c #14110E",
"#  c #1B130E",
"$  c #081914",
"%  c #131312",
"&  c #191713",
"*  c #1C1817",
"=  c #1C1D1C",
"-  c #220D0F",
";  c #211712",
":  c #221915",
">  c #251E1A",
",  c #2B1E19",
"<  c #03251A",
"1  c #162416",
"2  c #0D361A",
"3  c #143216",
"4  c #14341A",
"5  c #17381C",
"6  c #193B1E",
"7  c #27221C",
"8  c #34241D",
"9  c #372B1E",
"0  c #2A391D",
"q  c #2A1B24",
"w  c #0A2E27",
"e  c #093421",
"r  c #0A3927",
"t  c #02352C",
"y  c #043A2D",
"u  c #163728",
"i  c #242322",
"p  c #292725",
"a  c #2B2A27",
"s  c #292D2D",
"d  c #332A26",
"f  c #392B25",
"g  c #3C2C25",
"h  c #342C28",
"j  c #293629",
"k  c #33312C",
"l  c #3A332D",
"z  c #363828",
"x  c #2B2F32",
"c  c #2D3434",
"v  c #3A3633",
"b  c #383937",
"n  c #3C3934",
"m  c #412E26",
"M  c #442E29",
"N  c #44322B",
"B  c #4D352C",
"V  c #463928",
"C  c #4D3B28",
"Z  c #533A2E",
"A  c #442B3A",
"S  c #483A35",
"D  c #423F3B",
"F  c #563D31",
"G  c #603639",
"H  c #1C421C",
"J  c #25451E",
"K  c #27481D",
"L  c #37501C",
"P  c #02432D",
"I  c #0B482E",
"U  c #144728",
"Y  c #164929",
"T  c #084531",
"R  c #0B4C32",
"E  c #184E32",
"W  c #0E5534",
"Q  c #125434",
"!  c #165A38",
"~  c #274625",
"^  c #2A4B22",
"/  c #38452A",
"(  c #2D5824",
")  c #335424",
"_  c #3B5D24",
"`  c #385928",
"'  c #264934",
"]  c #384738",
"[  c #265539",
"{  c #365438",
"}  c #176339",
"|  c #1C6C3D",
" . c #1E723F",
".. c #386324",
"X. c #3D6129",
"o. c #36762F",
"O. c #246A3B",
"+. c #2C7937",
"@. c #22743D",
"#. c #48522B",
"$. c #4F5A2A",
"%. c #42403C",
"&. c #4A453B",
"*. c #5A4031",
"=. c #54443C",
"-. c #59483C",
";. c #485839",
":. c #634B3D",
">. c #496723",
",. c #42652B",
"<. c #45692C",
"1. c #526D23",
"2. c #566B2D",
"3. c #557227",
"4. c #587227",
"5. c #557129",
"6. c #5A7429",
"7. c #4F6F33",
"8. c #496834",
"9. c #3A3F40",
"0. c #5B384D",
"q. c #6D3A52",
"w. c #7B3F60",
"e. c #7A3F64",
"r. c #1F5843",
"t. c #374C45",
"y. c #2C6D46",
"u. c #4A4642",
"i. c #4B4B45",
"p. c #464948",
"a. c #574C46",
"s. c #495447",
"d. c #55514B",
"f. c #585748",
"g. c #5A534D",
"h. c #474F50",
"j. c #594552",
"k. c #495254",
"l. c #565855",
"z. c #5F5952",
"x. c #5D5E5A",
"c. c #675649",
"v. c #724D52",
"b. c #625B54",
"n. c #6B5B53",
"m. c #635E59",
"M. c #56674F",
"N. c #68714C",
"B. c #6B6655",
"V. c #67635E",
"C. c #69645E",
"Z. c #746859",
"A. c #565963",
"S. c #764667",
"D. c #6A6661",
"F. c #676865",
"G. c #6D6A64",
"H. c #726C65",
"J. c #7A6D63",
"K. c #736F68",
"L. c #6C7669",
"P. c #7A7466",
"I. c #77746C",
"U. c #79756E",
"Y. c #7C7770",
"T. c #7D7971",
"R. c #777B78",
"E. c #81394D",
"W. c #853C51",
"Q. c #8F3F55",
"!. c #8C3865",
"~. c #884558",
"^. c #96435A",
"/. c #884A6E",
"(. c #9D5F68",
"). c #857B68",
"_. c #8B6D70",
"`. c #837C75",
"'. c #867F78",
"]. c #8B7C79",
"[. c #D86776",
"{. c #3E822F",
"}. c #3C8532",
"|. c #398434",
" X c #55922C",
".X c #428432",
"XX c #418931",
"oX c #629C2C",
"OX c #63A02A",
"+X c #658640",
"@X c #7B8375",
"#X c #F9B53E",
"$X c #FDBA3B",
"%X c #FDCC3D",
"&X c #80885A",
"*X c #8B816D",
"=X c #878079",
"-X c #8A837A",
";X c #8A8678",
":X c #928975",
">X c #938C7D",
",X c #8D9479",
"<X c #96927D",
"1X c #9D977D",
"2X c #DC9A58",
"3X c #F4AF47",
"4X c #FDD94C",
"5X c #FEE140",
"6X c #FEC479",
"7X c #77748D",
"8X c #944C8E",
"9X c #A3639E",
"0X c #AE55B2",
"qX c #CE5086",
"wX c #D05592",
"eX c #E2689E",
"rX c #E95AA7",
"tX c #F75DB1",
"yX c #FE5FB7",
"uX c #A958CC",
"iX c #B953C1",
"pX c #BB65DE",
"aX c #CA67DE",
"sX c #CD61F2",
"dX c #D365F7",
"fX c #D262FB",
"gX c #868B81",
"hX c #898D82",
"jX c #948D82",
"kX c #999284",
"lX c #9B9787",
"zX c #95968E",
"xX c #A19B84",
"cX c #A49E8A",
"vX c #A59193",
"bX c #A7A18C",
"nX c #A8A38E",
"mX c #A7A698",
"MX c #B1AF9F",
"NX c #A29FA6",
"BX c #ABAEA8",
"VX c #B4B6AE",
"CX c #B8B8AA",
"ZX c #AEB4B0",
"AX c #B6BAB5",
"SX c #BDBDB0",
"DX c #F098AA",
"FX c #BEC3BE",
"GX c #B58FC3",
"HX c #E994CD",
"JX c #F896C6",
"KX c #FE9ACD",
"LX c #EB90F2",
"PX c #F196F7",
"IX c #F69BFC",
/* pixels */
"8 B B B N g g g g B B B B B B B B F *.*.*.*.*.*.*.F B B B B F *.*.*.Z B B B B B B B B B B B B B B B B m g g g g g g g g g g g g g g g g g g g g N B B B B g g g g B B B B F *.*.*.*.*.*.*.*.*.*.*.*.B B B B F *.*.*.Z B B B B B B B B B B B B B B B B B B B B B B B B B B B B B B B B B N g g g g B B B B g g g g g g g g g g g g g g g g g B B B B B B B B B B B B B B B B B B B B B g g g g g g g g g g g g g g g g g g g g g N B B B N g g g g B B B B g g g g g g g g N *.*.*.F B B B B *.*.*.F Z B B B B B B B B B B B B B B B B B B B B B B B B B B B B B   ",
"8 B B B N g g g g B B B B B B B B F *.*.*.*.*.*.*.F B B B B F *.*.*.Z B B B B B B B B B B B B B B B B m g g g g g g g g g g g g g g g g g g g g N B B B B g g g g B B B B F *.*.*.*.*.*.*.*.*.*.*.*.B B B B F *.*.*.Z B B B B B B B B B B B B B B B B B B B B B B B B B B B B B B B B B N g g g g B B B B g g g g g g g g g g g g g g g g g B B B B B B B B B B B B B B B B B B B B B g g g g g g g g g g g g g g g g g g g g g N B B B N g g g g B B B B g g g g g g g g N *.*.*.F B B B B *.*.*.*.Z B B B B B B B B B B B B B B B B B B B B B B B B B B B B B   ",
"8 B B B N g g g g B B B B B B B B F *.*.*.*.*.*.*.F B B B B F *.*.*.Z B B B B B B B B B B B B B B B B m g g g g g g g g g g g g g g g g g g g g N B B B B g g g g B B B B F *.*.*.F *.*.*.*.*.*.*.*.B B B B F *.*.*.Z B B B B B B B B B B B B B B B B B B B B B B B B B B B B B B B B B N g g g g B B B B g g g g g g g g g g g g g g g g g B B B B B B B B B B B B B B B B B B B B B g g g g g g g g g g g g g g g g g g g g g N B B B N g g g g B B B B g g g g g g g g N *.*.*.F B B B B *.*.*.*.Z B B B B B B B B B B B B B B B B B B B B B B B B B B B B B   ",
"N c.c.c.a.=.=.=.=.-.-.-.-.=.=.=.=.-.-.-.-.-.*.*.*.*.c.c.c.c.Z.Z.Z.Z.n.n.n.n.c.c.c.c.c.c.c.c.c.c.c.c.c.-.-.-.-.-.a.a.a.a.a.a.a.a.a.a.a.a.-.-.-.-.-.a.a.a.a.&.&.&.&.=.=.=.=.-.-.-.-.-.*.*.*.-.Z.Z.Z.Z.n.n.n.n.Z.Z.Z.Z.n.c.c.c.c.c.c.c.c.c.c.c.c.c.c.c.c.a.-.-.-.a.c.c.c.c.c.c.c.c.c.c.c.c.-.=.=.=.=.-.-.-.-.S S S S S S S S N m m m N a.a.a.a.n.n.n.n.n.n.n.n.n.n.n.n.n.n.n.n.c.c.c.c.c.-.-.-.-.-.-.-.-.-.-.-.-.-.-.-.-.-.-.-.-.-.a.a.a.a.-.&.&.&.&.=.=.=.=.g g g g M N N N B F F F *.c.c.c.c.Z.Z.Z.Z.n.n.n.n.c.c.c.c.c.c.c.c.c.c.c.c.c.a.-.-.-.a.c.c.c.c.c.c.c.c.  ",
"B.1X1X1X<X=X=X=X'.I.I.I.I.C.V.V.V.V.V.V.V.b.*.*.*.-.bXbXbXbXFXFXFXFXAXZXZXZXBXbXbXbXbXbXbXbXbX1X1X1X1X1X1X1X1XxXbXbXbXbXbXbXbXbXbXbXbXbXxX1X1X1X>X=X=X=X'.I.I.I.I.V.V.V.V.V.V.V.V.c.*.*.*.:.VXVXVXVXFXFXFXFXZXZXZXZXmXbXbXbXbXbXbXbXbX1X1X1X1X1X1X1X1X;XI.I.I.T.bXbXbXbXbXbXbXbX1X1X1X1X>X=X=X=X'.I.I.I.I.V.V.V.V.V.V.V.V.a.B B B c.bXbXbXbXFXFXFXFXZXZXZXZXVXVXVXVXVXVXVXVXVX1X1X1X1X1X1X1X1X1X1X1X1X1X1X1X1X1X1X1X1X1X1X1X1X1X-X=X=X=X`.I.I.I.I.V.V.V.V.g g g g Z *.*.*.F B B B F bXbXbXbXFXFXFXFXSXSXSXSXBXbXbXbXbXbXbXbXbXbXbXbXbX`.I.I.I.:XbXbXbXbXbXbXbXbX  ",
"B.1X1X1X<X=X=X=X'.I.I.I.I.C.V.V.V.V.V.V.V.b.*.*.*.-.bXbXbXbXFXFXFXFXAXZXZXZXBXbXbXbXbXbXbXbXbX1X1X1X1X1X1X1X1XxXbXbXbXbXbXbXbXbXbXbXbXbXxX1X1X1X>X=X=X=X'.I.I.I.I.V.V.V.V.V.V.V.V.c.*.*.*.:.VXVXVXVXFXFXFXFXZXZXZXZXmXbXbXbXbXbXbXbXbX1X1X1X1X1X1X1X1X;XI.I.I.T.bXbXbXbXbXbXbXbX1X1X1X1X>X=X=X=X'.I.I.I.I.V.V.V.V.V.V.V.V.a.B B B c.bXbXbXbXFXFXFXFXZXZXZXZXVXVXVXVXVXVXVXVXVX1X1X1X1X1X1X1X1X1X1X1X1X1X1X1X1X1X1X1X1X1X1X1X1X1X-X=X=X=X`.I.U.I.I.V.V.V.V.g g g g Z *.*.*.F B B B F bXbXbXbXFXFXFXFXSXSXSXSXBXbXbXbXbXbXbXbXbXbXbXbXbX`.I.I.I.:XbXbXbXbXbXbXbXbX  ",
"B.1X1X1X<X=X=X=X'.I.I.I.I.C.V.V.V.V.V.V.V.b.*.*.*.-.bXbXbXbXFXFXFXFXAXZXZXZXBXbXbXbXbXbXbXbXbX1X1X1X1X1X1X1X1XxXbXbXbXbXbXbXbXbXbXbXbXbXxX1X1X1X>X=X=X=X'.I.I.I.I.V.V.V.V.V.V.V.V.c.*.*.*.:.VXVXVXVXFXFXFXFXZXZXZXZXMXbXbXbXbXbXbXbXbX1X1X1X1X1X1X1X1X;XI.I.I.T.bXbXbXbXbXbXbXbX1X1X1X1X>X=X=X=X'.I.I.I.I.V.V.V.V.V.V.V.V.a.B B B c.bXbXbXbXFXFXFXFXZXZXZXZXVXVXVXVXVXVXVXVXVX1X1X1X1X1X1X1X1X1X1X1X1X1X1X1X1X1X1X1X1X1X1X1X1X1X-X=X=X=X`.I.U.U.I.C.V.V.V.g g g g Z *.*.*.F B B B F bXbXbXbXFXFXFXFXSXSXSXSXBXbXbXbXbXbXbXbXbXbXbXbXbX`.I.I.I.:XbXbXbXbXbXbXbXbX  ",
"B.1X1X1X>X'.'.'.'.U.U.U.U.D.C.C.C.V.V.V.V.c.F F F -.bXbXbXbXAXFXFXFXZXBXBXBXBXcXcXcXcXcXcXcXcX1X1X1X1X1X1X1X1XxXbXbXbXbXcXcXcXcXcXcXcXcXlX1X1X1X>X'.'.'.'.U.U.U.U.C.C.C.C.V.V.V.V.g.F F F :.VXVXVXVXFXFXFXFXZXBXBXBXmXcXcXcXcXcXcXcXcX1X1X1X1X1X1X1X1X;XU.U.U.`.bXbXbXbXcXcXcXcX1X1X1X1X>X'.'.'.`.U.U.U.I.C.C.C.C.V.V.V.V.=.B B B c.bXbXbXmXFXFXFXFXBXBXBXBXBXVXVXVXVXVXVXVXVX1X1X1X1X1X1X1X1X1X1X1X1X1X1X1X1X1X1X1X1X1X1X1X1X1X-X=X=X=X`.I.I.I.I.C.C.C.C.g g g g Z F F F F B B B F bXbXbXbXAXFXAXAXSXCXCXCXMXcXcXcXcXcXcXcXcXbXbXbXbX`.U.U.U.:XbXbXbXbXcXcXcXcX  ",
"d.=X=X=X`.I.I.I.U.=X=X=X=XU.I.I.I.&.h h h g B B B F SXSXSXSXhXgXgXgX=X=X=X=X=X=X=X=X=X=X=X=X=X=X=X=X=X<X1X1X1XxXbXbXbXcX=X=X=X=X=X=X=X=X=X=X=X=X`.I.I.I.U.=X=X=X=XI.I.I.I.n h h h l B B B -.SXSXSXSXgXgXgXgX=X=X=X=X=X=X=X=X=X=X=X=X=X1X1X1X1XhXgXgXgXkXbXbXbXcXgXgXgXgX=X=X=X=X=X=X=X=XY.I.I.I.U.=X=X=X=XI.I.I.I.l h h h g g g g a.SXSXSXCXgXgXgXgX=X=X=X=X=X=X=X=X=X=X=X=X-X1X1X1X1XhXgXgXgXgXgXgXgX-X=X=X=X=X=X=X=X=X=X=X=X=XgXgXgXgXI.u.u.u.i.I.U.U.I.k h h h N B B B Z *.*.*.:.VXVXVXVXhXgXgXgX=X=X=X=X=X=X=X=X=X'.'.'.=X1X1X1X1XcXbXbXbXlXgXgXgXgX=X=X-X=X  ",
"d.=X=X=X`.I.I.I.U.=X=X=X=XU.I.I.I.&.h h h g B B B F SXSXSXSXhXgXgXgX=X=X=X=X=X=X=X=X=X=X=X=X=X=X=X=X=X<X1X1X1XxXbXbXbXcX=X=X=X=X=X=X=X=X=X=X=X=X`.I.I.I.U.=X=X=X=XI.I.I.I.n h h h l B B B -.SXSXSXSXgXgXgXgX=X=X=X=X=X=X=X=X=X=X=X=X=X1X1X1X1XhXgXgXgXkXbXbXbXcXgXgXgXgX=X=X=X=X=X=X=X=XY.I.I.I.U.=X=X=X=XI.I.I.I.l h h h g g g g a.SXSXSXCXgXgXgXgX=X=X=X=X=X=X=X=X=X=X=X=X-X1X1X1X1XhXgXgXgXgXgXgXgX-X=X=X=X=X=X=X=X=X=X=X=X=XgXgXgXgXI.u.u.u.i.I.U.I.I.k h h h N B B B Z *.*.*.:.VXVXVXVXhXgXgXgX=X=X=X=X=X=X=X-X'.'.'.'.=X1X1X1X1XcXbXbXbXlXgXgXgXgX=X=X-X=X  ",
"d.=X=X=X`.I.I.I.U.=X=X=X=XU.I.I.I.&.h h h g B B B F SXSXSXSXhXgXgXgX=X=X=X=X=X=X=X=X=X=X=X=X=X=X=X=X=X<X1X1X1XxXbXbXbXcX=X=X=X=X=X=X=X=X=X=X=X=X`.I.I.I.U.=X=X=X=XI.I.I.I.S h h h l B B B -.SXSXSXSXgXgXgXgX=X=X=X=X=X=X=X=X=X=X=X=X=X1X1X1X1XhXgXgXgXkXbXbXbXcXgXgXgXgX=X=X=X=X=X=X=X=XY.I.I.I.U.=X=X=X=XI.I.I.I.l h h h g g g g a.SXSXSXCXgXgXgXgX=X=X=X=X=X=X=X=X=X=X=X=X-X1X1X1X1XhXgXgXgXgXgXgXgX-X=X=X=X=X=X=X=X=X=X=X=X=XgXgXgXgXI.u.u.u.i.U.U.I.I.k h h h N B B B Z *.*.*.:.VXVXVXVXhXgXgXgX=X=X=X=X-X-X-X-X=X=X'.'.=X1X1X1X1XcXbXbXbXlXgXgXgXgX=X=X=X=X  ",
"d.=X=X=X`.I.I.I.U.=X=X=X=XU.I.I.I.&.h h h g B B B F SXSXSXSXhXgXgXgX=X=X=X=X=X=X=X=X=X=X=X=X=X=X=X=X=X<X1X1X1XxXbXbXbXcX=X=X=X=X=X=X=X=X=X=X=X=X`.I.I.I.U.=X=X=X=XI.I.I.I.S h h h l B B B -.SXSXSXSXgXgXgXgX=X=X=X=X=X=X=X=X=X=X=X=X=X1X1X1X1XhXgXgXgXkXbXbXbXcXgXgXgXgX=X=X=X=X=X=X=X=XY.I.I.I.U.=X=X=X=XI.I.I.I.l h h h g g g g a.SXSXSXCXgXgXgXgX=X=X=X=X=X=X=X=X=X=X-X=X-X1X1X1X1XhXgXgXgXgXgXgXgX-X=X=X=X=X=X=X=X=X=X=X=X=XgXgXgXgXI.u.u.u.i.U.U.I.I.k h h h N B B B Z *.*.*.:.VXVXVXVXhXgXgXgX=X=X=X=X-X-X-X-X=X=X=X=X=X1X1X1X1XcXbXbXbXlXgXgXgXgX=X=X=X=X  ",
"d.=X=X=X=X'.'.'.'.U.U.U.U.'.'.'.'.y.Q Q Q Q Q Q Q Q ! ! ! ! i.i.i.i.I.=X=X=X=X=X=X=X=X=X=X=X=XgXgXgXgXgXhXhXhX-X-X-X-X-X=X=X=X=X=X=X=X=X=X=X=X=X=X'.'.'.'.U.U.U.U.'.'.'.'.l.h.h.h.%.g g g S bXbXbXbX-X=X=X=X=X=X=X=X=X=X=X=X-X1X1X1X1XhXhXhXhX=X=X=X=X-XhXhXhXgX=X=X=X=X=X=X=X=X=X=X=X=X=X'.'.'.`.U.U.U.U.'.'.'.'.k.h.h.h.D B B B c.bXbXbXbX=X=X=X=X=X=X=X=X=X=X=X=X-X1X1X1X1XhXhXhXhX=X=X=X=X=X=X=X=X=X=X=X=X=X=X=X=X=Xd.s.s.s.7.XXXXXXo.@.@.@.y.i.i.i.i.h.h.h.h.=.F F F Z.xXxXxXkXb.b.b.B.=X=X=X=X=X=X=X=X=X=X=X=X=XgXgXgXgXhXhXhXhXhXhXhXhX-X=X=X=X=X=X=X=X=X  ",
"d.=X=X=X=X=X=X=X'.I.I.I.I.'.'.=X'.y.W W W W W W W W W W W W u.u.u.u.K.=X=X=X=X=X=X=X=X=X=X=X=XgXgXgXgXgXgXgXgX-X=X=X=X=X=X=X=X=X=X=X=X=X=X=X=X=X=X=X=X=X'.I.I.I.I.=X=X=X=Xl.k.k.k.%.g g g S bXbXbXbX-X=X=X=X=X=X=X=X=X=X=X=X-X1X1X1X1XgXgXgXgX=X=X=X=X-XgXgXgXgX=X=X=X=X=X=X=X=X=X=X=X=X=X=X=X=X'.I.I.I.U.=X=X=X=Xl.k.k.k.&.B B B c.bXbXbXbX=X=X=X=X=X=X=X=X=X=X=X=X-X1X1X1X1XgXgXgXgX=X=X=X=X=X=X=X=X=X=X=X=X=X=X=X=X=Xs.i.i.i.<.XXXXXX|. . . .@.u.u.u.u.k.k.k.k.=.*.*.*.Z.bXbXbXxXz.z.z.z.'.=X=X=X=X=X=X=X=X=X=X=X=XgXgXgXgXgXgXgXgXgXgXgXgX-X=X=X=X=X=X=X=X=X  ",
"d.=X=X=X=X=X=X=X'.I.I.I.I.'.=X=X=Xy.W W W W W W W W W W W W u.u.u.u.K.=X=X=X=X=X=X=X=X=X=X=X=XgXgXgXgXgXgXgXgX-X=X=X=X=X=X=X=X=X=X=X=X=X=X=X=X=X=X=X=X=X'.I.I.I.I.=X=X=X=Xl.k.k.k.%.g g g S bXbXbXbX-X=X=X=X=X=X=X=X=X=X=X=X-X1X1X1X1XgXgXgXgX=X=X=X=X-XgXgXgXgX=X=X=X=X=X=X=X=X=X=X=X=X=X=X=X=X'.I.I.I.U.=X=X=X=Xk.k.k.k.&.B B B c.bXbXbXbX=X=X=X=X=X=X=X=X=X=X=X=X-X1X1X1X1XgXgXgXgX=X=X=X=X=X=X=X=X=X=X=X=X=X=X=X=X=Xs.i.i.i.7.XXXXXX|. . . .@.u.u.u.u.k.k.k.k.=.*.*.*.Z.bXbXbXxXz.z.z.z.'.=X=X=X=X=X=X=X=X=X=X=X=XgXgXgXgXgXgXgXgXgXgXgXgX-X=X=X=X=X=X=X=X=X  ",
"d.=X=X=X=X=X=X=X'.I.I.I.I.'.=X=X=Xy.W W W W W W W W W W W W u.u.u.u.K.=X=X=X=X=X=X=X=X=X=X=X=XgXgXgXgXgXgXgXgX-X=X=X=X=X=X=X=X=X=X=X=X=X=X=X=X=X=X=X=X=X'.I.I.I.I.=X=X=X=Xl.k.k.k.%.g g g S bXbXbXbX-X=X=X=X=X=X=X=X=X=X=X=X-X1X1X1X1XgXgXgXgX=X=X=X=X-XgXgXgXgX=X=X=X=X=X=X=X=X=X=X=X=X=X=X=X=X'.I.I.I.U.-X=X=X=Xk.k.k.k.&.B B B c.bXbXbXbX=X=X=X=X=X=X=X=X=X=X=X=X-X1X1X1X1XgXgXgXgX=X=X=X=X=X=X=X=X=X=X=X=X=X=X=X=X=Xs.i.i.i.7.XXXXXX|. . . .@.u.u.u.u.k.k.k.k.=.*.*.*.Z.bXbXbXxXz.z.z.z.'.=X=X=X=X=X=X=X=X=X=X=X=XgXgXgXgXgXgXgXgXgXgXgXgX-X=X=X=X=X=X=X=X=X  ",
"d.=X=X=X=X=X=X=X=X`.`.`.`.y.y.y.y.! W W W W W W W W y y y y %.%.%.%.d.z.z.z.D.=X=X=X=X=X=X-X=XjXjXjXjXY.I.I.I.U.=X=X=X=X=X=X=X=X=X=X=X=X=X=X=X=X=X=X=X=X=X`.`.`.`.=X=X=X=Xt.[ [ [ ] B B B C c.c.c.c.Y.Y.Y.Y.'.=X=X=X=X=X=X=X-X-X-X-X:XjXjXjXjXI.H.H.H.Y.-X-X-X=X=X=X=X=X=X=X=X=X=X=X=X=X=X=X=X=X'.`.`.`.`.=X=X=X=XD v v v l m m m -.bXbXbXbX=X=X=X=X=X=X=X=XkXlXlXlXkX-X-X-X-X-X-X-X-X-X-X-X-XjXjXjXjX-XH.H.K.H.K.H.H.H.%.n n n O.+.+.+.@. . . .@.%.%.%.%.v v v v ' ' ' ' { M.M.M.y.[ [ [ [ z.z.z.z.Y.=X=X'.'.'.=X=X-XjXjXjXjXI.I.I.I.=X-X-X-X=X=X=X=X=X=X=X=X=X  ",
"d.=X=X=X=X=X=X=X=X=X=X=X=X! W W W W W W W W W W W W t t t t n %.%.%.u.u.u.u.z.=X=X=X=X=X=X=X=XkXkXkXkXK.V.V.V.K.=X=X=X=X=X=X=X=X=X=X=X=X=X=X=X=X=X=X=X=X=X=X=X=X=X=X=X=X=Xr.W W W ' C C C C C C C C I.I.I.I.'.=X=X=X=X=X=X=X=X=X=X=X=XkXkXkXkXG.V.V.V.I.=X=X=X=X=X=X=X=X=X=X=X=X=X=X=X=X=X=X=X=X=X=X=X=X=X=X=X=X=Xl h h h g g g g -.bXbXbXbX=X=X=X=X=X=X=X=XlXbXbXbXlX=X=X=X=X=X=X=X=XgXgXgXgXjXkXkXkX-XV.V.V.V.V.V.V.V.n v v v O. . . . . . . .@.D D D %.h h h h E W W W W W W W W W W W W u.u.u.u.I.=X=X=X=X'.=X=X-XkXkXkXkXC.V.V.V.`.=X'.=X=X=X=X=X=X=X=X=X=X  ",
"d.=X=X=X=X=X=X=X=X=X=X=X=X! W W W W W W W W W W W W t t t t n %.%.%.u.u.u.u.z.=X=X=X=X=X=X=X=XkXkXkXkXK.V.V.V.K.=X=X=X=X=X=X=X=X=X=X=X=X=X=X=X=X=X=X=X=X=X=X=X=X=X=X=X=X=Xr.W W W ' C C C C C C C C I.I.I.I.'.=X=X=X=X=X=X=X=X=X=X=X=XkXkXkXkXG.V.V.V.I.=X=X=X=X=X=X=X=X=X=X=X=X=X=X=X=X=X=X=X=X=X=X=X=X=X=X=X=X=Xl h h h g g g g -.bXbXbXbX=X=X=X=X=X=X=X=XlXbXbXbXlX=X=X=X=X=X=X=X=XgXgXgXgXjXkXkXkX-XV.V.V.V.V.V.V.V.n v v v O. . . . . . . .@.D %.%.%.h h h h E W W W W W W W W W W W W u.u.u.u.I.=X-X-X=X=X=X=X-XkXkXkXkXC.V.V.V.`.=X'.=X=X=X=X=X=X=X=X=X=X  ",
"d.=X=X=X=X=X=X=X=X=X=X=X=X! W W W W W W W W W W W W t t t t n %.%.%.u.u.u.u.z.=X=X=X=X=X=X=X=XkXkXkXkXK.V.V.V.K.=X=X=X=X=X=X=X=X=X=X=X=X=X=X=X=X=X=X=X=X=X=X=X=X=X=X-X=X=Xr.W W W ' C C C C C C C C I.I.I.I.'.=X=X=X=X=X=X=X=X=X=X=X=XkXkXkXkXG.V.V.V.I.=X=X=X=X=X=X=X=X=X=X=X=X=X=X=X=X=X=X=X=X=X=X=X=X=X=X=X=X=Xl h h h g g g g -.bXbXbXbX=X=X=X=X=X=X=X=XlXbXbXbXlX=X=X=X=X=X=X=X=XgXgXgXgXjXkXkXkX-XV.V.V.V.V.V.V.V.n v v v O. . . . . . . .@.D %.%.D h h h h E W W W W W W W W W W W W u.u.u.u.I.-X-X=X=X=X=X=X-XkXkXkXkXC.V.V.V.`.=X=X=X=X=X=X=X=X=X=X=X=X  ",
"d.=X=X=X=X=X=X=X=X=X=X=X=X} ! ! ! W W W W W R R R R y y y y D D D D ] ] ] ] s.K.K.K.K.=X=X=X=X-X-X-X-XH.V.V.V.K.=X=X=X=X=X=X=X=X=X=X=X=X=X=X=X=X=X=X=X=X=X=X=X=X=XL.L.L.L.r.! ! ! [ / / / / z z z z b.b.b.b.`.'.'.=X-X-X-X-X-XY.Y.Y.Y.-X-X-X-XD.V.V.V.I.=X=X=X=X=X=X=X=X=X=X=X=X=X=X=X=X=X=X=X=X=X=X=X=X=X`.`.`.`.l h h h g m m m =.kXkXkXjX=X=X=X=X=X=X=X=XkXcXcXcXkXY.Y.Y.Y.Y.Y.Y.Y.-X-X-X-X-X-X-X-X`.G.G.D.D.g.g.g.g.D n n n [ ! ! ! }  . . .@.D D D D l l l l U R R R R W W W W W W W W ] ] ] ] D.K.K.K.U.=X=X=X=X-X-X-X-XC.V.V.V.`.=X=X=X=X=X=X=X=X=X=X=X=X  ",
"d.=X=X=X=X=X=X=X=X=X=X=X=Xy. . . .! W W W R t t t t P P P P V C C C ' W W W [ u.u.u.i.=X=X=X=XC.V.V.V.V.V.V.V.K.=X=X=X=X=X=X=X=X=X=X=X=X=X=X=X=X=X=X=X=X=X=X=X=X=Xy. . . . . . . . . . . .| t t t t a h h h I.=X=X=X>XkXkXkX>XV.V.V.V.V.V.V.V.V.V.V.V.I.=X=X=X=X=X=X=X=X=X=X=X=X=X=X=X=X=X=X=X=X=X=X=X=X=XI.I.I.I.l h h h N B B B =.I.I.I.U.=X=X=X=X=X=X=X=XjXkXkXkX-XV.V.V.V.V.V.V.V.'.=X=X=XH.V.V.V.G.I.I.I.I.v v v v u.u.u.u.u t t t R  . . .@.C C C C C C C C u t t t P W W W W W W W W W W W W t.u.u.u.m.=X=X=X'.V.V.V.V.V.V.V.V.`.=X=X=X=X=X=X=X=X=X=X-X=X  ",
"d.=X=X=X=X=X=X=X=X=X=X=X=Xy. . . .! W W W R t t t t P P P P V C C C ' W W W [ u.u.u.i.=X=X=X=XC.V.V.V.V.V.V.V.K.=X=X=X=X=X=X=X=X=X=X=X=X=X=X=X=X=X=X=X=X=X=X=X=X=Xy. . . . . . . . . . . .| t t t t s h h h I.=X=X=X>XkXkXkX>XV.V.V.V.V.V.V.V.V.V.V.V.I.=X=X=X=X=X=X=X=X=X=X=X=X=X=X=X=X=X=X=X=X=X=X=X=X=XI.I.I.I.l h h h N B B B =.I.I.I.U.=X=X=X=X=X=X=X=XjXkXkXkX-XV.V.V.V.V.V.V.V.'.=X=X=XH.V.V.V.G.I.I.I.I.v v v v u.u.u.u.u t t t R  . . .@.C C C C C C C C u t t t P W W W W W W W W W W W W t.u.u.u.m.=X=X=X'.V.V.V.V.V.V.V.V.`.=X=X=X=X=X=X=X=X=X=X=X=X  ",
"d.=X=X=X=X=X=X=X=X=X=X=X=Xy. . . .! W W W R t t t t P P P P V C C C ' W W W [ u.u.u.i.=X=X=X=XC.V.V.V.V.V.V.V.K.=X=X=X=X=X=X=X=X=X=X=X=X=X=X=X=X=X=X=X=X=X=X=X=X=Xy. . . . . . . . . . . .| t t t t s h h h I.=X=X=X>XkXkXkX>XV.V.V.V.V.V.V.V.V.V.V.V.I.=X=X=X=X=X=X=X=X=X=X=X=X=X=X=X=X=X=X=X=X=X=X=X=X=XI.I.I.I.l h h h N B B B =.I.I.I.U.=X=X=X=X=X=X=X=XjXkXkXkX-XV.V.V.V.V.V.V.V.'.=X=X=XH.V.V.V.G.I.I.I.I.v v v v u.u.u.u.u t t t R  . . .@.C C C C C C C C u t t t P W W W W W W W W W W W W t.u.u.u.m.=X=X=X'.V.V.V.V.V.V.V.V.`.=X=X=X=X=X=X=X=X=X=X=X=X  ",
"d.'.'.'.'.=X=X=X=X=X=X=X=Xy.| | @.! W W W R t t t t P P P P V C *.*.' W W W [ u.u.u.i.'.=X=X'.V.V.V.V.V.V.V.V.K.=X=X=X=X=X=X=X=X'.'.'.'.'.'.'.'.'.].].].'.-X-X-X-Xy.y.y.y. . . . . .| | | | t t t t h h h h I.`.`.`.-X>X>X>X-XV.V.V.V.V.V.V.V.C.C.C.C.I.=X=X=X=X=X=X=X=X'.'.'.'.'.'.'.'.'.=X=X=X=X=X=X=X'.I.I.I.I.l h h h N B B B =.I.I.I.I.'.'.'.'.'.'.'.'.>XkXkXkX-XV.V.V.V.C.C.C.C.'.=X=X=XK.D.D.D.D.K.I.I.G.b b b b u.u.p.u.u y t t E y.y.y.y.Z Z Z Z V C C C u t t t y W W W W W W W W W W W W t.u.u.u.m.'.'.'.`.V.V.V.V.V.V.V.V.`.=X=X=X=X=X=X=X=X'.'.'.'.  ",
"D V.V.V.H.=X=X=X=X=X=X=X=Xn v v v i * * * : , , , , t t t t |  . . . . . . . . . . .y.I.I.I.I.k.k.k.k.k.k.k.k.F.=X=X'.'.=X'.=X=XC.V.V.V.V.V.V.V.v.Q.^.Q.^.KXKXKXKX^.Q.Q.Q.y. . . .Q t t t t C C C C p i i i v v v v v v v v n V.V.V.V.V.V.V.V.I.I.I.I.Y.=X=X=X=X=X=X=X'.V.V.V.V.V.V.V.V.I.=X=X=X=X=X=X=X'.V.V.V.V.l h h h N B B B -.I.I.I.I.V.V.V.V.V.C.C.V.V.V.V.V.V.V.V.V.C.I.I.I.I.'.=X=X=X=X=X=X=XG.v v v b W W W W W W W W j.w.S.S.9XIXIXIXLXw.w.w.w.> * * * # @ @ @ 1 t t t y W W W W  . . . .p.u.u.u.z.I.I.I.I.k.k.k.k.k.k.k.k.Y.=X=X=X=X=X=X=X'.V.V.V.V.  ",
"D V.V.V.H.=X=X=X=X=X=X=X=Xn v v v i * * * : , , , , t t t t |  . . . . . . . . . . .y.I.I.I.I.k.k.k.k.k.k.k.k.F.=X=X=X=X=X=X=X=XC.V.V.V.V.V.V.V.v.Q.^.^.^.KXKXKXKX^.Q.Q.Q.y. . . .Q t t t t C C C C p i i i v v v v v v v v n V.V.V.V.V.V.V.V.I.I.I.I.Y.=X=X=X=X=X=X=X'.V.V.V.V.V.V.V.V.I.=X=X=X=X=X=X=X'.V.V.V.V.l h h h N B B B =.I.I.I.I.V.V.V.V.V.V.V.V.V.V.V.V.V.V.V.V.C.I.I.I.I.'.=X=X=X=X=X=X'.G.v v v b W W W W W W W W j.w.S.S.9XIXIXIXLXw.w.w.w.: * * * # @ @ @ 1 t t t y W W W W  . . . .p.u.u.u.z.I.I.I.I.k.k.k.k.k.k.k.k.Y.=X=X=X=X=X=X=X'.V.V.V.V.  ",
"D V.V.V.H.=X=X=X=X=X=X=X=Xn v v v i * * * : , , , , t t t t |  . . . . . . . . . . .y.I.I.I.I.k.k.k.k.k.k.k.k.F.=X=X=X=X=X=X=X=XC.V.V.V.V.V.V.V.v.^.^.^.^.KXKXKXKX^.Q.Q.Q.y. . . .Q t t t t C C C C i i i i v v v v v v v v n V.V.V.V.V.V.V.V.I.I.I.I.Y.=X=X=X=X=X=X=X'.V.V.V.V.V.V.V.V.I.=X=X=X=X=X=X=X'.V.V.V.V.l h h h N B B B -.I.I.I.I.V.V.V.V.V.V.V.V.V.V.V.V.V.V.V.V.C.I.I.I.I.'.=X=X=X=X=X=X'.G.v v v b W W W W W W W W j.w.S.S.9XIXIXIXPXw.w.w.w.: = * * # @ @ @ 1 t t t y W W W W  . . . .p.u.u.u.z.I.I.I.I.k.k.k.k.k.k.k.k.Y.=X=X=X=X=X=X=X'.V.V.V.V.  ",
"D V.V.V.H.=X=X=X=X=X=X=X=Xn v v v i * * * : , , , 7 t t t t |  . . . . . . . . . . .y.I.I.I.I.k.k.k.k.k.k.k.k.F.=X=X=X=X=X=X=X=XC.V.V.V.V.V.V.V.v.Q.^.^.^.KXKXKXKX^.Q.Q.Q.y. . . .Q t t t t C C C C i i i i v v v v v v v v D V.V.V.V.V.V.V.V.I.I.I.I.Y.=X=X=X=X=X=X=X'.V.V.V.V.V.V.V.V.I.=X=X=X=X=X=X=X'.V.V.V.V.l h h h N B B B =.I.I.I.I.V.V.V.V.V.V.V.V.V.V.V.V.V.V.V.V.C.I.I.I.I.'.=X=X=X=X=X=X=XG.v v v b W W W W W W W W j.w.w.w.9XIXIXIXPXw.w.S.w.: * * * # @ @ @ 1 t t t y W W W W  . . . .p.u.u.u.z.I.I.I.I.k.k.k.k.k.k.k.k.Y.=X=X=X=X=X=X=X'.V.V.V.V.  ",
"c k.k.k.k.k.k.k.k.l l l l h h h h p.h.h.h.u.8 8 8 8 w.w.w.w.aXsXsXsXL.}.}.}.}.}.}.}.XXXXXXXXXXk h h h p.k.k.k.k.k.k.k.k.k.k.k.k.k.k.k.k.k.k.k.k.9XJXJXJXJX4X4X4X4XtXtXtXtXA = = = = * * * * @ @ @ @ V V V V V C V V C C C C V Q Q Q Q > > > > h.k.k.k.b a a a a a a a a h h h h k.k.k.k.k.k.k.k.h.l l l l h h h h h.k.k.k.=.F F F -.C.C.C.V.h h h h h h h h h h h h n k.k.k.k.k.k.k.k.k.k.k.k.b c c c ' @.@.@.|  . . . . . . . .GXPXPXPXJX4X4X4X4XsXsXsXsXx s s s > : : : i v v v k = = = = s x x x h h h h h l l l k h h h h k.k.k.k.k.k.k.k.k.k.k.k.k.k.k.k.k.  ",
"c k.k.k.k.k.k.k.k.h h h h h h h h p.k.k.k.u.8 8 8 f w.w.w.w.sXfXfXfXL.XXXXXXXXXXXXXXXXXXXXXXXXk h h h p.k.k.k.k.k.k.k.k.k.k.k.k.k.k.k.k.k.k.k.k.9XKXKXKXJX5X5X5X5XyXyXyXyXA = = = = ; ; ; # o o o o C C C C C C C C C C C C V W W W W * * = * p.k.k.k.b i i i i i i i i h h h h h.k.k.k.k.k.k.k.p.h h h h h h h h h.k.k.k.=.*.*.*.-.V.V.V.V.h h h h h h h h h h h h v k.k.k.k.k.k.k.k.k.k.k.k.b s s s '  . . . . . . . . . . . .GXIXIXIXJX5X5X5X4XfXfXfXfXc s s s > : : : i v v v v * * * * s s s s h h h h h h h h h h h h h k.k.k.k.k.k.k.k.k.k.k.k.k.k.k.k.k.  ",
"c k.k.k.k.k.k.k.k.h h h h h h h h p.k.k.k.u.8 8 8 f w.w.w.w.sXfXfXfXL.XXXXXXXXXXXXXXXXXXXXXXXXk h h h p.k.k.k.k.k.k.k.k.k.k.k.k.k.k.k.k.k.k.k.k.9XKXKXKXJX5X5X5X5XyXyXyXyXA = = = = ; ; ; # o o o o C C C C C C C C C C C C V W W W W * = = * p.k.k.k.b i i i i i i i i h h h h h.k.k.k.k.k.k.k.p.h h h h h h h h h.k.k.k.=.*.*.*.-.V.V.C.V.h h h h h h h h h h h h v k.k.k.k.k.k.k.k.k.k.k.k.b s s s '  . . . . . . . . . . . .GXIXIXIXJX5X5X5X4XfXfXfXfXc s s s > : : : i v v v v * * * * s s s s h h h h h h h h h h h h h k.k.k.k.k.k.k.k.k.k.k.k.k.k.k.k.k.  ",
"c k.k.k.k.k.k.k.k.h h h h h h h h p.k.k.k.u.8 8 8 8 w.w.w.w.sXfXfXfXL.XXXXXXXXXXXXXXXXXXXXXXXXk h h h p.k.k.k.k.k.k.k.k.k.k.k.k.k.k.k.k.k.k.k.k.9XKXKXKXJX5X5X5X%XyXyXyXyXA = = = = ; ; ; # o o o o C C C C C C C C C C C C V W W W W * * * * p.k.k.k.b i i i i i i i i h h h h h.k.k.k.k.k.k.k.p.h h h h h h h h h.k.k.k.=.*.*.*.-.V.V.V.V.h h h h h h h h h h h h v k.k.k.k.k.k.k.k.k.k.k.k.b s s s '  . . . . . . . . . . . .GXIXIXIXJX5X5X5X4XfXfXfXfXc s s s > : : : p v v v v * * * * s s s s h h h h h h h h h h h h h k.k.k.k.k.k.k.k.k.k.k.k.k.k.k.k.k.  ",
"i n S n S S S S S N N N N g g g g 8XuXuXuX0X8X8X8X8X2X2X2X2XiXiXpXpXn.#.#.#.<.XXXXXXXX X X X X8 8 8 8 l S S S S n n n n ! ! ! ! ! ! [ ! %.&.&.&.v.(.(.(.(.DXDXDXDX(.(.(.(.] U U U r r r r r E E E E O.O.O.O.O.O.O.O.' u u u u / / / / U U U U E ! ! ! j : : : > h h h h N N N N S S S S S S S S S N N N N N N N N S S S S Z Z Z Z Z S S S S g g g g g g g g g g g g l S S S n D S S S a a a a ` o.o.o.o.|.|.|.|.|.|.|.|.W W W W S.8X8X8X9XHXHXHXHX8X8X8X8XN N N N m m m m N N N N N g g g g N N N N N N N N N N N N N g g g g S S S S S S S S S S S S S S S S S   ",
"> g g g g g g g g B B B B g g g g 0XfXfXfXaXiXiX0X0X$X$X$X$X0XiXiXiXv.C C C #.XXXXXXXXOXOXOXOX8 , , , f g g g g g g g g W W W W W W W W %.C C C G Q.Q.Q.^.yXyXyXyXQ.Q.Q.Q.[ W W W R P P P T  . . . . . . . . . . . .W t t t r C C C C W W W W W W W W u : : : > g g g g B B B B B B B B B B B B B B B B B B B B B B B B B B B B B N g g g g g g g g g g g g g g g g g g g g g B B B B : : : : ..XXXXXXXXXXXXXXXXXXXXXXXXP P P P j.S.w.S.8XfXfXfXsXw.w.w.w.B B B B B B B B B B B B B B B B B B B B B B B B B B B B B B g g g g B B B B B B B B B B B B B g g g g   ",
"> g g g g g g g g B B B B g g g g 0XfXfXfXaXiXiX0X0X$X$X$X$X0XiXiXiXv.C C C #.XXXXXXXXOXOXOXOX8 , , , f g g g g g g g g W W W W W W W W %.C C C G Q.Q.Q.^.yXyXyXyXQ.Q.Q.Q.[ W W W R P P P T  . . . . . . . . . . . .Q t t t r C C C C W W W W W W W W u : : : > g g g g B B B B B B B B B B B B B B B B B B B B B B B B B B B B B N g g g g g g g g g g g g g g g g g g g g g B B B B : : : : ..XXXXXXXXXXXXXXXXXXXXXXXXP P P P j.S.S.S.8XfXfXfXsXw.w.w.w.B B B B B B B B B B B B B B B B B B B B B B B B B B B B B B g g g g B B B B B B B B B B B B B g g g g   ",
"> g g g g g g g g B B B B g g g g 0XfXfXfXaXiXiX0X0X$X$X$X$X0X0XiXiXv.C C C #.XXXXXXXXOXOXOXOX8 , , , f g g g g g g g f W W W W W W W W / C C C G Q.Q.Q.^.yXyXyXyX^.Q.Q.Q.[ W W W R P P P T  . . . . . . . . . . . .W t t t r C C C C W W W W W W W W u : : : > g g g g B B B B B B B B B B B B B B B B B B B B B B B B B B B B B N g g g g g g g g g g g g g g g g g g g g g B B B B : : : : ..XXXXXXXXXXXXXXXXXXXXXXXXP P P P j.S.w.w.8XfXfXfXsXw.S.w.w.B B B B B B B B B B B B B B B B B B B B B B B B B B B B B B g g g g B B B B B B B B B B B B B g g g g   ",
"l c.c.c.c.b.b.b.b.n.n.n.n.c.c.c.c.9XiXiXiX0XeXeXeXeX%X%X%X%XeXeXeXeX~.F F F =.X.X.X.X.3.3.3.3.d d d d D =.=.=.&./ / / / ! ! ! ! ! ! ! ! ~ z z z S q.q.q.q.(.8X8X(.0.0.0.0.[ ! ! } Q U U U Y +.+.+.+. . . . .! ! ! ! R u u u u z z z z ' ' ' ' ! ! ! ! Y j j j j h h h h B B B B c.n.n.n.Z.J.J.J.Z.Z.Z.Z.Z.Z.Z.Z.Z.n.n.n.n.n.n.n.n.c.c.c.c.c.=.=.=.=.=.=.=.=.&.S D D D D D D &.=.=.=.=.d d d d <. X X XXXXXXXXXXX+.+.+.+.Y Y Y Y S 0.0.0.S.8X8X8X8X0.q.q.q.n.n.n.n.n.n.n.n.n.n.n.n.n.c.c.c.c.c.c.c.c.c.c.c.c.c.c.c.c.c.a.a.a.a.a.a.a.a.=.=.=.=.=.=.=.=.=.N N N N   ",
"C.bXbXbXmXVXVXVXVXbXbXbXbXbXbXbXbX_.S.S.S.(.$X$X$X$X5X5X5X5X$X$X$X$X(.w.w.w.0.i i i i i i i i v v v v V.I.I.I.M. . . . . . . . . . . . .T t t t w 7 7 7 7 < < < < e e e e }  . . .[ l l l / XXXXXXXX . . . .y t t t u s h s s t t t t C C C C @. . . . . . . .O.s s s s B B B B kXbXbXbXCXFXFXFXFXSXSXSXSXSXSXSXSXnXbXbXbXbXbXbXbXbXbXbXbXcXI.I.I.I.I.I.I.I.G.C.C.C.V.V.V.V.V.V.V.V.V.%.%.%.%. XOXOXOX XXXXXXX}.W W W W C C C C 9 8 8 8 7 e e e e v n n n xXbXbXbXbXbXbXbXbXbXbXbXbX1X1X1X1X1X1X1X1X1X1X1X1X1X1X1X1X1X=X=X=X=XU.I.I.I.D.V.V.C.C.V.V.V.m.*.*.*.*.  ",
"C.bXbXbXmXVXVXVXVXbXbXbXbXbXbXbXbX_.S.S.S.(.$X$X$X$X5X5X5X5X$X$X$X$X(.w.w.w.0.i i i i i i i i v v v v V.I.I.I.M. . . . . . . . . . . . .T t t t w 7 7 7 7 < < < < e e e e }  . . .[ l l l / XXXXXXXX . . . .y t t t u h h h s t t t t C C C C @. . . . . . . .O.s s s s B B B B kXbXbXbXCXFXFXFXFXSXSXSXSXSXSXSXSXnXbXbXbXbXbXbXbXbXbXbXbXcXI.I.I.I.I.I.I.I.G.C.C.C.C.C.V.V.V.V.V.V.V.%.%.%.D  XOXOXOX XXXXXXX}.W W W W C C C C 9 8 8 8 7 e e e e v n n n xXbXbXbXbXbXbXbXbXbXbXbXbX1X1X1X1X1X1X1X1X1X1X1X1X1X1X1X1X1X=X=X=X=XU.I.I.I.D.V.V.C.C.V.V.V.m.*.*.*.*.  ",
"C.bXbXbXmXVXVXVXVXbXbXbXbXbXbXbXbX_.w.w.w.(.$X$X$X$X5X5X5X5X$X$X$X$X(.w.w.w.0.i i i i i i i i v v v v V.I.I.I.M. . . . . . . . . . . . .T t t t w 7 7 7 i < < < < e e e e }  . . .[ l l l / XXXXXXXX . . . .y t t t u h h h s t t t t C C C C @. . . . . . . .O.s s s s B B B B kXbXbXbXCXFXFXFXFXSXSXSXSXSXSXSXSXnXbXbXbXbXbXbXbXbXbXbXbXcXI.I.I.I.I.I.I.I.G.V.V.V.V.V.V.V.V.V.V.V.V.%.%.%.D 6.OXOXOX XXXXXXX}.W W W W C C C C 9 8 8 8 7 e e e e n n n n xXbXbXbXbXbXbXbXbXbXbXbXbX1X1X1X1X1X1X1X1X1X1X1X1X1X1X1X1X1X=X=X=X=XU.I.I.I.D.V.V.V.C.C.V.V.m.*.*.*.*.  ",
"C.bXbXbXmXVXVXVXVXcXcXcXcXcXcXcXcX_.S.w.w.(.3X3X3X3X5X5X5X5X3X3X3X3X(./././.0.p p p p i i i p n n n n V.I.I.I.M.y.y.@.@.y.y.y.y.y.y.y.y.E y y y u p i i i < < < < e e e e } @.@.@.[ l l l n .X.X.X.X@.@.@.@.y t t t u h h h a t t t t V V V V O.@.@.@.@.@.@.@.O.s s s s N N N N lXbXbXbXVXFXFXFXSXCXCXCXCXCXCXCXCXbXcXcXcXcXcXcXcXcXbXbXbXcXU.U.U.U.U.U.U.U.G.D.D.D.C.V.V.V.V.C.C.C.C.u.u.u.u.6.oXoXoX X{.o.{.o.W W W W V V C V 9 9 9 9 0 r r r r n n n n lXxXxXxXcXcXcXcXcXcXcXcXcX1X1X1X1X1X1X1X1X1X1X1X1X1X1X1X1X1X=X=X=X=XU.U.U.U.D.C.C.C.V.m.m.m.b.F F F F   ",
"C.bXbXbXlXgXgXgXgX=X=X=X=X=X'.'.'.V.d.d.d.S.iXiXiX0X$X$X$X$X0XiX0XiXsXfXfXfX0Xu.u.u.u.v v v v I.I.I.I.i.%.%.%.;.XXXXXX.XS.S.w.w.PXIXIXIX8XS.w.w.0.k k k k %.D D D a a a a n %.%.%.%.%.D %.%.%.%.%.%.D D %.%.a a a a a k k k k a a a a t t t t V C C C ,.XXXXXXo.P P P P : : : : mXVXVXVXmX1X1X1X1X1X1X1X1X1X1X1X1X-X=X=X=X=X=X=X=X-X1X1X1X1XbXbXbXbX-X=X=X=X=X=X=X=XY.V.V.V.C.I.I.I.I.'.=X=X'.d.v v v a @ @ @ @ ; ; ; ; t t t t }  . . . . . . . . . . . .i.i.i.i.I.=X=X=X-XgXgXgXgXgXgXgXgX=X=X=X=X=X=X=X=X=X=X=X=X=XgXgXgXgX=X=X=X=XU.I.I.I.g.h h h h B B B B   ",
"C.bXbXbXlXgXgXgXgX=X=X=X=X=X'.'.'.m.d.d.d.S.iXiXiX0X$X$X$X$X0X0X0X0XsXfXfXfX0Xu.u.u.u.v v v v I.I.I.I.i.%.%.%.;.XXXXXX.XS.S.w.w.PXIXIXIX8XS.w.w.0.k k k k %.D D D a a a a n %.%.%.%.%.D D %.%.%.%.%.D D %.%.a a a a a k k k k a a a a t t t t V C C C <.XXXXXXo.P P P P : : : : mXVXVXVXmX1X1X1X1X1X1X1X1X1X1X1X1X-X=X=X=X=X=X=X=X-X1X1X1X1XbXbXbXbX-X=X=X=X=X=X=X=XY.V.V.V.C.I.I.I.I.'.=X=X'.d.v v v a @ @ @ @ ; ; ; ; t t t t }  . . . . . . . . . . . .i.i.i.i.I.=X=X=X-XgXgXgXgXgXgXgXgX=X=X=X=X=X=X=X=X=X=X=X=X=XgXgXgXgX=X=X=X=XU.I.I.I.g.h h h h B B B B   ",
"B.bXbXbXlXgXgXgXgX=X=X=X=X=X=X=X=XV.d.d.d.S.iXiXiX0X$X$X$X$X0XiXiXiXsXfXfXfX0Xu.u.u.u.v v v v I.I.I.I.i.%.%.%.;.XXXXXX.Xw.w.S.S.PXIXIXIX8Xw.w.w.0.k k k k %.D D %.a a a a n D D %.%.%.%.%.%.%.%.%.%.D %.D D a a a a a k k k k a a a a t t t t V C C C <.XXXXXXo.P P P P : : : : mXVXVXVXmX1X1X1X1X1X1X1X1X1X1X1X1X-X=X=X=X=X=X=X=X-X1X1X1X1XbXbXbXbX-X=X=X=X=X=X=X=XY.V.V.V.C.I.I.I.I.'.=X=X'.d.v v v a @ @ @ @ ; ; ; ; t t t t }  . . . . . . . . . . . .s.i.i.i.I.=X=X=X-XgXgXgXgXgXgXgXgX=X=X=X=X=X=X=X=X=X=X=X=X=XgXgXgXgX=X=X=X=XU.I.I.I.g.h h h h B B B B   ",
"B.bXbXbXlXgXgXgXgX=X=X=X=X=X=X=X=XV.d.d.d.S.iXiXiX0X$X$X$X$X0XiXiXiXsXfXfXfX0Xu.u.u.u.v v v v I.I.I.I.i.%.%.%.;.XXXXXX.Xw.w.S.w.PXIXIXIX8Xw.w.w.0.k k k k %.D D %.a a a a n %.D %.%.%.%.%.%.%.%.%.%.D D %.D a a a a a k k k k a a a a t t t t V C C C <.XXXXXXo.P P P P : : : : mXVXVXVXmX1X1X1X1X1X1X1X1X1X1X1X1X-X=X=X=X=X=X=X=X-X1X1X1X1XbXbXbXbX-X=X=X=X=X=X=X=XY.V.V.V.C.I.I.I.I.'.=X=X=Xd.v v v a @ @ @ @ ; ; ; ; t t t t }  . . . . . . . . . . . .s.i.i.i.I.=X=X=X-XgXgXgXgXgXgXgXgX=X=X=X=X=X=X=X=X=X=X=X=X=XgXgXgXgX=X=X=X=XU.I.I.I.g.h h h h B B B B   ",
"C.bXbXbXlX=X=X=X=X=X=X=X=X1X1X1X1X-X'.'.'.9XfXfXfXsX~.~.~.~.u u u u u u u u U Q Q Q Q u.u.u.u.%.%.%.%.u.u.u.u.n a a a v PXPXPXPX4X5X4X4XaXsXsXsX9XD n D ] %.D %.%.u.u.u.u.G.I.I.I.I.I.I.I.I.I.I.I.I.I.I.I.I.u.%.n n n n D D D D D D ] | | | | | @.@.@.@.@.@.@.| t t t t , , , , :X1XlXlX>X-X-X-X-X1X1X1X1X-X-X-X-XgXgXgXgX<X1X1X1X<X-X-X-X-X-X-X-X-X=X=X=X=X=X=X=X=X'.'.'.'.'.'.'.'.'.=X=X=X'.H.V.V.V.i.= * * * , , , , a a a a r y y y R  . . .@.}.}.}.}.u.u.u.u.I.=X=X=X=X=X=X=X=X=X=X=X=X=X=X=X=X=X=X=X=X-XgXgXgXgX=X=X=X=X=X=X=X=X=X'.'.'.G.k.k.k.h.F F F F   ",
"C.bXbXbXlX=X=X=X=X=X=X=X=X1X1X1X1X:X-X-X-X9XfXfXfXsXw.w.w.w.u e e e e e e e P W W W Q u.u.u.u.%.%.%.%.u.u.u.u.n a a a v IXIXIXIX4X5X5X5XaXfXfXfX9X%.%.%.%.%.%.%.%.u.u.u.u.G.I.I.I.I.I.I.I.I.I.I.I.I.I.I.I.I.i.%.%.%.%.%.%.%.%.%.%.%.%. . . . . . . . . . . . .| t t t t , , , , :X1X1X1X>X=X=X=X-X1X1X1X1X=X=X=X=XgXgXgXgX<X1X1X1X<X=X=X=X=X=X=X=X=X=X=X=X=X=X=X=X=X=X=X=X=X=X=X=X=X=X=X=X=X=XH.V.V.V.d.* = * * , , , , a a a a w t t t R  . . .@.XXXXXXXX&.u.u.u.I.=X=X=X=X=X=X=X=X=X=X=X=X=X=X=X=X=X=X=X=X-XgXgXgXgX=X=X=X=X=X=X=X=X=X=X=X=XG.k.k.k.k.*.*.*.*.  ",
"C.bXbXbXlX=X=X=X=X=X=X=X=X1X1X1X1X-X=X=X=X9XfXfXfXsXw.w.w.w.r e e e e e e e P W W W Q u.u.u.u.%.%.%.%.u.u.u.u.n a a a v IXIXIXIX4X5X5X5XaXfXfXfX9XD %.%.%.%.%.%.%.u.u.u.u.G.I.I.I.I.I.I.I.I.I.I.I.I.I.I.I.I.u.%.%.%.%.%.%.%.%.%.%.%.]  . . . . . . . . . . . .| t t t t , , , , :X1X1X1X>X=X=X=X-X1X1X1X1X=X=X=X=XgXgXgXgX<X1X1X1X<X=X-X-X=X=X=X=X=X=X=X=X=X=X=X=X=X=X=X=X=X=X=X=X=X=X=X=X=X=XH.V.V.V.d.* * * * , , , , a a a a w t t t R  . . .@.XXXXXXXXu.u.u.u.I.-X-X'.'.'.'.=X=X=X=X=X=X=X=X=X=X=X=X=X=X-XgXgXgXgX=X=X=X=X=X=X=X=X=X=X=X=XG.k.k.k.k.*.*.*.*.  ",
"C.bXbXbXlX=X=X=X=X=X=X=X=X1X1X1X1X-X=X=X=X9XfXfXfXsXw.S.w.w.r e e e e e e e P W W W Q u.u.u.u.%.%.%.%.u.u.u.u.n a a a v IXIXIXIX4X5X5X5XaXfXfXfX9XD %.%.%.%.%.%.%.u.u.u.u.G.I.I.I.I.I.I.I.I.I.I.I.I.I.I.I.I.u.%.%.%.%.%.%.%.%.%.%.%.%. . . . . . . . . . . . .| t t t t , , , , :X1X1X1X>X=X=X=X-X1X1X1X1X=X=X=X=XgXgXgXgX<X1X1X1X<X=X=X-X=X=X=X=X=X=X=X=X=X=X=X=X=X=X=X=X=X=X=X=X=X=X=X=X=X=XH.V.V.V.d.* * * * , , , , a a a a w t t t R  . . .@.XXXXXXXXu.u.u.u.I.-X-X'.'.'.=X=X=X=X=X=X=X=X=X=X=X=X=X=X=X-XgXgXgXgX=X=X=X=X=X=X=X=X=X=X=X=XG.k.k.k.k.*.*.*.*.  ",
"i.I.I.I.U.=X=X=X=XU.U.U.U.-X-X-X-X-X=X=X=XI.j.j.j.j.c c c c R R R R R R R R R y y y y C C C C C C C C ' E E E E E E E ' 8X8X8X8XaXHXHXHX9X8X8X8X_.I.I.I.I.D.D.D.D.D.D.D.D.I.I.I.I.I.I.I.I.I.I.I.I.I.I.I.I.I.k.h.h.h.h.h.h.h.s.<.<.<.7.|.|.|.|.|.|.|.|.} R R R R z z z z , , , , b.B.B.B.b.l.l.l.V.hXhXhXhX=X-X-X-X-XgXgXgX-X-X-X-X-X=X=X=X=X=X=X=X=X=X=X=X=X=X=X=X=X'.U.U.U.Y.=X=X=X=X=X=X=X=XU.I.I.I.z.a a a a f f f f l v v v l z z z z j j j j v.v.v.v.GXDXGXDX(.~.~.^._.'.'.'.=XkXkXkXkXH.G.G.G.G.G.G.G.G.G.G.G.K.U.U.U.U.=X=X=X=XY.U.U.U.z.v v v v N N N N   ",
"D V.V.V.H.=X=X=X'.I.I.I.I.'.=X=X=X=X=X-X=XD.h h h a e e e e W W W W W W W W R t t t t C C C C C C C C E W W W W W W W Q w.w.w.w.sXfXfXfX8Xw.w.S._.gXgXgX-XI.I.I.I.I.I.I.I.I.I.I.I.I.I.I.I.I.I.I.I.I.I.I.I.I.l.k.k.k.k.k.k.k.k.XXXXXXXXXXXXXXXXXXXXXXXX} P P P T C C C C , , , , a.f.f.f.i.i.i.i.l.gXgXgXgX=X-X-X-X-XgXgXgX-X=X=X=X=X=X=X=X=X=X=X=X=X=X=X=X=X=X=X=X=X`.I.I.I.U.=X=X=X=X=X=X=X=XY.I.I.I.b.h h h h g g g g v v v v V C C C N a a a h Q.^.^.^.JXKXKXKX(.^.^.Q./.=X=X'.-XkXkXkXkXD.V.V.V.V.V.V.V.V.V.V.V.C.I.I.I.I.=X=X=X=XU.I.I.I.g.h h h h g g g g   ",
"D V.V.V.H.=X=X=X'.I.I.I.I.'.=X=X=X=X=X=X=XD.h h s a e e e e W W W W W W W W R t t t t C C C C C C C C E W W W W W W W ! w.S.w.w.sXfXfXfX8Xw.w.w._.gXgXgX-XI.I.I.I.I.I.I.I.I.I.I.I.I.I.I.I.I.I.I.I.I.I.I.I.I.l.k.k.k.k.k.k.k.k.XXXXXXXXXXXXXXXXXXXXXXXX} P P P T C C C C , , , , a.f.f.f.i.i.i.i.l.gXgXgXgX=X=X=X=XgXgXgXgX-X=X=X=X=X=X=X=X=X=X=X=X=X=X=X=X=X=X=X=X=X`.I.I.I.U.=X=X=X=X=X=X=X=XY.I.I.I.b.h h h h g g g g v v v v V C C C N a a a h ^.^.^.Q.JXKXKXKX(.Q.Q.Q./.=X=X=X-XkXkXkXkXD.V.V.V.V.V.V.V.V.V.V.V.C.I.I.I.I.=X=X=X=XU.I.I.I.g.h h h h g g g g   ",
"D V.V.V.H.=X=X=X'.I.I.I.I.'.=X=X=X=X=X=X=XD.h h h a e e e e W W W W W W W W R t t t t C C C C C C C C E W W W W W W W ! S.S.w.w.sXfXfXfX8Xw.w.w.J.gXgXgXgXI.I.I.I.I.I.I.I.I.I.I.I.I.I.I.I.I.I.I.I.I.I.I.I.I.l.k.k.k.k.k.k.k.k.XXXXXXXXXXXXXXXXXXXXXXXX} P P P T C C C C , , , , a.f.f.f.i.i.i.i.l.gXgXgXgX=X=X=X-XgXgXgXgX-X=X=X=X=X=X=X=X=X=X=X=X=X=X=X=X=X=X=X=X=X`.I.I.I.U.=X=X=X=X=X=X=X=XY.I.I.I.b.h h h h g g g g v v v v V C C C N a a a h ^.^.^.Q.JXKXKXKX(.Q.Q.Q./.=X=X=X-XkXkXkXkXD.V.V.V.V.V.V.V.V.V.V.V.C.I.I.I.I.=X=X=X=XU.I.I.I.g.h h h h g g g g   ",
"D V.V.V.G.`.`.`.`.Y.Y.Y.Y.`.`.`.`.'.=X=X=XK.u.u.u.u.I I I I W W W W R R R R T u u u u / / / / z z z j ! } } } } ! ! ! ! a.a.u.u.8X8X8X8Xq.0.0.0.n.@X=X=X@XI.I.I.I.I.I.I.I.I.I.I.I.I.I.I.I.I.I.I.I.I.H.H.H.H.x.l.l.l.k.k.k.k.k. X X X XXXXXXXXX+.+.+.+.E u u u u / / / / 9 9 9 9 { { { { { { { { s._._._._.9X9X9X9XgX-X-X-X=X=X=X=X'.`.`.`.`.=X=X=X=X=X=X=X=X`.`.`.`.`.Y.Y.Y.Y.=X=X=X=X=X=X=X=X`.Y.Y.Y.D.n n n v 8 8 8 8 ' ' ' ' / / / / z f f f N qXqXqXqXDXDXDXDXqX(.(.(.(.=X=X=X=X=X=X'.'.G.G.G.G.C.V.V.V.G.K.K.K.K.Y.Y.Y.Y.`.`.`.`.U.I.I.I.g.h h h h m m m m   ",
"D V.V.V.D.I.I.I.U.=X=X=X=XU.I.I.I.`.=X=X=X`.I.I.I.I. . . . .W W W W y t t t u a a a a W W W W t t t t }  . . . . . . .| U U U U @ @ @ @ > 7 i i &.I.I.I.I.I.I.I.I.I.I.I.I.I.I.I.I.I.I.I.I.I.I.I.I.I.V.V.V.V.V.V.V.V.l.k.k.k.s.OXOXOXOXXXXXXXXX! W W W u i i i p W W W Q C C C C Q W W W W W W W [ Q.Q.Q.^.yXyXyXyX].=X=X=X=X=X=X=X`.I.I.I.U.=X=X=X=X=X=X=X=XY.I.I.I.Y.=X=X=X=X=X=X=X=X=X=X=X=X=X=X=X=XI.k.k.k.h.: : : : W W W W W W W W ' C C C *.KXKXKXKX5X5X%X%XDXyXyXyXeX=X=X=X'.V.V.V.V.I.I.I.I.D.V.V.V.K.=X=X=X=X=X=X=X=XU.I.I.I.I.I.I.I.g.h h h h B B B B   ",
"D V.V.V.D.I.I.I.U.=X=X=X=XU.I.I.I.`.=X=X=X`.I.I.I.I. . . . .W W W W y t t t u a a a a W W W W t t t t }  . . . . . . .| U U U U @ @ @ @ > 7 i i u.I.I.I.I.I.I.I.I.I.I.I.I.I.I.I.I.I.I.I.I.I.I.I.I.I.V.V.V.V.V.V.V.V.l.k.k.k.k.OXOXOXOXXXXXXXXX! W W W u i i i p W W W Q C C C C Q W W W W W W W [ Q.Q.Q.^.yXyXyXyX].=X=X=X=X=X=X=X`.I.I.I.U.=X=X=X=X=X=X=X=XY.I.I.I.Y.=X=X=X=X=X=X=X=X=X=X=X=X=X=X=X=XI.k.k.k.h.: : : : W W W W W W W W ' C C C *.KXKXKXKX4X5X5X5XDXyXyXyXeX=X=X=X'.V.V.V.V.I.I.I.I.D.C.C.C.K.=X=X=X=X=X=X=X=XU.I.I.I.I.I.I.I.g.h h h h B B B B   ",
"D V.V.V.D.I.I.I.U.=X=X=X=XU.I.I.I.`.=X=X=X`.I.I.I.I. . . . .W W W W y t t t u a a a a W W W W t t t t }  . . . . . . .| U U U U @ @ @ @ > 7 i i u.I.I.I.I.I.I.I.I.I.I.I.I.I.I.I.I.I.I.I.I.I.I.I.I.I.V.V.V.V.V.V.V.V.l.k.k.k.k.OXOXOXOXXXXXXXXX! W W W u i i i p W W W Q C C C C Q W W W W W W W [ Q.Q.Q.^.yXyXyXyX].=X=X=X=X=X=X=X`.I.I.I.U.=X=X=X=X=X=X=X=XY.I.I.I.Y.=X=X=X=X=X=X=X=X=X=X=X=X=X=X=X=XI.k.k.k.h.: : : : W W W W W W W W ' C C C *.KXKXKXKX4X5X5X5XDXyXyXyXeX=X=X=X`.V.V.V.V.I.I.I.I.D.C.V.V.K.=X=X=X=X=X=X=X=XU.I.I.I.I.I.I.I.g.h h h h B B B B   ",
"D V.V.V.D.I.I.I.I.'.'.'.'.U.U.U.U.`.'.'.'.`.I.U.U.I.@.@.@.@.Q Q Q Q y t t t u s s s s W W W W y y y y } | | | |  . . .| Y Y Y Y @ @ @ @ 7 p p p u.I.I.I.I.I.I.I.I.I.I.I.I.I.I.I.I.I.I.I.I.I.I.I.I.I.V.V.V.V.V.V.V.V.l.k.k.k.l.oXoXoXoX.X.X.X.XQ Q Q Q u p p p j W W W Q V V V V [ [ [ [ ! ! ! ! { ^.^.^.^.tXtXtXtX].=X=X'.'.'.'.'.`.U.U.U.U.=X=X=X=X=X=X=X=XY.U.U.U.Y.=X=X=X=X=X=X=X=X=X=X=X=X'.=X=X=XI.h.h.h.p.7 7 7 7 W W W W W W W W ' V V V *.JXJXJXJX4X4X4X4XDXtXtXtXwX`.`.`.Y.x.x.x.x.L.L.L.L.V.V.m.m.H.'.'.'.'.'.'.'.'.U.U.U.U.I.I.I.I.g.h h h h B B B B   ",
"D V.V.V.V.V.V.V.C.I.I.I.I.'.=X=X-XY.I.I.I.Y.=X=X'.`.D D %.%.h h h h h h h h '  . . . . . . . . . . . .T t t t R  . . .@.XXXXXXXX8 , , , p.k.k.k.l.V.V.V.C.U.I.I.I.k.k.k.k.k.k.k.k.k.k.k.k.k.I.I.I.I.k.k.k.k.k.k.k.k.F.I.I.I.G.s s s s v v v v a a a a [  . . . . . . . .t t t t rXyXyXyXrXqXqXqX[.$X$X$X#XqXqXqXqX].=X=X=XK.V.V.V.G.=X=X=X=X=X=X=X=X=X=X=X=X=X=X=X=X=X=X=X=X=X=X=X=X-X-X=X=X=X=X=X=X=XV.* * * =  . . . . . . . . . . . .! t t t r Q.Q.Q.Q.tXyXyXyX(.Q.Q.Q.q.C C C C W W W W W W W W t.u.u.u.d.V.V.V.C.I.I.I.I.=X=X=X=XG.V.V.V.a.h h h h g g g g   ",
"D V.V.V.V.V.C.C.C.I.I.I.I.'.=X=X=XY.I.I.I.Y.=X=X=X`.%.%.%.%.h h h s h h h h '  . . . . . . . . . . . .T t t t R  . . .@.XXXXXXXX8 , , , p.k.k.k.l.V.V.C.D.U.I.I.I.k.k.k.k.k.k.k.k.k.k.k.k.k.I.I.I.I.k.k.k.k.k.k.k.k.F.I.I.I.G.s s s s v v v v a a a a [  . . . . . . . .t t t t rXyXyXyXrXqXqXqX[.$X$X$X#XqXqXqXqX].-X-X=XK.V.V.V.G.=X=X=X=X=X=X=X=X=X=X=X=X=X=X=X=X=X=X=X=X=X=X=X=X=X=X=X=X=X=X=X=X=XV.* * * =  . . . . . . . . . . . .! t t t r Q.Q.Q.Q.tXyXyXyX(.Q.Q.Q.q.C C C C W W W W W W W W t.u.u.u.d.V.V.V.C.I.I.I.I.=X=X=X=XG.V.V.V.a.h h h h g g g g   ",
"D V.V.V.V.V.C.C.C.I.I.I.I.'.=X=X=XY.I.I.I.Y.=X=X=X`.%.%.%.%.h h h s h h h h '  . . . . . . . . . . . .T t t t R  . . .@.XXXXXXXX8 , , , p.k.k.k.l.V.V.V.D.U.I.I.I.k.k.k.k.k.k.k.k.k.k.k.k.k.I.I.I.I.k.k.k.k.k.k.k.k.F.I.I.I.G.s s s s v v v v a a a a [  . . . . . . . .t t t t rXyXyXyXrXqXqXqX[.$X$X$X#XqXqXqXqX].-X-X=XK.V.V.V.G.=X=X=X=X=X=X=X=X=X=X=X=X=X=X=X=X=X=X=X=X=X=X=X=X=X=X=X=X=X=X=X=X=XV.* * * =  . . . . . . . . . . . .! t t t r Q.Q.Q.Q.tXyXyXyX(.Q.Q.Q.q.C C C C W W W W W W W W t.u.u.u.d.V.V.V.C.I.I.I.I.=X=X-X=XG.V.V.V.a.h h h h g g g g   ",
"D V.V.V.V.V.V.V.C.I.I.I.I.'.=X=X=XY.I.I.I.Y.=X=X=X`.%.%.%.%.h h s s s h h h '  . . . . . . . . . . . .T t t t R  . . .@.XXXXXXXX8 , , , p.k.k.k.l.V.V.V.C.I.I.I.I.k.k.k.k.k.k.k.k.k.k.k.k.k.I.I.I.I.k.k.k.k.k.k.k.k.x.I.I.I.G.s s s s v v v v a a a a [  . . . . . . . .t t t t rXyXyXyXrXqXqXqX[.$X$X$X#XqXqXqXqX].-X=X=XK.V.V.V.G.=X=X=X=X=X=X=X=X=X=X=X=X=X=X=X=X=X=X=X=X=X=X=X=X=X=X=X=X=X=X=X=X=XV.* * * =  . . . . . . . . . . . .! t t t r Q.Q.Q.Q.tXyXyXyX(.Q.Q.Q.q.C C C C W W W W W W W W t.u.u.u.d.V.V.V.C.I.I.I.I.=X=X=X=XG.V.V.V.i.h h h h g g g g   ",
"D V.V.V.g.h h h h h h h h h h h h p.k.k.k.k.k.k.k.k.k.k.k.k.x s s s o.}.}.}..XXXXXXXXXXXXXXXXXT P P P 1 % % @ % % % % % x x x x F F F F h.k.k.k.9.i i i i h h h h i i i i h h h h h h h h h h h h h i i i i h h h h h h h h h h h h h h h h h * % % % U  . . .} W.^.^.^.2X#X#X#X$X5X5X5X5X#X#X#X#X^.^.^.^.v.k.k.k.p.h h h l k.k.k.k.- - - - n k.k.k.k.k.k.k.k.h h h h h h h h a i i i s s s s x XXXXXX}.@. . . .R t t t R  . . .| U U U Y Y Y Y Y w < < < w t t t t C C C C |  . . . .@.@.@.[ x x x c k.k.k.k.l h h h h h h h n k.k.k.h.B B B B   ",
"D V.V.V.g.h h h h h h h h h h h h p.k.k.k.k.k.k.k.k.k.k.k.k.x s s x o.XXXXXXXXXXXXXXXXXXXXXXXXP P P P $ @ @ @ @ o o o % s s s s F *.*.*.h.k.k.k.b i i i i h h h h i i i i d h h h h h h h h h h h h i i i i d h h h h h h h h h h h h h h h h % % % % U  . . .! q.Q.Q.Q.2X$X$X$X%X5X5X5X5X$X$X$X$X^.Q.Q.Q.v.k.k.k.p.h h h h k.k.k.k.- O O O b k.k.k.k.k.k.k.k.h h h h h h h h p i i i i s x x x XXXXXXXX@. . . .R t t t R  . . .| U U U U U U U U < < < < < t t t t C C C C @. . . . . . . .[ s s s x k.k.k.k.h h h h h h h h n k.k.k.h.B B B B   ",
"D V.V.V.g.h h h h h h h h h h h h p.k.k.k.k.k.k.k.k.k.k.k.k.x s s x o.XXXXXXXXXXXXXXXXXXXXXXXXP P P P $ @ @ @ @ o o o % s s s s F *.*.*.h.k.k.k.b i i i i h h h h i i i i d h h h h h h h h h h h h i i i i d h h h h h h h h h h h h h h h h % % % % U  . . .! q.Q.Q.Q.2X$X$X$X%X5X5X5X5X$X$X$X$X^.Q.Q.Q.v.k.k.k.p.h h h h k.k.k.k.- O O O b k.k.k.k.k.k.k.k.h h h h h h h h p i i i i s s s x XXXXXXXX@. . . .R t t t R  . . .| U U U U U U U U < < < < < t t t t C C C C @. . . . . . . .[ s s s x k.k.k.k.h h h h h h h h n k.k.k.h.B B B B   ",
"D V.V.V.g.h h h h h h h h h h h h p.k.k.k.k.k.k.k.k.k.k.k.k.x s s s o.XXXXXXXXXXXXXXXXXXXXXXXXP P P P $ @ @ @ @ o o o % s s s s F *.*.*.h.k.k.k.b i i i i h h h h i i i i d h h h h h h h h h h h h i i i i d h h h h h h h h h h h h h h h h % % % % U  . . .! q.Q.Q.Q.2X$X$X$X%X5X5X5X%X$X$X$X$X^.Q.Q.Q.v.k.k.k.p.h h h h k.k.k.k.- O O O b k.k.k.k.k.k.k.k.h h h h h h h h p i i i i s s s x XXXXXXXX@. . . .T t t t R  . . .| U U U U U U U U < < < < < t t t t C C C C @. . . . . . . .[ s s s x k.k.k.k.h h h h h h h h n k.k.k.h.B B B B   ",
"7 S S S N g g g g g g g g g g g g l N N N S S S S S l l l l N N N N 6.oXoXoX XXXXXXX}.} } } } 1 * * * > , 8 , , : : : > N N N N B B B B Z S S S B N N N N N N N N N N N N N N N N N g g g g N N N N h h h h @ o o o o o o o o o o o o o o o o X X X X X + + + + N S S S ^.[.[.[.[.%X%X%X$X[.[.[.[.rXrXrXrXq.% % % % o o o o % % % % X   o % % % % % % % % o o o o B Z Z Z B N N N N N N N N 0 0 0 0 a a a a = & & & j |.|.|.|.| | | | y y y y $ % % % % & & & * U U U U |.|.|.|.|.|.|.|.o.o.o.o.o.l l l l N N N N N N N N B S S S Z B B B B   ",
"> g g g g g g g g g g g g g g g g g g g g m B B B B g g g g B B B B  XOXOXOX XXXXXXX}.W W W W & # # # , 8 8 8 8 , , , 8 B B B B B B B B B B B B B B B B B B B B B B B B B B B B B N g g g g B B B B g g g g X   l n n n ^.qXqXqX[.$X$X$X#XqXqXqXqXtXyXyXyX0.  Z *.*.*.Z B B B B B B B B , , , , , , , , # # # # 0 XXXXXX}. . . . .y t t t % @ @ @ # # # # & P P P P }.XXXXXXXXXXXXXXXXXXXXXX7.8 8 8 8 B B B B B B B B B B B B B B B B B   ",
"> g g g g g g g g g g g g g g g g g g g g m B B B B g g g g B B B B  XOXOXOX XXXXXXX}.W W W W & # # # 8 8 8 8 8 , , , 8 B B B B B B B B B B B B B B B B B B B B B B B B B B B B B N g g g g B B B B g g g g X   l n n n ^.qXqXqX[.$X$X$X#XqXqXqXqXtXyXyXyX0.  Z *.*.*.Z B B B B B B B N , , , , , , , , # # # # 0 XXXXXX}. . . . .y t t t % @ @ @ # # # # & P P P P }.XXXXXXXXXXXXXXXXXXXXXX7.8 8 8 8 B B B B B B B B B B B B B B B B B   ",
"> g g g g g g g g g g g g g g g g g g g g m B B B B g g g g B B B B  XOXOXOX XXXXXXX}.W W W W & # # # , 8 8 8 8 , , , 8 B B B B B B B B B B B B B B B B B B B B B B B B B B B B B N g g g g B B B B g g g g X   k n n n ^.qXqXqX[.$X$X$X#XqXqXqXqXtXyXyXyX0.  Z *.*.*.Z B B B B B B B B , , , , , , , , ; # # # 0 XXXXXX}. . . . .y t t t % @ @ @ # # # # & P P P P }.XXXXXXXXXXXXXXXXXXXXXX{.8 8 8 8 B B B B B B B B B B B B B B B B B   ",
"l a.a.a.g.n.n.n.n.c.c.c.c.c.c.c.c.g.a.a.a.a.g.g.g.a.=.=.=.=.=.=.&.&.7.+X+X+X7._ _ _ _ t.t.{ { D D D D z.V.V.V.b.g.g.g.c.Z.Z.Z.Z.n.n.n.n.n.n.n.n.c.a.g.g.c.Z.Z.Z.Z.Z.Z.Z.Z.n.n.n.n.c.a.a.a.a.g.g.g.a.=.=.=.=.h a a a %   > > > > !.rXrXrXwX2X2X2X2XS.S.S.S.(.(.(.(.A   &.&.%.&.).).).).P.J.J.J.Z.Z.Z.Z.Z.g.g.g.c.g.g.g.g.l d d d / 7.7.7.7.[ [ [ [ u u u u i > > > > 8 8 8 8 u u u u +.+.+.+.}.XXXXXXXX X X X X&.&.&.&.Z.Z.Z.Z.Z.Z.Z.Z.Z.Z.Z.Z.Z.c.c.c.c.  ",
"d.=X=X=X>XbXbXbXbX1X1X1X1X1X1X1X1X-X=X=X=X`.U.I.I.I.V.V.V.V.k.k.k.k.x.V.V.V.a.8 8 8 8 z.z.z.z.R.R.R.R.NXZXZXZXBXbXbXbXbXbXbXbXbX1X1X1X1X1X1X1X1X:XI.I.I.Y.bXbXbXbXbXbXbXbXxX1X1X1X>X=X=X=X'.I.I.I.I.V.V.V.V.V.V.V.V.l   !.yXyXyXrXQ.Q.Q.Q.e e e e v n n n * o bXbXbXbXFXFXFXFXSXSXSXSXCXbXbXbXbXbXbXbXbXbXbXbXbXb.%.%.%.u.z.z.z.g.n n n n l l l l k h h a l C V C V i i i i W W W W o.XXXXXX XOXOXOXoXK.K.K.K.cXbXbXbXbXbXbXbXbXbXbXbXcX=X=X=X=X  ",
"d.=X=X-X>XbXbXbXbX1X1X1X1X1X1X1X1X-X=X=X=X`.I.I.I.I.V.V.V.V.k.k.k.k.x.V.V.V.a.8 8 8 8 z.z.z.z.R.R.R.R.NXZXZXZXBXbXbXbXbXbXbXbXbX1X1X1X1X1X1X1X1X:XI.I.I.Y.bXbXbXbXbXbXbXbXxX1X1X1X>X=X=X=X'.I.I.I.I.V.V.V.V.V.V.V.V.l   !.yXyXyXrXQ.Q.Q.Q.e e e e v n n n * o bXbXbXbXFXFXFXFXSXSXSXSXCXbXbXbXbXbXbXbXbXbXbXbXbXb.%.%.%.u.z.z.z.g.n n n n l l l l k h h a l C V C V i i i i W W W W o.XXXXXX XOXOXOXoXK.K.K.K.cXbXbXbXbXbXbXbXbXbXbXbXcX=X=X=X=X  ",
"d.=X=X=X>XbXbXbXbX1X1X1X1X1X1X1X1X-X=X=X=X`.I.I.I.I.V.V.V.V.k.k.k.k.x.V.V.V.a.8 8 8 8 z.z.z.z.R.R.R.R.NXZXZXZXBXbXbXbXbXbXbXbXbX1X1X1X1X1X1X1X1X:XI.I.I.Y.bXbXbXbXbXbXbXbXxX1X1X1X>X=X=X=X'.I.I.I.I.V.V.V.V.V.V.V.V.l   !.yXyXyXrXQ.Q.Q.Q.e e e e v n n n * o bXbXbXbXFXFXFXFXSXSXSXSXCXbXbXbXbXbXbXbXbXbXbXbXbXb.%.%.%.u.z.z.z.g.n n n n l l l l k h h h l C C C V i i i i W W W W o.XXXXXX XOXOXOXoXK.K.K.K.cXbXbXbXbXbXbXbXbXbXbXbXcX=X=X=X=X  ",
"d.=X=X=X>XbXbXbXcX<X<X<X<X<X<X<X<X-X'.'.'.`.I.I.I.I.C.C.C.C.k.k.k.k.x.m.m.m.a.8 8 8 f B.B.B.B.R.R.R.R.NXBXBXBXmXcXcXcXcXcXcXcXcX1X1X1X1X1X1X1X1X:XY.Y.Y.Y.cXcXcXcXcXcXcXcX1X1X1X1X>X'.'.'.'.U.U.U.U.D.C.C.C.V.m.m.m.k   . . . . !.rXrXrXwXW.~.~.w.e e e e b v v v = . . . . o bXbXbXbXSXAXAXAXCXCXCXCXBXcXcXcXcXcXcXcXcXbXbXbXbXV.i.i.i.d.b.b.b.z.n n n n l l l l k k k k z V C V V p p p p R R R R o.o.o.o. XoXoXoXoXG.G.G.G.xXcXcXcXcXcXcXcXcXcXcXcXxX'.'.'.'.  ",
"d.=X=X=X-X1X1X1X1XI.I.I.I.I.U.U.U.I.I.I.I.K.V.V.V.C.I.I.I.I.V.V.V.V.v i i i d B B B *.SXSXSXSXhXgXgXgX=X=X=X=X=X=X=X=X=X=X=X=X=X1X1X1X1XhXgXgXgXkXbXbXbXcXgXgXgXgX=X=X=X=X=X=X=X=X`.I.I.I.U.=X=X=X=XI.I.I.I.n h h h *   }  . . .! U U U U U U U U t t t t |  . . . . . . .Q o VXVXVXVXhXgXgXgX-X=X=X=X=X=X=X=X=X=X=X=X=X1X1X1X1XcXbXbXbXlXgXgXgX=Xu.u.u.u.h a a h E W W W W W W W Q C C C C % @ @ @ # # # # k z.z.z.g.i.i.i.i.I.I.I.I.I.I.I.I.I.I.I.I.I.I.I.I.I.  ",
"d.=X=X=X-X1X1X1X1XI.I.I.I.I.U.U.I.I.I.I.I.K.V.V.V.C.I.I.I.I.V.V.V.V.v i i i d B B B *.SXSXSXSXhXgXgXgX=X=X=X=X=X=X=X=X=X=X=X=X=X1X1X1X1XhXgXgXgXkXbXbXbXcXgXgXgXgX=X=X=X=X=X=X=X=X`.I.I.I.U.=X=X=X=XI.I.I.I.n h h h *   }  . . .! U U U U U U U U t t t t |  . . . . . . .Q o VXVXVXVXhXgXgXgX-X=X=X=X=X=X=X=X=X=X=X=X=X1X1X1X1XcXbXbXbXlXgXgXgX=Xu.u.u.u.h a a h E W W W W W W W Q C C C C % @ @ @ # # # # k z.z.z.g.i.i.i.i.I.I.I.I.I.I.I.I.I.I.I.I.I.I.I.I.I.  ",
"d.=X=X=X-X1X1X1X1XI.I.I.I.I.I.I.I.I.I.I.I.K.V.V.V.C.I.I.I.I.C.V.V.V.v i i i d B B B *.SXSXSXSXhXgXgXgX=X=X=X=X=X=X=X=X=X=X=X=X=X1X1X1X1XhXgXgXgXkXbXbXbXcXgXgXgXgX=X=X=X=X=X=X=X=X`.I.I.I.U.=X=X=X=XI.I.I.I.n h h h *   }  . . .! U U U U U U U U t t t t |  . . . . . . .Q o VXVXVXVXhXgXgXgX-X=X=X=X=X=X=X=X=X=X=X=X=X1X1X1X1XcXbXbXbXlXgXgXgX=Xu.u.u.u.h a h h E W W W W W W W Q C C C C % @ @ @ # # # # k z.z.z.g.i.i.i.i.I.I.I.I.I.I.I.I.I.I.I.I.I.I.I.I.I.  ",
"d.=X=X=X-X1X1X1X1XI.I.I.I.I.I.I.I.I.I.I.I.K.V.V.V.C.I.I.I.I.C.V.V.V.v i i i d B B B *.SXSXSXSXhXgXgXgX=X=X=X=X=X=X=X=X=X=X=X=X=X1X1X1X1XhXgXgXgXkXbXbXbXcXgXgXgXgX=X=X=X=X=X=X=X=X`.I.I.I.U.=X=X=X=XI.I.I.I.n h h h *   }  . . .! U U U U U U U U t t t t |  . . . . . . .Q o VXVXVXVXhXgXgXgX-X=X=X=X=X=X=X=X=X=X=X=X=X1X1X1X1XcXbXbXbXlXgXgXgX=Xu.u.u.u.h a h h E W W W W W W W Q C C C C % @ @ @ # # # # k z.z.z.g.i.i.i.i.I.I.I.I.I.I.I.I.I.I.I.I.I.I.I.I.I.  ",
"l.gXgXgX=XU.U.U.U.I.I.I.I.I.I.I.I.I.I.I.I.I.I.I.I.I.V.V.V.V.I.I.I.I.%.h h h g g g g N bXbXbXbX-X=X=X=X=X=X=X=X=X=X=X=X-X1X1X1X1XhXgXgXgX=X=X=X=X-XgXgXgXgX=X=X=X=XU.U.U.I.'.=X=X=X=X=X=X=X'.I.I.I.U.'.=X=X=Xl.k.k.k.s   o.XXXXXX+. . . .} t t t t V V V V X   U  . . .Q a cXcXcXcXbXbXbXbX-X=X=X=X=X=X=X=X=X=X=X=X=XgXgXgXgXgXgXgXgXgXgXgXgX-X=X=X=X`.u.u.u.u.u.u.u.u.u t t t R  . . . . . . . .| | | | a , , , a.1X1X1X1XI.I.I.I.I.I.I.I.I.I.I.I.I.I.I.I.U.gXgXgXgX  ",
"l.gXgXgX=XI.I.I.I.I.I.I.I.I.I.I.I.I.I.I.I.I.I.I.I.I.V.V.V.V.I.I.I.I.%.h h h g g g g N bXbXbXbX-X=X=X=X=X=X=X=X=X=X=X=X-X1X1X1X1XgXgXgXgX=X=X=X=X-XgXgXgXgX=X=X=X=XI.U.I.I.'.=X=X=X=X=X=X=X'.I.I.I.I.=X=X=X=Xl.k.k.k.s   o.XXXXXX+. . . .} t t t t C C C C X   U  . . .Q a bXbXbXbXbXbXbXbX-X=X=X=X=X=X=X=X=X=X=X=X=XgXgXgXgXgXgXgXgXgXgXgXgX-X=X=X=X`.u.u.u.u.u.u.u.u.u t t t R  . . . . . . . . . . . .a , , , a.1X1X1X<XI.I.I.I.I.I.I.I.I.I.I.I.I.I.I.I.U.gXgXgXgX  ",
"l.gXgXgX=XI.I.I.I.I.I.I.I.I.I.I.I.I.I.I.I.I.I.I.I.I.V.V.V.V.I.I.I.I.%.h h h h g g g N bXbXbXbX-X=X=X=X=X=X=X=X=X=X=X=X-X1X1X1X1XgXgXgXgX=X=X=X=X-XgXgXgXgX=X=X=X=XI.I.I.I.'.=X=X=X=X=X=X=X'.I.I.I.I.=X=X=X=Xl.k.k.k.s   o.XXXXXX+. . . .} t t t t C C C C X   U  . . .Q a bXbXbXbXbXbXbXbX-X=X=X=X=X=X=X=X=X=X=X=X=XgXgXgXgXgXgXgXgXgXgXgXgX-X=X=X=X`.u.u.u.u.u.u.u.u.u t t t R  . . . . . . . . . . . .a , , , a.1X1X1X<XI.I.I.I.I.I.I.I.I.I.I.I.I.I.I.I.U.gXgXgXgX  ",
"l.gXgXgX=XI.I.I.I.I.I.I.I.I.I.I.I.I.I.I.I.I.I.I.I.I.V.V.V.V.I.I.I.I.%.h h h h g g g N bXbXbXbX-X=X=X=X=X=X=X=X=X=X=X=X-X1X1X1X1XgXgXgXgX=X=X=X=X-XgXgXgXgX=X=X=X=XI.I.I.I.'.=X=X=X=X=X=X=X'.I.I.I.I.=X=X=X=Xl.k.k.k.s   o.XXXXXX+. . . .} t t t t C C C C X   U  . . .Q a bXbXbXbXbXbXbXbX-X=X=X=X=X=X=X=X=X=X=X=X=XgXgXgXgXgXgXgXgXgXgXgXgX-X=X=X=X`.u.u.u.u.u.u.u.u.u t t t R  . . . . . . . . . . . .a , , , a.1X1X1X<XI.I.I.I.I.I.I.I.I.I.I.I.I.I.I.I.U.gXgXgXgX  ",
"b l.l.l.x.I.I.I.I.I.I.I.I.I.I.I.I.I.I.I.I.I.I.I.I.I.I.I.I.I.I.I.I.I.n i i i d N N N Z H.H.H.H.U.U.U.U.'.=X=X=X=X=X=X=X-X-X-X-X-XjXjXjXjXI.G.G.G.I.=X=X=X=XG.G.G.G.lXlXlXlX-X=X=X=X=X=X=X=X=X'.'.'.'.=X=X=X=XD l l l *   + + + + + + + + + . . . . C C C C U I I I ~ #.#.#.z i -X-X-X-X`.`.`.`.=X=X=X=X=X=X=X=X=X=X=X=X-XjXjXjXjXG.G.G.G.z.d.d.g.d.-.-.-.-.C C C C E ! ! ! Q R R R R T T T T  . . . .|.|.|.|.0 , , , n x.x.x.x.D.D.D.D.I.I.I.I.I.I.I.I.I.I.I.I.U.=X=X=X=X  ",
"c k.k.k.x.I.I.I.I.I.I.I.I.I.I.I.I.I.I.I.I.I.I.I.I.I.I.I.I.I.U.I.I.I.b i i i d B B B Z V.V.V.V.I.I.I.I.`.=X=X=X=X=X=X=X=X=X=X=X=XkXkXkXkXH.V.V.V.K.=X=X=X'.V.V.V.V.cXbXbXbX-X=X=X=X=X=X=X=X=X=X=X=X=X=X=X=X=XS h h h * C C C C Q W W W / C C C 9 i =X=X-X'.I.I.I.I.'.=X=X=X=X=X=X=X=X=X=X=X-XkXkXkXkXD.V.V.V.d.u.u.u.&.C C C C C C C C Q W W W W W W W R t t t y  . . . .}.XXXXXX0 , , , l k.k.k.k.V.V.V.V.I.I.I.I.I.I.I.I.I.I.I.I.U.=X=X=X=X  ",
"c k.k.k.x.I.I.I.I.I.I.I.I.I.I.I.I.I.I.I.I.I.I.I.I.I.I.I.I.I.I.I.I.I.b i i i d B B B Z V.V.V.V.I.I.I.I.`.=X=X=X=X=X=X'.=X'.=X=X=XkXkXkXkXH.V.V.V.K.=X=X=X'.V.V.V.V.cXbXbXbX-X=X=X=X=X=X=X=X=X=X=X=X=X=X=X=X=XS h h h * C C C C Q W W W / C C C 9 i =X-X-X'.I.I.I.I.'.=X=X=X=X=X=X=X=X=X=X=X-XkXkXkXkXD.V.V.V.d.u.u.u.&.C C C C C C C C Q W W W W W W W R t t t y  . . . .}.XXXXXX0 , , , l k.k.k.k.V.V.V.V.I.I.I.I.I.I.I.I.I.I.I.I.U.=X=X=X=X  ",
"c k.k.k.x.I.I.I.I.I.I.I.I.I.I.I.I.I.I.I.I.I.I.I.I.I.I.I.I.I.I.I.I.I.b i i i d B B B Z V.V.V.V.I.I.I.I.`.=X=X=X=X=X=X'.=X=X'.=X=XkXkXkXkXH.V.V.V.K.=X=X=X'.V.V.V.V.cXbXbXbX-X=X=X=X=X=X=X=X=X=X=X=X=X=X=X=X=XS h h h * C C C C Q W W W / C C C 9 i =X-X-X'.I.I.I.I.'.=X=X=X=X=X=X=X=X=X=X=X-XkXkXkXkXD.V.V.V.d.u.u.u.&.C C C C C C C C Q W W W W W W W R t t t y  . . . .}.XXXXXX0 , , , l k.k.k.k.V.V.V.V.I.I.I.I.I.I.I.I.I.I.I.I.U.=X=X=X=X  ",
"c k.k.k.x.I.I.I.I.I.I.I.I.I.I.I.I.I.I.I.I.I.I.I.I.I.I.I.I.I.H.H.H.H.v i i i d B B B Z G.G.G.G.Y.Y.Y.Y.'.=X=X'.-X-X>X>X-XI.I.I.I.`.`.`.`.G.V.V.V.D.G.G.G.G.`.`.`.`.kXkXkXkX-X=X=X=X=X=X=X=X=X=X=X=X=X`.`.`.`.n h h h *   . 2 2 2 2 { { { { } } } } ' j j j a : : : : : : : : < < < < < < < < j `.`.`.`.Y.Y.Y.Y.`.`.`.`.'.=X=X=X=X=X=X=X=X`.`.`.`.d.d.d.d.&.&.&.&.D j j j j { { { { } } } } } } } } Q u u u u [ [ [ [ ) ) ) ) z f f g D l.l.l.l.G.G.G.G.I.I.I.I.I.I.I.I.I.I.I.I.I.G.G.G.G.  ",
"c k.k.k.x.I.I.I.I.I.I.I.I.I.I.I.I.I.I.I.I.I.I.I.I.I.I.I.I.I.C.V.V.V.v i i i d B B B Z I.I.I.I.'.=X=X=X=X=X=X=X-XkXkXkXkXV.V.V.V.V.V.V.V.V.V.V.V.x.k.k.k.l.bXbXbXbX-X=X=X=X=X=X=X=X=X=X=X=X=X=X=X=X=XI.I.I.I.n h h h *   +  . . . . . . . . . . . .R t t t u C C C C C C C C Q W W W W W W W r.I.U.U.U.=X=X=X=XU.I.I.I.`.=X=X=X=X=X=X=X'.V.V.V.V.n v v v V C C C z t t t y  . . . . . . . . . . . .[ h h s s a a a a = * * * m B B B a.V.V.V.C.I.I.I.I.I.I.I.I.I.I.I.I.I.I.I.I.I.k.k.k.k.  ",
"c k.k.k.x.I.I.I.I.I.I.I.I.I.I.I.I.I.I.I.I.I.I.I.I.I.I.I.I.I.C.V.V.V.v i i i d B B B Z I.I.I.I.'.=X=X=X=X=X=X=X-XkXkXkXkXV.V.V.V.V.V.V.V.V.V.V.V.x.k.k.k.l.bXbXbXbX-X=X=X=X=X=X=X=X=X=X=X=X=X=X=X=X=XI.I.I.I.n h h h *   +  . . . . . . . . . . . .R t t t u C C C C C C C C Q W W W W W W W r.I.U.U.U.=X=X=X=XU.I.I.I.`.=X=X=X=X=X=X=X'.V.V.V.V.n v v v V C C C z t t t y  . . . . . . . . . . . .[ h h h h a a a a = * * * m B B B a.V.V.V.D.I.I.I.I.I.I.I.I.I.I.I.I.I.I.I.I.I.k.k.k.k.  ",
"c k.k.k.x.I.I.I.I.I.I.I.I.I.I.I.I.I.I.I.I.I.I.I.I.I.I.I.I.I.C.V.V.V.v i i i d B B B Z I.I.I.I.'.=X=X=X=X=X=X=X-XkXkXkXkXV.V.V.V.V.V.V.V.V.V.V.V.x.k.k.k.l.bXbXbXbX-X=X=X=X=X=X=X=X=X=X=X=X=X=X=X=X=XI.I.I.I.n h h h *   +  . . . . . . . . . . . .R t t t u C C C C C C C C Q W W W W W W W r.I.U.U.U.=X=X=X=XU.I.I.I.`.=X=X=X=X=X=X=X'.V.V.V.V.n v v v V C C C z t t t y  . . . . . . . . . . . .[ h h h h a a a a = * * * m B B B a.V.V.V.D.I.I.I.I.I.I.I.I.I.I.I.I.I.I.I.I.I.k.k.k.k.  ",
"c h.h.h.l.I.I.I.I.I.I.I.I.I.I.I.I.I.I.I.I.I.I.I.I.I.I.I.I.I.V.V.V.V.v i i i d B B B Z I.I.I.I.`.'.'.'.'.'.'.'.-XkXkXkX>XV.V.V.V.V.V.V.V.V.V.V.V.x.l.l.l.x.cXcXcXcX'.'.'.'.'.'.'.'.'.=X=X=X=X=X=X=X=XI.I.I.I.n h h h *   . X X X 1 @.@.@.@.@.@.@.@.| | | | R w w w u #.*.*.#.*.*.*.*.Q W W W W W W W r.H.H.H.K.'.'.'.'.U.U.U.U.`.=X=X=X=X'.'.'.`.V.V.V.V.b b b b V Z Z Z z y y y y | | | |  . . . . .@.@.@.[ k k k h a a a a = = = = m B B B a.V.V.V.V.I.I.I.I.I.I.I.I.I.I.I.I.I.I.I.I.H.h.h.h.h.  ",
"> h h h %.I.I.I.I.I.I.I.I.k.k.k.k.k.k.k.k.x.I.I.I.I.I.I.I.I.k.k.k.k.c i i i d B B B Z I.I.I.I.C.V.V.V.V.V.V.V.V.V.V.V.V.V.V.V.V.V.V.V.V.l.k.k.k.R.SXSXSXCX=X=X=X=XC.V.V.V.V.V.V.V.I.=X=X=X=X=X=X=X=XC.V.V.V.n h h h *   K XXXXXXXXXXXXXXXXXXXXXXXXI P P P $   +  . . . . . . . . . . . .R t t t u C C C C I.I.I.I.'.=X=X=X=X=X=X=X`.I.I.I.I.k.k.k.k.Q W W W j.w.w.w.j.W W W W t t t t |  . . .|.XXXXXX8.u.u.u.u.v v v v h h h h N B B B a.V.V.V.V.k.k.k.k.k.k.k.k.G.I.I.I.H.V.V.V.m.h h h h   ",
"> h h h %.I.I.I.I.I.I.I.I.k.k.k.k.k.k.k.k.x.I.I.I.I.I.I.I.I.k.k.k.k.c i i i d B B B Z I.I.I.I.C.V.V.V.V.V.V.V.V.V.V.V.V.V.V.V.V.V.V.V.V.l.k.k.k.R.SXSXSXCX=X=X=X=XC.V.V.V.V.V.V.V.I.=X=X=X=X=X=X=X=XC.V.V.V.l h h h *   K XXXXXXXXXXXXXXXXXXXXXXXXI P P P $   +  . . . . . . . . . . . .R t t t u C C C C I.I.I.I.'.=X=X=X=X=X=X=X`.I.I.I.I.k.k.k.k.Q W W W j.w.w.w.j.W W W W t t t t |  . . .|.XXXXXX8.u.u.u.u.v v v v h h h h N B B B a.V.V.V.V.k.k.k.k.k.k.k.k.G.I.I.I.H.V.V.V.m.h h h h   ",
"> h h h %.I.I.I.I.I.I.I.I.k.k.k.k.k.k.k.k.x.I.I.I.I.I.I.I.I.k.k.k.k.c i i i d B B B Z I.I.I.I.C.V.V.V.V.V.V.V.V.V.V.V.V.V.V.V.V.V.V.V.V.l.k.k.k.R.SXSXSXCX=X=X=X=XC.V.V.V.V.V.V.V.I.=X=X=X=X=X=X=X=XC.V.V.V.l h h h *   K XXXXXXXXXXXXXXXXXXXXXXXXI P P P $   +  . . . . . . . . . . . .R t t t u C C C C I.I.I.I.'.=X=X=X=X=X=X=X`.I.I.I.I.k.k.k.k.Q W W W j.w.w.w.j.W W W W t t t t |  . . .|.XXXXXX8.u.u.u.u.v v v v h h h h N B B B a.V.V.V.V.k.k.k.k.k.k.k.k.G.I.I.I.H.V.V.V.m.h h h h   ",
"> h h h %.I.I.I.I.I.I.I.I.k.k.k.k.k.k.k.k.x.I.I.I.I.I.I.I.I.k.k.k.k.c i i i d B B B Z I.I.I.I.C.V.V.V.V.V.V.V.V.V.V.V.V.V.V.V.V.V.V.V.V.l.k.k.k.R.SXSXSXCX=X=X'.'.C.V.V.V.V.V.V.V.I.=X=X=X=X=X=X=X'.V.V.C.V.v h h h *   K XXXXXXXXXXXXXXXXXXXXXXXXI P P P $   +  . . . . . . . . . . . .R t t t u C C C C I.I.I.I.'.=X=X=X=X=X=X=X`.I.I.I.I.k.k.k.k.Q W W Q j.S.S.S.j.W W W W t t t t |  . . .|.XXXXXX8.u.u.u.u.v v v v h h h h N B B B a.V.V.V.V.k.k.k.k.k.k.k.k.G.I.I.I.G.V.V.V.m.h h h h   ",
"> h h h h h h h h h h h h h h h h h h h h h h h h h i i i i i i i i a h h h N *.*.*.*.V.V.V.V.l h h h h h h h h h h h k k.k.k.k.g g g g :XcXcXcXH.i i i i i i i i h h h h h.k.k.k.k.k.k.k.h.h h h h h h h h X   L OXOXOXoXXXXXXX}.W W W W .   1 XXXX}.}. . . . .y t t t $   @ C C C C Q Q Q Q Q Q Q Q j h h h h h h h k  . . . .sXsXsXsXLXIXPXIXaXw.w.w.S.fXfXsXsXi = = = s x x s s h h h h h h h h k.k.k.k.=.*.*.*.=.k.k.k.h.i i i i i i i i i i i i i i i i i i i i i   ",
"> h h h h h h h h h h h h h h h h h h h h h h h h h i i i i i i i i a h h h N *.*.*.*.V.V.V.V.h h h h h h h h h h h h h k.k.k.k.g g g g :XbXbXbXZ.i i i i i i i i h h h h p.k.k.k.k.k.k.k.h.h h h h h h h h X   L OXOXOXoXXXXXXX}.W W W W .   1 XXXXXX}. . . . .y t t t $   @ C C C C W W W W W W W W j h h h h h h h k  . . . .sXfXfXfXLXIXIXIXaXw.w.w./.fXfXfXfXi = = = s s s s s h h h h h h h h k.k.k.k.=.*.*.*.=.k.k.k.h.i i i i i i i i i i i i i i i i i i i i i   ",
"> h h h h h h h h h h h h h h h h h h h h h h h h h i i i i i i i i a h h h N *.*.*.*.V.V.V.V.h h h h h h h h h h h h h k.k.k.k.g g g g :XbXbXbXZ.i i i i i i i i h h h h p.k.k.k.k.k.k.k.h.h h h h h h h h X   L OXOXOXoXXXXXXX}.W W W W .   1 XXXXXX}. . . . .y t t t $   @ C C C C W W W W W W W W j h h h h h h h k  . . . .sXfXfXfXLXIXIXIXaXw.w.w./.fXfXfXfXi = = = s s s s s h h h h h h h h k.k.k.k.=.*.*.*.=.k.k.k.h.i i i i i i i i i i i i i i i i i i i i i   ",
"> h h h h h h h h h h h h h h h h h h h h h h h h h i i i i i i i i a h h h N *.*.*.*.V.V.V.V.h h h h h h h h h h h h h k.k.k.k.g g g g :XbXbXbXZ.i i i i i i i i h h h h p.k.k.k.k.k.k.k.h.h h h h h h h h X   L OXOXOXoXXXXXXX}.W W W W .   1 XXXXXX}. . . . .y t t t $   @ C C C C W W W W W W W W j h h d d d h h k  . . . .sXfXfXfXLXIXIXIXaXw.w.w./.fXfXfXfXi = = = s s s s s h h h h h h h h k.k.k.k.=.*.*.*.=.k.k.k.h.i i i i i i i i i i i i i i i i i i i i i   ",
"8 B B B N g g g g B B B B B B B B B B B B B B B B N N N N N N N N N N B B B B B B B B N N N N B B B B B B B B 8 X X X X o o o o X X X X % * * * @ X X X X X X X X X X X X o o o o o o o o o X X X X X X X X X + + + + + + + + . . . .   + + + + + + + + . . . . X r r r r | | | | | | | | | O.O.O.[ C V V C }.}.}.}././././.2X4X4X4X4X3X3X3X3XfXfXfXfXe.q.q.q.N g g g g g g g g g g g g l l l l N m m m N Z Z Z S g g g g N N N N N N N N m g g g g h h g g   ",
"8 B B B N g g g g B B B B B B B B B B B B B B B B B B B B B B B B B B B B B B B B B B g g g g B B B B B B B B 8 X t t t y  . . . . . . . . . . . .O.C C C *.XXXXXXXXS.w.w.w.2X5X5X5X%X$X$X$X3XfXfXfXfXS.w.w.w.B g g g g g g g g g g g g g g g g g g g g N B B B B g g g g B B B B B B B B N g g g g g g g g   ",
"8 B B B N g g g g B B B B B B B B B B B B B B B B B B B B B B B B B B B B B B B B B B g g g g B B B B B B B B 8 X t t t y  . . . . . . . . . . . .O.C C C *.XXXXXXXXS.w.w.w.2X5X5X5X%X$X$X$X3XfXfXfXfXS.w.w.w.B g g g g g g g g g g g g g g g g g g g g N B B B B g g g g B B B B B B B B N g g g g g g g g   ",
"8 B B B N g g g g B B B B B B B B B B B B B B B B B B B B B B B B B B B B B B B B B B g g g g B B B B B B B B 8 X t t t y  . . . . . . . . . . . .O.C C C *.XXXXXXXXS.w.w.w.2X5X5X5X%X$X$X$X3XfXfXfXfXS.w.w.w.B g g g g g g g g g g g g g g g g g g g g N B B B B g g g g B B B B B B B B N g g g g g g g g   ",
"d.`.`.`.`.I.I.I.I.Z.Z.Z.Z.Z.Z.Z.Z.Z.Z.Z.Z.Z.Z.Z.Z.Z.Z.Z.Z.Z.Z.Z.Z.Z.Z.Z.Z.Z.Z.Z.Z.Z.Z.c.c.c.c.c.c.c.c.a.a.a.a.&.k k k s < < < < < < < < < < < < +   . $ $ $ < Q W W Q  . . . .+.+.+.+.+.' ' ' / M.M.M.M.9X0X0X0X3X%X%X%X%X$X$X$X3X0X0X0X0Xv.v.v.v.n.B.B.B.c.d.d.a.a.d.d.d.d.D D D D D D D D %.u.u.u.u.u.u.u.u.a.a.a.a.u.u.u.u.S B B B Z Z.Z.Z.B.  ",
"R.FXFXFXAXVXVXVXVXbXbXbXbXbXbXbXbXbXbXbXbXbXbXbXbXbX1X1X1X1X1X1X1X1X1X1X1X1X1X1X1X1X1X=X=X=X=XU.I.I.I.D.V.V.V.V.V.V.V.x.P P P P P P P P P P P P < t t t t |  . . .|.XXXXXXo.W W W Q w.S.w.w.PXIXIXIX6X$X$X$X$X$X$X$X#Xw.w.w.w.n.b.b.b.:X1X1X1X:XI.I.I.I.I.I.I.I.k.k.k.k.k.k.k.k.k.k.k.k.k.V.V.V.V.V.V.V.V.l.k.k.k.a.*.*.*.:.bXbXbXbX  ",
"R.FXFXFXAXVXVXVXVXbXbXbXbXbXbXbXbXbXbXbXbXbXbXbXbXbX1X1X1X1X1X1X1X1X1X1X1X1X1X1X1X1X1X'.=X=X=XU.I.I.I.D.V.V.V.V.V.V.V.x.P P P P P P P P P P P P < t t t t |  . . .|.XXXXXXo.W W W Q w.S.w.w.PXIXIXIX6X$X$X$X$X$X$X$X#Xw.w.w.w.n.b.b.b.:X1X1X1X:XI.I.I.I.I.I.I.I.k.k.k.k.k.k.k.k.k.k.k.k.k.V.V.V.V.V.V.V.V.l.k.k.k.a.*.*.*.:.bXbXbXbX  ",
"R.FXFXFXAXVXVXVXVXbXbXbXbXbXbXbXbXbXbXbXbXbXbXbXbXbX1X1X1X1X1X1X1X1X1X1X1X1X1X1X1X1X1X=X=X=X=XU.I.I.I.D.V.V.V.V.V.V.V.x.P P P P P P P P P P P P < t t t t |  . . .|.XXXXXXo.W W W Q S.S.w.w.LXIXIXIX6X$X$X$X$X$X$X$X#Xw.w.w.w.n.b.b.n.:X1X1X1X:XI.U.I.I.I.I.I.I.k.k.k.k.k.k.k.k.k.k.k.k.k.C.C.C.V.V.V.V.V.k.k.k.k.a.*.*.*.:.bXbXbXbX  ",
"R.AXAXAXVXBXBXBXBXbXbXbXbXcXcXcXcXcXcXcXcXcXcXcXcXcX1X1X1X1X1X<X1X<X1X1X1X1X1X1X1X1X<X=X=X=X=XU.U.U.U.G.D.D.D.V.b.b.b.l.P P P P P P P P P P P P < . . . . w w w w | | | | o.7.7.7.o.W W W Q q.q.q.q.LXPXPXPX6X3X3X3X3X3X3X3X3X/./././.n.B.B.B.:X<X1X<X:XY.Y.Y.Y.I.I.I.I.l.k.k.k.k.k.k.k.k.k.k.k.l.D.D.D.D.V.V.V.V.k.h.h.h.u.*.*.*.:.mXmXmXnX  ",
"d.=X=X=X=X=X=X=X-XbXbXbXbXhXgXgXgX-X=X=X=X-XgXgXgXgXgXgXgXgX=X=X=X=X=X=X=X=X=X=X=X=X=XgXgXgXgX=X=X=X=XU.I.I.I.z.h h h h t t t t W W W W W W W W W W W W R R W W W / C C C z P P P P < < < < sXfXfXfX8Xw.w.w.8XfXfXfXfXfXfXfXfXY.I.I.I.'.=X=X=X>X1X1X1X1XI.I.I.I.I.I.I.I.l.k.k.k.l.V.V.V.C.I.I.I.I.k.k.k.k.a i i i l *.*.*.:.VXVXVXVXX ",
"d.=X=X=X=X=X=X=X-XbXbXbXbXhXgXgXgX-X=X=X=X-XgXgXgXgXgXgXgXgX=X=X=X=X=X=X=X=X=X=X=X=X=XgXgXgXgX=X=X=X=XU.I.I.I.z.h h h h t t t t W W W W W W W W W W W W R R W W W / C C C z P P P P < < < < sXfXfXfX8Xw.w.w.8XfXfXfXfXfXfXfXfXY.I.I.I.'.=X=X=X>X1X1X1X1XI.I.I.I.I.I.I.I.l.k.k.k.l.V.V.V.C.I.I.I.I.k.k.k.k.s i i i l *.*.*.:.VXVXVXVXX ",
"d.=X=X=X=X=X=X=X-XbXbXbXbXhXgXgXgX-X=X=X=X-XgXgXgXgXgXgXgXgX=X=X=X=X=X=X=X=X=X=X=X=X=XgXgXgXgX=X=X=X=XU.I.I.I.z.h h h d t t t t W W W W W W W W W W W W R R W W W / C C C z P P P P < < < < sXfXfXfX8Xw.w.w.8XfXfXfXfXfXfXfXfXY.I.I.I.`.=X=X=X>X1X1X1X1XI.I.I.I.I.I.U.U.l.k.k.k.l.V.V.V.C.I.I.I.I.k.k.k.k.s i i i l *.*.*.:.VXVXVXVXX ",
"d.=X=X=X=X=X=X=X-XbXbXbXbXhXgXgXgX-X=X=X=X=XgXgXgXgXgXgXgXgX=X-X=X=X=X=X=X=X=X=X=X=X=XgXgXgXgX=X=X=X=XU.I.I.I.z.h h h h t t t t Q Q Q Q W W W W W W W W R W W W W / C C C z P P P P < < < < sXfXfXfX8Xw.w.w.8XfXfXfXfXfXdXdXdXY.I.I.I.`.=X=X=X:X1X1X1X<XI.I.I.I.I.U.I.U.l.k.k.k.l.V.V.V.C.I.I.I.I.k.k.k.k.s i i i l *.*.*.:.VXVXVXVXX ",
"i.I.I.I.Y.=X=X=X'.I.I.I.I.'.=X=X=X=X=X=X=X=X=X=X=X=X=X=X=X=X=X=X=X=X=X=X=X=X-XgXgXgXgX=X=X=X=X=X=X=X=X=X=X=X=X_.Q.Q.Q.^.KXKXKXKX^.Q.Q.Q.[ W W W W W W W R  . . . . . . . . . . . .! t t t y W W W W r e e e e e e e b w.w.w.S.l.l.l.l.'.=X=X=XU.I.I.I.I.I.I.I.I.I.I.I.I.I.I.I.I.I.I.I.I.I.I.I.I.I.I.I.I.I.k.k.k.k.s i i i h B B B Z U.U.U.I.  ",
"i.I.I.I.Y.=X=X=X'.I.I.I.I.'.=X=X=X=X=X=X=X=X=X=X=X=X=X=X=X=X=X=X=X=X=X=X=X=X-XgXgXgXgX=X=X=X=X=X=X=X=X=X=X=X=X_.Q.Q.Q.^.KXKXKXKX^.Q.Q.Q.[ W W W W W W W R  . . . . . . . . . . . .} t t t y W W W W e e e e e e e e c w.w.w.S.l.l.l.l.`.=X=X=XU.I.I.I.I.I.I.I.I.I.I.I.I.I.I.I.I.I.I.I.I.I.I.I.I.I.I.I.I.I.k.k.k.k.s i i i h B B B Z I.I.I.I.  ",
"i.I.I.I.Y.=X=X=X'.I.I.I.I.'.=X=X=X=X=X=X=X=X'.'.'.=X=X=X=X=X=X=X=X=X=X=X=X=X-XgXgXgXgX=X=X=X=X=X=X=X=X=X=X=X=X_.Q.Q.Q.^.KXKXKXKX^.Q.Q.Q.[ W W W W W W W R  . . . . . . . . . . . .! t t t t W W W W e e e e e e e e c w.w.w.S.l.g.g.l.`.=X=X=XU.I.I.I.I.I.I.I.I.I.I.I.I.I.I.I.I.I.I.I.I.I.I.I.I.I.I.I.I.I.k.k.k.k.s i i i h B B B Z I.I.I.I.  ",
"i.I.I.I.Y.=X=X=X'.I.I.I.I.'.=X=X=X=X=X=X=X=X=X=X'.=X=X=X=X=X=X=X=X=X=X=X=X=X-XgXgXgXgX=X=X=X=X=X=X=X=X=X=X=X=X_.Q.Q.Q.^.KXKXKXKX^.Q.Q.Q.[ W W W W W W W R  . . . . . . . . . . . .! t t t t W W W W e e e e e e e e c w.w.w.S.l.g.g.l.'.=X=X=XU.I.I.I.I.I.I.I.I.I.I.I.I.I.I.I.I.I.I.I.I.I.I.I.I.I.I.I.I.I.k.k.k.k.s i i i h B B B Z I.I.I.I.  ",
"d.'.'.'.`.U.U.U.U.'.'.'.'.=X=X=X=X=X=X=X=X=X=X=X=X-XkXkXkXkXG.D.D.D.D.D.D.D.D.D.D.D.G.U.U.U.U.=X=X=X=XY.U.U.U.9XJXJXJXJX4X4X4X4XtXtXtXtXq . . . . . . . .   1 o.o.o.o.}.}.}.}.}.}.}.}.! T T T e . . . . y y y y W W W W W W W W ' S S S S >X>X<X<XU.U.U.U.U.I.I.I.I.I.I.I.I.I.I.I.I.I.I.I.I.G.D.D.D.G.I.I.I.I.I.I.I.I.V.V.V.V.s i i i a g g g N D.D.D.C.  ",
"d.=X=X=X`.I.I.I.U.=X=X=X=X=X=X=X=X=X=X=X=X=X=X=X=X-XkXkXkXkXD.V.V.V.V.V.V.V.V.V.V.V.C.I.I.I.I.'.=X=X=XU.I.I.I.vXKXKXKXKX5X5X5X5XyXyXyXyXq   1 XXXXXXXXXXXXXXXXXXXXXXXX! P P P < t t t t W W W W W W W W E n n n D 1X1X1X1XU.I.I.I.I.I.I.I.I.I.I.I.I.I.I.I.I.I.I.I.I.D.V.V.V.G.I.I.I.I.I.I.I.I.C.V.V.V.k i i i d g g g N V.V.V.V.  ",
"d.=X=X=X`.I.I.I.U.=X=X=X=X=X=X=X=X=X=X=X=X=X=X=X=X-XkXkXkXkXD.V.V.V.V.V.V.V.V.V.V.V.C.I.I.I.I.'.=X=X=XU.I.I.I.vXKXKXKXJX5X5X5X5XyXyXyXyXq   1 XXXXXXXXXXXXXXXXXXXXXXXX! P P P < t t t t W W W W W W W W E n n n D 1X1X1X1XU.I.I.I.I.I.I.I.I.I.I.I.I.I.I.I.I.I.I.I.I.D.V.V.V.G.I.I.I.I.I.I.I.I.C.V.V.V.k i i i d g g g N V.V.V.V.  ",
"d.=X=X=X`.I.I.I.U.=X=X=X=X=X=X=X=X=X=X=X=X=X=X=X=X-XkXkXkXkXD.V.V.V.V.V.V.V.V.V.V.V.C.I.I.I.I.'.=X=X=XU.I.I.I.vXKXKXKXKX5X5X5X5XyXyXyXyXq   1 XXXXXXXXXXXXXXXXXXXXXXXX! P P P < t t t t W W W W W W W W E n n n D 1X1X1X1XU.I.I.I.I.I.I.I.I.I.I.I.I.I.I.I.I.I.I.I.I.D.V.V.V.G.I.I.I.I.I.I.I.I.C.V.V.V.k i i i d g g g N V.V.V.V.  ",
"d.Y.Y.Y.Y.Y.Y.Y.Y.Y.Y.Y.Y.=X=X=X=X=X=X=X=X=X=X=X=X=XY.Y.Y.Y.H.G.G.G.D.V.V.V.G.I.I.I.I.Y.Y.Y.Y.Y.Y.Y.Y.U.I.I.I._.wXwXwXwX6X6X6X6XqXqXqXqXM , , , #   < < < < < < < < < < < < H  X X X XXXXXXXXX,.,.,.,.5 < < < + $ $ $ $ < < < < < < < < 1 = = = i 1X1X1X1XU.I.I.I.H.G.G.G.H.I.I.I.I.I.I.I.I.G.G.G.G.G.G.G.G.K.I.I.I.I.I.I.I.I.H.G.G.G.v a a a d g g g N V.V.V.V.  ",
"i.I.I.I.Y.=X=X=X'.I.I.I.I.'.=X=X=X=X=X=X=X=X=X=X=X'.V.V.V.V.I.I.I.I.G.V.V.V.H.=X=X=X=X=X=X=X=XU.I.I.I.I.I.I.I._.Q.Q.Q.^.yXyXyXyX^.Q.Q.Q.F C C C 8   P P P P P P P P P P P P ! OXOXOXOXXXXXXXXX*.C C C # o 1X1X1X1XU.I.I.I.D.V.V.V.G.I.I.I.I.I.I.I.I.C.V.V.V.I.I.I.I.I.I.I.I.I.I.I.I.I.I.I.I.I.S h h h g g g g N V.V.V.V.  ",
"i.I.I.I.Y.=X=X=X'.I.I.I.I.'.=X=X=X=X=X=X=X=X=X=X=X'.V.V.V.V.I.I.I.I.G.V.V.V.H.=X=X=X=X=X=X=X=XU.I.I.I.I.I.I.I._.Q.Q.Q.^.yXyXyXyXQ.Q.Q.Q.F C C C 8   P P P P P P P P P P P P ! OXOXOXOXXXXXXXXX*.C C C # o 1X1X1X1XU.I.I.I.D.V.V.V.G.I.I.I.I.I.I.I.I.C.V.V.V.I.I.I.I.I.I.I.I.I.I.I.I.I.I.I.I.I.S h h h g g g g N V.V.V.V.  ",
"i.I.I.I.Y.=X=X=X'.I.I.I.I.'.=X=X=X=X=X=X=X=X=X=X=X'.V.V.V.V.I.I.I.I.G.V.V.V.H.=X=X=X=X=X=X=X=XU.I.I.I.I.I.I.I._.Q.Q.Q.^.yXyXyXyXQ.Q.Q.Q.F C C C 8   P P P P P P P P P P P P ! OXOXOXOX}.XXXXXX*.C C C # o 1X1X1X1XU.I.I.I.D.V.V.V.G.I.I.I.I.I.I.I.I.C.V.V.V.I.I.I.I.I.I.I.I.I.I.I.I.I.I.I.I.I.S h h h g g g g N V.V.V.V.  ",
"i.I.I.I.U.'.'.'.'.U.U.U.U.'.'.'.'.'.=X=X=X=X=X=X=X'.G.G.G.G.I.I.I.I.G.G.G.G.K.`.`.`.`.'.'.'.'.U.U.U.U.I.I.I.I.Z.v.q.v.~.wXwXwXwXw.q.v.v.C V V V 7 . . . . . . . . . . . . . . . . X P P P P P P P P P P P P E  X X X X|.|.|.|.V m m m @ X ).).).).K.G.G.G.D.D.D.D.G.I.I.I.I.I.I.I.I.D.D.D.D.I.I.I.I.I.I.I.I.I.I.I.I.I.I.I.I.I.n d d d h g g g N V.V.V.V.  ",
"D V.V.V.D.I.I.I.U.=X=X=X=XU.I.I.I.`.=X=X=X=X=X=X=X=X=X=X=X=XD.V.V.V.Y.=X=X=XY.V.V.V.C.I.I.I.I.'.=X=X=XG.V.V.V.s.U U U U U U U U U U U U y t t t y P P P P P P P P P P P P .   + W W W W W W W W W W W W P t t t u C C C C W W W W h.k.k.k.G.I.I.I.I.I.I.I.I.I.I.I.I.I.I.I.I.I.I.I.I.I.I.I.I.I.I.I.I.I.I.I.I.I.k i i i d g g g N V.V.V.V.  ",
"D V.V.V.D.I.I.I.U.=X=X=X=XU.I.I.I.`.=X=X=X=X=X=X=X=X=X=X=X=XD.V.V.V.Y.=X=X=XY.V.V.V.C.I.I.I.I.'.=X=X=XG.V.V.V.s.U U U U U U U U U U U U y t t t y P P P P P P P P P P P P .   + W W W W W W W W W W W W P t t t u C C C C W W W W .   h.k.k.k.G.I.I.I.I.I.I.I.I.I.I.I.I.I.I.I.I.I.I.I.I.I.I.I.I.I.I.I.I.I.I.I.I.I.k i i i d g g g N V.V.V.V.  ",
"D V.V.V.D.I.I.I.U.=X=X=X=XU.I.I.I.`.=X=X=X=X=X=X=X=X=X=X=X=XD.V.V.V.Y.=X=X=XY.V.V.V.C.I.I.I.I.'.=X=X=XG.V.V.V.s.U U U U U U U U U U U U y t t t y P P P P P P P P P P P P .   + W W W W W W W W W W W W P t t t u C C C C W W W W .   h.k.k.k.G.I.I.I.I.I.I.I.I.I.I.I.I.I.I.I.I.I.I.I.I.I.I.I.I.I.I.I.I.I.I.I.I.I.k i i i d g g g N V.V.V.V.  ",
"D V.V.V.D.I.I.I.I.'.'.'.'.I.I.I.I.`.'.'.'.'.'.'.'.'.'.'.'.'.C.V.V.V.Y.'.'.'.U.V.V.V.V.I.I.I.I.'.'.'.'.G.V.V.V.s.U U U U U U U U U U U U y t t t y P P P P P P P P P P P P . X X X X   + W W W W W W W W W W W W P t t t u C C C V W W W W .   h.k.k.k.G.I.I.I.I.I.I.I.I.I.I.I.I.I.I.I.I.I.I.I.I.I.I.I.I.I.I.I.I.I.I.I.I.I.k i i i d g g g N V.V.V.V.  ",
"> h h h h h h h h h h h h h.k.k.k.v h h h v k.k.k.k.k.k.k.k.k.k.k.k.k.k.k.k.k.k.k.k.k.k.k.k.k.h h h h > * * * ^ XXXXXX}. . . . .t t t t R W W W R t t t t W W W W W W W W W W W W p.w.w.w./.IXIXIXIXS.w.w.w.O + W W W W W W W W y t t t z C C C 9 d h h h i i i i p h h h d O O O O d h h h h h h h a i i i i i i i i i i i i d h h h g g g g N V.V.V.V.  ",
"> h h h h h h h h h h h h h.k.k.k.v h h h v k.k.k.k.k.k.k.k.k.k.k.k.k.k.k.k.k.k.k.k.k.k.k.k.k.h h h h > * * * ^ XXXXXX}. . . . .t t t t R W W W R t t t t W W W W W W W W W W W W p.S.S.S./.IXIXIXIXS.w.w.w.O + W W W W W W W W y t t t z C C C 9 d h h h i i i i p h h h d O O O O d h h h h h h h a i i i i i i i i i i i i d h h h h g g g N V.V.V.V.  ",
"> h h h h h h h h h h h h h.k.k.k.v h h h v k.k.k.k.k.k.k.k.k.k.k.k.k.k.k.k.k.k.k.k.k.k.k.k.k.h h h h > * * * ^ XXXXXX}. . . . .t t t t R W W W R t t t t W W W W W W W W W W W W p.S.S.S./.IXIXIXIXS.w.w.w.O + W W W W W W W W y t t t z C C C 9 d h h h i i i i p h h h d O O O O d h h h h h h h a i i i i i i i i i i i i d h h h h g g g N V.V.V.V.  ",
"> h h h h h h h h h h h h h.k.k.k.v h h h v k.k.k.k.k.k.k.k.k.k.k.k.k.k.k.k.k.k.k.k.k.k.k.k.k.h h h h > * * * ^ XXXXXX}. . . . .t t t t R W W W R t t t y W W W W W W W W W W W W p.S.S.S./.IXIXIXIXS.w.w.w.O + W W W W W W W W y t t t z C C C 9 d h h h i i i i p h h h h O O O O d h h h h h h h a i i i i i i i i i i i i d h h h g g g g l V.V.V.V.  ",
"> g g g g B B B B B B B B *.*.*.*.F F F F Z Z Z Z Z *.*.*.*.Z Z Z Z Z Z Z Z Z Z Z Z Z Z Z Z Z g g g g g g g g 7 X X X X . . . . . . . . . . . . < W W W W y y y y W W W W W W W W 7XLXLXLXLX4X4X4X4XsXsXsXsXr.R R R R R R R R R R R R V V V V X   . R R R R R R R R R R R R <   . . . . P P P P V V V V ' Q Q Q r X X X X X   # B B B B Z Z Z Z B B B B B B B B B N N N N N N N N N N N N B B B B B B B B B Z Z Z Z   ",
"> g g g m B B B B B B B B F *.*.*.*.*.*.*.F B B B B *.*.*.*.B B B B B B B B B B B B B B B B B g g g g g g g g : < W W W W t t t t W W W W W W W W 7XIXIXIXPX5X5X5X5XdXfXfXfXr.W W W W W W W W W W W W C C C C X   . W W W W W W W W W W W W <   P P P P V C C C ' W W W r # B B B B *.*.*.*.B B B B B B B B B B B B B B B B B B B B B B B B B B B B B B B B B B   ",
"> g g g m B B B B B B B B F *.*.*.*.*.*.*.F B B B B *.*.*.*.B B B B B B B B B B B B B B B B B g g g g g g g g : < W W W W t t t t W W W W W W W W 7XIXIXIXPX5X5X5X5XdXfXfXfXr.W W W W W W W W W W W W C C C C X   . W W W W W W W W W W W W <   P P P P V C C C ' W W W r # B B B B *.*.*.*.B B B B B B B B B B B B B B B B B B B B B B B B B B B B B B B B B B   ",
"> g g g m B B B B B B B B F *.*.*.*.*.*.*.F B B B B *.*.*.*.B B B B B B B B B B B B B B B B B g g g g g g g g : < W W W W t t t t W W W W W W W W 7XIXIXIXPX5X5X5X5XdXfXfXfXr.W W W W W W W W W W W W C C C C X   . W W W W W W W W W W W W <   P P P P V C C C ' W W W r # B B B B *.*.*.*.B B B B B B B B B B B B B B B B B B B B B B B B B B B B B B B B B B   ",
"S b.b.b.b.b.b.b.c.a.a.a.a.c.c.c.c.-.*.*.*.:.Z.Z.Z.Z.:X:X:X:X).P.P.P.P.P.P.P.P.P.P.P.P.n.n.n.n.b.b.b.b.Z.Z.Z.Z.B.f.f.f.d.d d d d = * * * u U U U Q } } } } Q Q Q Q T T T T ' / / / V.9X9X9X9XDXDXDXDX0X0X0X0Xy.} } } } } } } } } } } } : : : : 7 7 7 7 5 U U U U } } } } } } } } R T T T e < < < < < < < <   y y y y [ { { { O.} } } ! U U U r d P.P.P.).jXjXjXjX-X-X-X-X).).P.P.P.P.P.).P.P.P.P.P.b.b.b.b.Z.P.P.P.P.P.).).).Z.Z.Z.Z.  ",
"d.=X=X=X`.I.I.I.I.V.V.V.V.V.C.C.C.c.*.*.*.c.1X1X1X1XSXSXSXSXbXbXbXbXbXbXbXbXbXbXbXbXcX=X=X=X=X=X=X=X=XlXbXbXbXxX1X1X1X<Xf.f.f.f.h h h h O. . . . . . . . . . . . .y t t t l C C C 0.w.w.w./.fXfXfXfXS.w.w.w.y. . . . . . . . . . . . .V C C C {  . . . . . . . . . . . .T P P P P P P P P P P P P   t t t t |  . . . . . . . . . . .| n bXbXbXnXFXFXFXFXSXSXSXSXmXbXbXbXbXbXbXbXbXbXbXbXbXU.I.I.I.lXbXbXbXbXbXbXbXbX1X1X1X1X  ",
"d.=X=X=X`.I.I.I.I.V.V.V.V.V.V.C.C.a.*.*.*.c.1X1X1X1XSXSXSXSXbXbXbXbXbXbXbXbXbXbXbXbXcX=X=X=X=X=X=X=X=XlXbXbXbXxX1X1X1X<Xd.d.f.f.h h h h O. . . . . . . . . . . . .y t t t l C C C 0.w.w.w./.fXfXfXfXS.w.w.w.y. . . . . . . . . . . . .V C C C {  . . . . . . . . . . . .T P P P P P P P P P P P P   t t t t |  . . . . . . . . . . .| n bXbXbXnXFXFXFXFXSXSXSXSXmXbXbXbXbXbXbXbXbXbXbXbXbXU.I.I.I.lXbXbXbXbXbXbXbXbX1X1X1X1X  ",
"d.=X=X=X`.U.I.I.I.V.V.V.V.C.V.V.C.a.*.*.*.c.1X1X1XxXSXSXSXSXbXbXbXbXbXbXbXbXbXbXbXbXcX=X=X=X=X=X-X=X-XlXbXbXbXxX1X1X1X<Xd.d.d.f.h a a a O. . . . . . . . . . . . .y t t t l C C C 0.w.w.w./.fXfXfXfXw.w.w.w.y. . . . . . . . . . . . .V C C C {  . . . . . . . . . . . .T P P P P P P P P P P P P   t t t t |  . . . . . . . . . . .| n bXbXbXnXFXFXFXFXSXSXSXSXmXbXbXbXbXbXbXbXbXbXbXbXbXU.I.I.I.lXbXbXbXbXbXbXbXbX1X1X1X1X  ",
"d.'.'.'.`.U.U.U.U.D.D.D.D.z.z.z.z.-.F F F c.xXxXxXxXBXBXBXBXxXlXlXlXlXlXlXlXlXlXlXlXlX'.'.'.'.'.-X=X-XlXcXbXcXlX<X<X<X:Xa.a.a.i./ / / / O.@.@.@.@.@.@.@.@.| | | | w w w w z V V V F j.j.j.S.uXuXuXuXq.q.q.q.O.| | | @.@.@.@.@.@.@.@.@.+ + + + 9 g g g ` @.@.@.@. . . . .} } } } P P P P P P P P P P P P P X X X X . X X X X X X X + u u u u } | | | @.@.@.@.@.@.@.@.@.+ + + + o @ @ @ &.mXmXmXmXVXVXVXAXBXBXBXBXcXxXxXxXxXxXxXxXxXcXcXcXcX`.`.`.`.lXcXcXcXcXxXxXxXxX<X<X<X<X  ",
"i.I.I.I.Y.=X=X=X'.I.I.I.I.l h h h N B B B c.bXbXbXbXgXgXgXgXU.I.I.I.I.I.I.I.I.I.I.I.I.I.I.I.I.'.=X=X=X<X1X1X1X:XI.I.I.I.%.%.D %..XXXXXXXXXXXXXXXXXXXXXXX|.P P P P o o o o I W W W Q U U U U < < < < n n n n T P P P } XXXXXXXXXXXXXXXXXXXXXXXXX   K XXXXXX}. . . . .t t t t t t t t T W W W W W W W W W W W W .   2 W W W W W W W Q C C C C T P P P +.XXXXXXXXXXXXXXXXXXXXXXXXX   m *.*.*.J.VXVXVXVXgXgXgXgX=X=X-X-X=X=X=X=X=X=X=X=X-X1X1X1X1XbXbXbXbXhXgXgXgX-X=X=X=X=X=X=X=X=X  ",
"i.I.I.I.Y.=X=X=X'.I.I.I.I.l h h h N B B B c.bXbXbXbXgXgXgXgXU.I.I.I.I.I.I.I.I.I.I.I.I.I.I.I.I.'.=X=X=X<X1X1X1X:XI.I.I.I.%.%.%.%..XXXXXXXXXXXXXXXXXXXXXXX|.P P P P o o o o I W W W Q U U U U < < < < n n n n T P P P } XXXXXXXXXXXXXXXXXXXXXXXXX   K XXXXXX}. . . . .t t t t t t t t T W W W W W W W W W W W W .   2 W W W W W W W Q C C C C T P P P +.XXXXXXXXXXXXXXXXXXXXXXXXX   m *.*.*.J.VXVXVXVXgXgXgXgX=X=X-X-X=X=X=X=X=X=X=X=X-X1X1X1X1XbXbXbXbXhXgXgXgX-X=X=X=X=X=X=X=X=X  ",
"i.I.I.I.Y.=X=X=X'.I.I.I.I.l h h h N B B B c.bXbXbXbXgXgXgXgXU.I.I.I.I.I.I.I.I.I.I.I.I.I.I.I.I.'.=X=X=X<X1X1X1X:XI.I.I.I.%.D %.%..XXXXXXXXXXXXXXXXXXXXXXX|.P P P P o o o o I W W W I U U U U < < < < n n n n T P P P } XXXXXXXXXXXXXXXXXXXXXXXXX   K XXXXXX}. . . . .t t t t t t t t T W W W W W W W W W W W W .   2 W W W W W W W Q C C C C T P P P +.XXXXXXXXXXXXXXXXXXXXXXXXX   m *.*.*.J.VXVXVXVXgXgXgXgX=X=X-X-X=X=X=X=X=X=X=X=X-X1X1X1X1XbXbXbXbXhXgXgXgX-X=X=X=X=X=X=X=X=X  ",
"i.U.U.U.Y.=X=X=X'.U.U.U.U.l h h h N B B B c.bXbXbXcXgXgXgXgXU.I.I.I.I.I.I.I.I.I.I.I.I.U.U.U.U.=X=X=X=X<X1X1X1X:XI.I.I.I.%.%.%.%..XXXXXXXXXXXXXXXXX}.}.}.|.P P P P o o o o I W Q Q Q U U U U < < < < v v v v r y P P } .X.X}.XXXXXXXXXXXXXXXXXXX   J {.{.{.|.| | | | t t t t t t t t T W W W W W W W W W W W W .   e W W W W W W W Q V V V V P P P P O.}.}.}.XXXXXXXXXXXXXXXXXXX   M *.*.*.J.VXVXVXVXgXgXgXgX=X-X-X-X=X=X=X=X=X=X=X=X-X1X1X1X1XbXbXbXbXhXgXgXgX-X=X=X=X=X=X=X=X=X  ",
"d.=X=X=X`.I.I.I.U.-X=X=X=Xk.k.k.k.S B B B c.1X1X1X1XI.I.I.I.I.I.I.I.I.I.I.I.I.I.I.I.U.gXgXgXgXgXgXgXgXY.I.I.I.I.I.I.I.I.%.%.%.%.OXOXOXOXXXXXXXXX+.W W W Q a a a a * * * * }  . . . . . . .| t t t t < W W W ! XXXXXXXXOXOXOXOX+ R W W W T t t t y W W W W W W W W |  . . . . . . . . . . .| t t t t .   e W W W } XXXXXXXXOXOXOXOXX   P.bXbXbXbXbXbXbXcX=X=X=X=X=X'.=X=X=X=X=X=X-XgXgXgXgXgXgXgXgXgXgXgXgX=X=X=X=X=X=X=X=X=X=X=X=X=X  ",
"d.=X=X=X`.I.I.I.U.=X=X=X=Xk.k.k.k.S B B B c.1X1X1X1XI.I.I.I.I.I.I.I.I.I.I.I.I.I.I.I.U.gXgXgXgXgXgXgXgXY.I.I.I.I.I.I.I.I.%.%.%.%.OXOXOXOXXXXXXXXX+.W W W Q a a a a * * * * }  . . . . . . .| t t t t < W W W ! XXXXXXXXOXOXOXOX+ R W W W T t t t y W W W W W W W W |  . . . . . . . . . . .| t t t t .   e W W W } XXXXXXXXOXOXOXOXX   P.bXbXbXbXbXbXbXcX=X=X=X=X'.'.=X=X=X=X=X=X-XgXgXgXgXgXgXgXgXgXgXgXgX=X=X=X=X=X=X=X=X=X=X=X-X=X  ",
"d.=X=X=X`.I.I.I.U.=X=X=X=Xk.k.k.k.S B B B c.1X1X1X1XI.I.I.I.I.I.I.I.I.I.I.I.I.I.I.I.U.gXgXgXgXgXgXgXgXY.I.I.I.I.I.I.I.I.%.%.%.%.OXOXOXOXXXXXXXXX+.W W W Q a a a a * * * * }  . . . . . . .| t t t t < W W W ! XXXXXXXXOXOXOXOX+ R W W W T t t t y W W W W W W W W |  . . . . . . . . . . .| t t t t .   e W W W } XXXXXXXXOXOXOXOXX   P.bXbXbXbXbXbXbXcX=X=X=X=X'.'.'.=X=X=X=X=X-XgXgXgXgXgXgXgXgXgXgXgXgX=X=X=X=X=X=X=X=X=X=X=X=X=X  ",
"d.=X=X=X`.I.I.I.U.=X=X=X=Xk.k.k.k.S B B B c.1X1X1X1XI.I.I.I.I.I.I.I.I.I.I.I.I.I.I.I.U.gXgXgXgXgXgXgXgXY.I.I.I.I.I.I.I.I.%.%.%.%.OXOXOXOXXXXXXXXX+.W W W Q a a a a * * * * }  . . . . . . .| t t t t < W W W ! XXXXXXXXOXOXOXOX+ R W W W T t t t y W W W W W W W W |  . . . . . . . . . . .| t t t t .   e W W W } XXXXXXXXOXOXOXOXX   P.bXbXbXbXbXbXbXcX=X=X=X=X'.'.'.'.=X=X=X=X-XgXgXgXgXgXgXgXgXgXgXgXgX=X=X=X=X=X=X=X=X=X=X=X=X=X  ",
"d.=X=X=X=X'.'.'.'.=X=X=X=Xv h h h N B B B &.l.l.l.l.C.C.C.C.I.I.I.I.I.I.I.I.I.I.I.I.U.=X=X=X=Xl.l.l.l.G.I.I.I.I.I.I.I.I.K.K.K.I.&.&.&.&.%.%.%.%.] ] ] ] ] n n n n % % % % X . X X H }.}.}.o.. . . .   . . . . X X X X X X X X   | | } | | | | | | | | | } y y y t . . . . o.}.}.}.+. . . .} y y y y . . . .   . . . . X X X X X X X X V.-X-X-X'.Y.Y.Y.Y.=X=X=X=X=X=X=X=X=X=X=X=X-XkXkXkXjXD.D.D.D.=X=X=X=X=X=X=X=X=X=X=X=X=X=X=X=X=X  ",
"d.=X=X=X=X=X=X=X=X=X=X=X=Xl h h h N B B B S k.k.k.k.V.V.V.V.I.I.I.I.I.I.I.I.I.I.I.I.U.=X=X=X=Xk.k.k.k.G.I.I.I.I.I.I.I.I.I.I.I.I.%.%.%.%.%.%.%.D %.%.%.%.%.%.%.%.%.% % % % X   H XXXXXXo. . . . . . . . . . . . .} t t t t o.XXXXXX+. . . .} t t t t   m.=X=X=X`.I.I.I.U.=X=X=X=X=X=X=X=X=X=X=X=X-XkXkXkXkXV.V.V.V.'.=X=X=X=X=X=X=X=X=X=X=X=X=X=X=X=X  ",
"d.=X=X=X=X=X=X=X=X=X=X=X=Xl h h h N B B B S k.k.k.k.V.V.V.V.I.I.I.I.I.I.I.I.I.I.I.I.U.=X=X=X=Xk.k.k.k.G.I.I.I.I.I.I.I.I.I.I.I.I.%.%.%.%.%.%.D %.%.%.D D %.%.%.%.%.% % % % X   H XXXXXXo. . . . . . . . . . . . .} t t t t o.XXXXXX+. . . .} t t t t   m.=X=X=X`.I.I.I.U.=X=X=X=X=X=X=X=X=X=X=X=X-XkXkXkXkXV.V.V.V.'.=X=X=X=X=X=X=X=X=X=X=X=X=X=X=X=X  ",
"d.=X=X=X=X=X=X=X=X=X=X=X=Xl h h h N B B B S k.k.k.k.V.V.V.V.I.I.I.I.I.I.I.I.I.I.I.I.U.=X=X=X=Xk.k.k.k.G.I.I.I.I.I.I.I.I.I.I.I.I.%.%.%.%.%.%.D D %.%.D D %.%.%.%.%.% % % % X   H XXXXXXo. . . . . . . . . . . . .} t t t t o.XXXXXX+. . . .} t t t t   m.=X=X=X`.I.I.I.U.=X=X=X=X=X=X=X=X=X=X=X=X-XkXkXkXkXV.V.V.V.'.=X=X=X=X=X=X=X=X=X=X=X=X=X=X=X=X  ",
"d.=X=X=X=X=X=X=X=XY.Y.Y.Y.l h h h N B B B =.x.x.x.x.H.H.H.H.I.I.I.I.I.I.I.I.I.I.I.I.I.F.F.F.F.k.k.k.k.G.I.I.I.I.I.I.I.I.I.I.I.I.V.V.m.m.m.m.m.m.m.m.m.m.m.g.g.g.g.= = = = X   + 3 3 3 3 |.|.|.|.@. . . .! R R R E j j j j 3 5 5 5 ^ { { { { R R R T 2 2 2 2   z.Y.Y.Y.Y.`.`.`.`.Y.Y.Y.Y.=X=X=X=X=X=X=X=X`.U.U.U.U.V.V.V.V.'.=X=X=X=X=X=X=X=X=X=X=X=X=X=X=X=X  ",
"d.=X=X=X=X=X=X=X'.I.I.I.I.l h h h N B B B =.V.V.V.D.I.I.I.I.I.I.I.I.I.I.I.I.I.I.I.I.I.k.k.k.k.k.k.k.k.G.I.I.I.I.I.I.I.I.I.I.I.I.I.I.I.I.I.I.I.I.I.I.I.I.I.V.V.V.V.i i i i X XXXXXXXX@. . . .W t t t u C C C C 8 C C C / W W W W W W W W . g.I.I.I.Y.=X=X=X'.I.I.I.I.'.=X=X=X=X=X=X=XU.V.V.V.V.V.V.V.V.'.=X=X=X=X=X=X=X=X=X=X=X=X=X=X=X=X  ",
"d.=X=X=X=X=X=X=X'.I.I.I.I.l h h h N B B B =.V.V.V.V.I.I.I.I.I.I.I.I.I.I.I.I.I.I.I.I.I.k.k.k.k.k.k.k.k.G.I.I.I.I.I.I.I.I.I.I.I.I.I.I.I.I.I.I.I.I.I.I.I.I.I.V.V.V.V.i i i i X XXXXXXXX@. . . .W t t t u C C C C 8 C C C / W W W W W W W W . g.I.I.I.Y.=X=X=X'.I.I.I.I.'.=X=X=X=X=X=X=XU.V.V.V.V.V.V.V.V.'.=X=X=X=X=X=X=X=X=X=X=X=X=X-X=X=X  ",
"d.=X=X=X=X=X=X=X'.I.I.I.I.l h h h N B B B =.V.V.V.C.I.I.I.I.I.I.I.I.I.I.I.I.I.I.I.I.I.k.k.k.k.k.k.k.k.G.I.I.I.I.I.I.I.I.I.I.I.I.I.I.I.I.I.I.I.I.I.I.I.I.I.V.V.V.V.i i i i X XXXXXXXX@. . . .W t t t u C C C C 8 C C C / W W W W W W W W . g.I.I.I.Y.=X=X=X'.I.I.I.I.'.=X=X=X=X=X=X=XU.V.V.V.V.V.V.V.V.'.=X=X=X=X=X=X=X=X=X=X=X=X=X=X=X=X  ",
"d.=X=X=X=X=X=X=X'.I.I.I.K.k h h h N B B B =.V.V.V.V.G.G.G.G.G.G.G.G.I.I.I.I.I.I.I.I.G.p.p.p.p.p.p.p.p.D.I.I.I.I.I.I.I.I.G.G.G.G.G.G.G.G.I.I.I.I.I.I.I.I.I.m.m.m.m.i i i i X ........! Q Q Q r < < < w C C C C - - - - F v.v.v.c.[ [ [ [ W W ! ! < + + + X d.I.I.I.U.`.`.`.`.U.U.U.U.=X=X=X=X'.`.`.`.I.m.x.x.x.x.x.m.m.'.=X=X=X=X=X=X=X'.Y.Y.Y.Y.Y.Y.Y.Y.  ",
"d.=X=X=X=X=X=X=X'.V.V.V.V.l h h h N B B B =.V.V.V.V.k.k.k.k.k.k.k.k.G.I.I.I.H.V.V.V.m.h h h h h h h h V.I.I.I.I.I.I.I.I.k.k.k.k.k.k.k.k.G.I.I.I.I.I.I.I.I.k.k.k.k.i i i i X @ C C C C E.^.^.^.eXKXKXKXDXQ.Q.Q.~. . . . . . . . .< i.V.V.V.G.I.I.I.U.=X=X=X=X=X=X=X=XU.I.I.I.D.k.k.k.k.k.k.k.k.'.=X=X=X=X=X=X=XI.V.V.V.V.V.V.V.V.  ",
"d.=X=X=X=X=X=X=X'.V.V.V.V.l h h h N B B B =.V.V.V.V.k.k.k.k.k.k.k.k.G.I.I.I.H.V.V.V.m.h h h h h h h h V.I.I.I.I.I.I.I.I.k.k.k.k.k.k.k.k.G.I.I.I.I.I.I.I.I.k.k.k.k.i i i i X @ C C C C E.^.^.Q.eXKXKXKXDXQ.Q.Q.~. . . . . . . . .< i.V.V.V.G.I.I.I.U.=X=X=X=X=X=X=X=XU.I.I.I.D.k.k.k.k.k.k.k.k.'.=X=X=X=X=X=X=XI.V.V.V.V.V.V.V.V.  ",
"d.=X=X=X=X=X=X=X'.V.V.V.V.l h h h N B B B =.V.V.V.V.k.k.k.k.k.k.k.k.G.I.I.I.H.V.V.V.m.h h h h h h h h V.I.I.I.I.I.I.I.I.k.k.k.k.k.k.k.k.G.I.I.I.I.I.I.I.I.k.k.k.k.i i i i X @ C C C C E.Q.Q.Q.eXKXKXKXDXQ.Q.Q.~. . . .y. . . . .< i.V.V.V.G.I.I.I.U.=X=X=X=X=X=X=X=XU.I.I.I.D.k.k.k.k.k.k.k.k.'.=X=X=X=X=X=X=XI.V.V.V.V.V.V.V.V.  ",
"d.'.'.'.'.`.`.`.`.V.V.V.V.l h h h N B B B =.V.V.V.V.h.h.h.h.h.h.h.h.D.I.I.I.G.V.V.V.m.h h h h h h h h m.I.I.I.I.I.I.I.H.k.k.k.k.k.k.k.k.G.I.I.I.I.I.I.I.G.h.h.h.h.i i i i X o C C C C W.^.^.^.eXKXKXKXDXQ.Q.Q.~. . . . . .@.@.@.< i.V.V.V.G.I.I.I.I.'.'.'.'.`.`.`.`.I.I.I.I.F.k.k.k.k.k.k.k.k.`.'.'.'.'.'.'.'.I.V.V.V.V.V.V.V.V.  ",
"c k.k.k.p.h h h h h h h h h.k.k.k.=.*.*.*.=.k.k.k.h.i i i i i i i i i i i i i i i i i i i i i h h h h h h h h h h h h h h h h h h h h h h h h h a i i i i i i i i   X W W W W W W W W HXKXKXKX6X5X5X5X4XyXyXyXtX . . . .}.XXXXXX3 i.V.V.V.d.h h h h k.k.k.k.h h h h h h h h h h h h k k.k.k.k.k.k.k.k.k.k.k.k.k.k.k.k.k.k.k.k.k.  ",
"c k.k.k.p.h h h h h h h h h.k.k.k.=.*.*.*.=.k.k.k.h.i i i i i i i i i i i i i i i i i i i i i h h h h h h h h h h h h h h h h h h h h h h h h h a i i i i i i i i   X W W W W W W W W HXKXKXKX6X5X5X5X4XyXyXyXtX . . . .}.XXXXXX3 i.V.V.V.d.h h h h k.k.k.k.h h h h h h h h h h h h k k.k.k.k.k.k.k.k.k.k.k.k.k.k.k.k.k.k.k.k.k.  ",
"c k.k.k.p.h h h h h h h h h.k.k.k.=.*.*.*.=.k.k.k.h.i i i i i i i i i i i i i i i i i i i i i h h h h h h h h h h h h h h h h h h h h h h h h h a i i i i i i i i   X W W W W W W W W HXKXKXKX6X5X5X5X4XyXyXyXtX . . . .}.XXXXXX3 i.V.V.V.d.h h h h k.k.k.k.h h h h h h h h h h h h k k.k.k.k.k.k.k.k.k.k.k.k.k.k.k.k.k.k.k.k.k.  ",
"c k.k.k.p.h h h h h h h h h.k.k.k.=.*.*.F =.k.k.k.h.i i i i i i i i i i i i i i i i i i i i i h h h h h h h h h h h h h h h h h h h h h h h h h a i i i i i i i i   X W W W W W W W W HXKXKXKX6X5X5X5X4XyXyXyXtX . . . .}.XXXXXX3 i.V.V.V.d.h h h h k.k.k.k.h h h h h h h h h h h h k k.k.k.k.k.k.k.k.k.k.k.k.k.k.k.k.k.k.k.k.k.  ",
"> g g g g g g g g g g g g B B B B N g g g N B B B B B B B B g g g g g g g g g B B B B B B B B g g g g N B B B N g g g g g g g g X   r | | | |  . . . . . . . .~.^.^.^.wXyXyXyXeX^.^.^.^.. . . . X X X X   X o o o : B B B B B B B B B B B B N N N N B B B B B B B B B g g g g B B B B B B B B B B B B B   ",
"> g g g g g g g g g g g g B B B B m g g g m B B B B B B B B g g g g g g g g m B B B B B B B B g g g g N B B B N g g g g g g g g U  . . . . . . . . . . . .~.Q.Q.Q.wXyXyXyXrX^.^.Q.Q.  # B B B B B B B B B B B B B B B B B B B B B B B B B g g g g N B B B B B B B B B B B B   ",
"> g g g g g g g g g g g g B B B B m g g g m B B B B B B B B g g g g g g g g m B B B B B B B B g g g g N B B B N g g g g g g g g U  . . . . . . . . . . . .~.Q.Q.Q.wXyXyXyXrXQ.Q.Q.Q.  # B B B B B B B B B B B B B B B B B B B B B B B B B g g g g N B B B B B B B B B B B B   ",
"> g g g g g g g g g g g g B B B B m g g g m B B B B B B B B g g g g g g g g m B B B B B B B B g g g g N B B B N g g g g g g g g U  . . . . . . . . . . . .~.Q.Q.Q.wXyXyXyXrXQ.Q.Q.Q.  # B B B B B B B B B B B B B B B B B B B B B B B B B g g g g N B B B B B B B B B B B B   ",
"8 B B B -.).).).).-X-X-X-X).).).).).).).).).).).).).).).).).d.d.d.d.Z.).).).J.n.n.n.b.g.g.g.g.d.d.d.d.g.g.g.g.g.b.b.b.b.b.b.b.b.%.D D D o   K ( ( ( o.|.|.|.|.|.|.|.+.W W W W F G G G q.q.q.q.q.v.v.v.v.C.C.C.C.i.i.i.i.h > > > d i.i.i.i.D D D D D D D D u.i.i.i.i.i.i.i.u.c c c c &.C.C.C.G.R.R.R.R.I.I.I.I.C.C.C.C.C.B.B.C.Z.).).).).).).).).).).).).).).).).).).).).).).).).).B.C.C.C.n.n.n.n.b.g.g.g.g.g.g.g.g.  ",
"9 *.*.*.n.bXbXbXbXVXVXVXVXbXbXbXbXbXbXbXbXbXbXbXbXbXbXbXbXbXD.V.V.V.>XbXbXbXjXI.I.I.I.V.V.V.V.V.V.V.V.V.V.V.V.G.I.I.I.I.I.I.I.I.C.V.V.V.%   o.XXXXXXXXXXXXXXXXXXXXXX}.P P P P v n n n p = = = s B.B.B.Z.bXbXbXbXY.I.I.I.=.g g g &.I.I.I.I.V.V.V.V.V.V.V.V.H.I.I.I.I.I.I.I.I.k.k.k.k.X   H.bXbXbXMXFXFXFXFXVXVXVXVXbXbXbXbXbXbXbXbXbXbXbXbXbXbXbXbXbX1X1X1X1X1X1X1X1X1X1X1X1X1X1X1X1X1X-X=X=X=XU.I.I.I.H.V.V.V.V.V.V.V.V.  ",
"9 *.*.*.n.bXbXbXbXVXVXVXVXbXbXbXbXbXbXbXbXbXbXbXbXbXbXbXbXbXD.V.V.V.>XbXbXbXjXI.I.I.I.V.V.V.V.V.V.V.V.V.V.V.V.G.I.I.I.I.I.I.I.I.C.V.V.V.%   o.XXXXXXXXXXXXXXXXXXXXXX}.P P P P v n n n p = = = a B.B.B.Z.bXbXbXbXY.I.I.I.=.g g g &.I.I.I.I.V.V.V.V.V.V.V.V.H.I.I.I.I.I.I.I.I.k.k.k.k.X   H.bXbXbXMXFXFXFXFXVXVXVXVXbXbXbXbXbXbXbXbXbXbXbXbXbXbXbXbXbX1X1X1X1X1X1X1X1X1X1X1X1X1X1X1X1X1X-X=X=X=XU.I.I.I.H.V.V.V.V.V.V.V.V.  ",
"9 *.*.*.n.bXbXbXbXVXVXVXVXbXbXbXbXbXbXbXbXbXbXbXbXbXbXbXbXbXD.V.V.V.>XbXbXbXjXI.I.I.I.V.V.V.V.V.V.V.V.V.V.V.V.G.I.I.I.I.I.I.I.I.C.V.V.V.%   o.XXXXXXXXXXXXXXXXXXXXXX}.P P P P v n n n p = = = s B.B.B.Z.bXbXbXbXY.I.I.I.=.g g g &.I.I.I.I.V.V.V.V.V.V.V.V.H.I.I.I.I.I.I.I.I.k.k.k.k.X   H.bXbXbXMXFXFXFXFXVXVXVXVXbXbXbXbXbXbXbXbXbXbXbXbXbXbXbXbXbX1X1X1X1X1X1X1X1X1X1X1X1X1X1X1X1X1X-X=X=X=XU.I.I.I.H.V.V.V.V.V.V.V.V.  ",
"8 F F F c.bXbXbXbXBXBXBXBXlXlXlXlXlXlXlXlXlXlXlXlXlXlXlXlXlXH.H.H.H.<XcXcXcXlX=X=X=X`.H.H.H.H.C.V.V.V.D.D.D.D.H.I.I.I.I.Y.Y.Y.Y.g.g.g.g.%   .XXXXXXXXXXXXXXX}.o.o.o.o.P P P P c c c c u w w w c Z.Z.Z.Z.lXlXlXlXG.G.G.G.b.a.a.a.c.U.Y.Y.U.V.V.V.V.D.D.D.D.I.Y.Y.Y.U.K.K.K.H.p.p.p.p.& # # # Y.mXmXmXMXVXBXBXBXmXmXmXmXbXbXbXbXcXlXlXlXlXlXlXlXlXlXlXlXlX<X<X<X<X<X<X<X<X<X<X<X<X<X<X<X<X<X=X=X=X=XY.Y.Y.Y.I.D.D.D.C.g.g.g.g.  ",
"8 B B B c.bXbXbXbXgXgXgXgX=X=X=X=X=X=X=X=X=X=X-X-X=X=X-X=X=X=X=X=X=X<X1X1X1XxXbXbXbXcX=X=X=X=XC.V.V.V.I.I.I.I.I.I.I.I.U.=X=X=X=Xh h h h oXOXOXOX XXXXXXXo.W W W W P P P P P P P P P P P P [ I.I.I.I.=X=X=X=Xk.k.k.k.=XbXbXbXlX=X=X=X'.V.V.V.V.I.I.I.I.`.=X=X=XY.V.V.V.m.h h h h F *.*.*.lXVXVXVXmX=X=X=X=X=X=X=X=XcXbXbXbXjXgXgXgX-X=X=X=X=XgXgXgXgXgXgXgXgX=X=X=X=X=X=X=X=X=X=X=X=X=XgXgXgXgX=X=X=X=X`.I.I.I.H.h h h h   ",
"8 B B B c.bXbXbXbXgXgXgXgX=X=X=X=X=X=X=X=X=X=X=X=X=X=X-X-X-X=X=X=X=X<X1X1X1XxXbXbXbXcX=X=X=X=XC.V.V.V.I.I.I.I.I.I.I.I.U.=X=X=X=Xh h h h oXOXOXOX XXXXXXXo.W W W W P P P P P P P P P P P P [ I.I.I.I.=X=X=X=Xk.k.k.k.=XbXbXbXlX=X=X=X'.V.V.V.V.I.I.I.I.`.=X=X=XY.V.V.V.m.h h h h F *.*.*.lXVXVXVXmX=X=X=X=X=X=X=X=XcXbXbXbXjXgXgXgX-X=X=X=X=XgXgXgXgXgXgXgXgX=X=X=X=X=X=X=X=X=X-X=X=X=XgXgXgXgX=X=X=X=X`.I.I.I.H.h h h h   ",
"8 B B B c.bXbXbXbXgXgXgXgX=X-X-X=X=X=X=X=X=X=X=X=X=X=X=X=X=X=X=X=X=X<X1X1X1XxXbXbXbXcX=X=X=X=XC.V.V.V.I.I.I.I.I.I.I.I.U.=X=X=X=Xh h h h oXOXOXOX XXXXXXXo.W W W W P P P P P P P P P P P P [ I.I.I.I.=X=X=X=Xk.k.k.k.=XbXbXbXlX=X=X=X'.V.V.V.V.I.I.I.I.`.=X=X=XY.V.V.V.m.h h h h F *.*.*.lXVXVXVXmX=X=X-X=X=X=X=X=XcXbXbXbXjXgXgXgX-X=X-X-X=XgXgXgXgXgXgXgXgX=X=X=X=X=X=X=X=X=X=X=X=X=XgXgXgXgX=X=X=X=X`.I.I.I.H.h h h h   ",
"8 B B B c.bXbXbXbXgXgXgXgX=X=X=X=X-X-X-X-X-X=X=X=X=X-X=X=X=X=X=X=X=X<X1X1X1XxXcXcXcXcX=X=X=X=XD.C.C.C.I.I.I.I.I.U.U.U.U.'.'.'.'.h h h h oXoXoXoX X}.}.}.o.W W W W P P P P P P P P P P P P E I.I.I.I.'.`.'.'.l.l.l.l.;XcXcXcXlX=X=X=X'.C.C.C.C.I.U.U.U.`.=X=X=XY.V.V.V.m.h h h h F F F F kXVXVXVXmX'.'.'.'.=X=X=X=XcXcXcXcXhXgXgXgX-X=X=X-X-XgXgXgXgXgXgXgXgX=X=X=X=X=X=X=X=X=X=X=X=X=XgXgXgXgX=X=X=X=X`.U.U.U.H.h h h h   ",
"9 *.*.*.n.bXbXbXcX=X=X=X=X=X=X=X=X<X1X1X1X<X=X=X=X=X=X=X=X'.=X=X=X=X=X=X=X=X=X=X=X=X=X=X=X=X=X=X=X=X=XU.I.I.I.Y.=X=X=X'.I.I.I.I.h h h h o   P P P P P P P P P P P P e t t t t W W W W W W W W W W W W Q k.k.k.k.VXSXSXSXzX=X=X=X-X-X=X=X=X=X=X=X=X=X=X=X=X=X=X=X=XY.V.V.V.m.h h h h B B B B C.I.I.I.I.I.I.I.U.=X=X=X=XU.I.I.I.`.=X=X=X=X=X=X=X=X=X=X=X=X=X=X=X=X=X=X=X=X=X=X=X=X=XgXgXgXgX=X=X=X=X=X=X=X=X=X=X=X=X`.k.k.k.k.  ",
"9 *.*.*.n.bXbXbXcX=X=X=X=X=X=X=X=X<X1X1X1X<X=X=X=X=X=X=X'.'.=X=X=X=X=X=X=X=X=X=X=X=X=X=X=X=X=X=X=X=X=XU.I.I.I.Y.=X=X=X'.I.I.I.I.h h h h o   P P P P P P P P P P P P e t t t t W W W W W W W W W W W W Q k.k.k.k.VXSXSXSXzX=X=X=X=X=X=X=X=X=X=X=X=X=X=X=X=X=X=X=X=XY.V.V.V.m.h h h h B B B B C.I.I.I.I.I.I.I.U.=X=X=X=XU.I.I.I.`.=X=X=X=X=X=X=X=X=X=X=X=X=X=X=X=X=X=X=X=X=X=X=X=X=XgXgXgXgX=X=X=X=X=X=X=X=X=X=X=X=X`.k.k.k.k.  ",
"9 *.*.*.n.bXbXbXcX=X=X=X=X=X=X=X=X<X1X1X1X<X=X=X=X=X=X=X=X=X=X=X=X=X=X=X=X=X=X=X=X=X=X=X=X=X=X=X=X=X=XU.I.I.I.Y.=X=X=X'.I.I.I.I.h h h h o   P P P P P P P P P P P P e t t t t W W W W W W W W W W W W Q k.k.k.k.VXSXSXSXzX=X=X=X=X=X=X=X=X=X=X=X=X=X=X=X=X=X=X=X=XY.V.V.V.m.h h h h B B B B C.I.I.I.I.I.I.I.U.=X=X=X=XU.I.I.I.`.=X=X=X=X=X=X=X=X=X=X=X=X=X=X=X=X=X=X=X=X=X=X=X=X=XgXgXgXgX=X=X=X=X=X=X=X=X=X=X=X=X`.k.k.k.k.  ",
"9 *.*.*.n.bXbXbXcX=X=X=X=X=X=X=X=X<X1X1X1X<X=X=X=X=X=X=X=X=X=X=X=X=X=X=X=X=X=X=X=X=X=X=X=X=X=X=X=X=X=XU.I.I.I.Y.=X=X=X'.I.I.I.I.h h h h o   P P P P P P P P P P P P e t t t t W W W W W W W W W W W W Q k.k.k.k.VXSXSXSXzX=X=X=X=X=X=X=X=X=X=X=X=X=X=X=X=X=X=X=X=XY.V.V.V.m.h h h h B B B B C.I.I.I.I.I.I.I.U.=X=X=X=XU.I.I.I.`.=X=X=X=X=X=X=X=X=X=X=X=X=X=X=X=X=X=X=X=X=X=X=X=X=XgXgXgXgX=X=X=X=X=X=X=X=X=X=X=X=X`.k.k.k.k.  ",
", g g g S D.D.D.G.=X=X=X=XU.U.U.U.`.-X-X-X-X=X=X=X=X=X=X=X=X=X=X=X=XY.U.U.U.Y.=X=X=X=X=X=X=X=XD.D.D.D.I.I.I.I.Y.=X=X=X'.I.I.U.U.k.h.h.h.% . R R R R W W W W W W W W p.S.w.w.j.R R W R W W W W y t t t R W W W W W W W ! xXxXxXxX-X-X-X-X-X-X=X=X=X=X=X=X'.U.U.U.U.'.=X=X=X=X=X=X=X`.I.I.I.H.h h h h g g g g g.C.C.C.H.'.'.'.'.U.U.U.U.'.=X'.'.=X=X=X=X=X=X=X=X=X=X=X=X=XkXkXkXkXK.D.D.D.D.D.D.D.D.D.D.D.D.U.U.U.U.'.=X=X=X`.U.U.U.H.h h h h   ",
"> g g g S V.V.V.D.=X=X=X=XU.I.I.I.`.=X=X=X=X=X=X=X=X=X=X=X=X=X=X=X=XY.I.I.I.Y.=X=X=X=X=X=X=X=XC.V.V.V.I.I.I.I.Y.=X=X=X'.I.I.I.I.k.k.k.k.% . W W W W W W W W W W W W p.S.w.w.j.W W W W W W W W y t t t R W W W W W W W ! bXbXbXbX-X=X=X=X-X-X=X=X=X=X=X=X'.I.I.I.I.'.=X=X=X=X=X=X=X`.I.I.I.K.h h h h g g g g g.V.V.V.H.=X=X=X'.I.I.I.I.'.=X=X=X=X=X=X=X=X=X=X=X=X=X=X=X=XkXkXkXkXH.V.V.V.V.V.V.V.V.V.V.V.V.I.I.I.I.'.=X=X=X`.I.I.I.H.h h h h   ",
"> g g g S C.V.V.D.=X=X=X=XU.I.I.I.`.=X=X=X=X=X=X=X=X=X=X=X=X=X=X=X=XY.I.I.I.Y.=X=X=X=X=X=X=X=XC.V.V.V.I.I.I.I.Y.=X=X=X'.I.I.I.I.k.k.k.k.% . W W W W W W W W W W W W p.S.w.w.v.W W W W W W W W y t t t R W W W W W W W ! bXbXbXbX-X=X=X=X-X=X=X=X=X=X=X=X'.I.I.I.I.'.=X=X=X=X=X=X=X`.I.I.I.K.h h h h g g g g g.V.V.V.H.=X=X=X'.I.I.I.I.'.=X=X=X=X=X=X=X=X=X=X=X=X=X=X=X=XkXkXkXkXH.V.V.V.V.V.V.V.V.V.V.V.V.I.I.I.I.'.=X=X=X`.I.I.I.H.h h h h   ",
"> g g g S C.V.V.D.=X=X=X=XU.I.I.I.`.=X=X=X=X=X=X=X=X=X=X=X=X=X=X=X=XY.I.I.I.Y.=X=X=X=X=X=X=X=XC.V.V.V.I.I.I.I.Y.=X=X=X'.I.I.I.I.k.k.k.k.% . W W W W W W W W W W W W p.w.w.w.v.W W W W W W W W y t t t R W W W W W W W ! bXbXbXbX-X=X=X=X=X=X'.'.=X=X=X=X'.I.I.I.I.'.=X=X=X=X=X=X=X`.I.I.I.K.h h h h g g g g g.V.V.V.H.=X=X=X'.I.I.I.I.'.=X=X=X=X=X=X=X=X=X=X=X=X=X=X=X=XkXkXkXkXH.V.V.V.V.V.V.V.V.V.V.V.V.I.I.I.I.'.=X=X=X`.I.I.I.H.h h h h   ",
"8 N N N =.V.V.V.C.Y.Y.Y.Y.`.`.`.`.Y.Y.Y.Y.`.=X=X=X=XY.Y.Y.Y.=X=X=X=X`.`.`.`.'.=X=X=X'.Y.Y.Y.Y.C.V.V.V.U.`.`.`.`.Y.Y.Y.Y.`.`.`.`.n v v v o . W W W W W W W W 9X0X0XuXuXaXaXaX0Xj.j.j.j.0X0X0X0Xr.! ! ! [ ] ] ] s.@X@X@X@X=X=X=X=X=X=X=X=X=X=X=X'.'.Y.Y.Y.Y.`.`.`.`.=X=X=X=X=X=X=X=X'.`.`.`.Y.p.p.p.p.g g g g g.V.V.V.G.Y.Y.Y.Y.`.`.`.`.Y.Y.Y.Y.'.=X=X=X=X=X=X=X=X=X=X=X=XI.I.I.I.I.H.H.H.G.V.V.V.D.Y.Y.Y.Y.`.`.`.`.Y.Y.Y.Y.U.I.I.I.H.h h h h   ",
"8 B B B =.V.V.V.C.I.I.I.I.'.=X=X=XY.I.I.I.Y.=X=X=X'.I.I.I.I.'.=X=X=X=X=X=X=X=X=X=X=X'.I.I.I.I.C.V.V.V.Y.=X=X=X`.I.I.I.U.=X=X=X=Xh h h h o . W W W W W W W W pXfXfXfXLXIXIXIXHXw.S.S.e.fXfXfXfXy. . . .{ %.%.%.g.bXbXbXcXI.I.I.I.'.=X=X=X=X=X=X=X`.I.I.I.U.=X=X=X=X=X=X=X=X=X=X=X=X=X=X=X=X`.k.k.k.k.g g g g g.V.V.V.G.I.I.I.U.=X=X=X=XU.I.I.I.`.=X=X=X=X=X=X=X=X=X=X'.'.C.V.V.V.I.I.I.I.H.V.V.V.D.=X=X=X=X=X=X=X=XU.I.I.I.I.I.I.I.H.h h h h   ",
"8 B B B =.V.V.V.C.I.I.I.I.'.=X=X=XY.I.I.I.Y.=X=X=X'.I.I.I.I.'.=X=X=X=X=X=X=X=X=X=X=X'.I.I.I.I.C.V.V.V.Y.=X=X=X`.I.I.I.U.=X=X=X=Xh h h h o . W W W W W W W W pXfXfXfXLXIXIXIXHXw.S.S.S.fXfXfXfXy. . . .{ %.%.%.g.bXbXbXcXI.I.I.I.'.=X=X=X=X=X=X=X`.I.I.I.U.=X=X=X=X=X=X=X=X=X=X=X=X=X=X=X=X`.k.k.k.k.g g g g g.V.V.V.G.I.I.I.U.=X=X=X=XU.I.I.I.`.=X=X=X=X=X=X=X=X=X=X=X=XC.V.V.V.I.I.I.I.H.V.V.V.D.=X=X=X=X=X=X=X=XU.I.I.I.I.I.I.I.H.h h h h   ",
"8 B B B =.V.V.V.C.I.I.I.I.'.=X=X=XY.I.I.I.Y.=X=X=X'.I.I.I.I.'.=X=X=X=X=X=X=X=X=X=X=X'.I.I.I.I.C.V.V.V.Y.=X=X=X`.I.I.I.U.=X=X=X=Xh h h h o . W W W W W W W W pXfXfXfXLXIXIXIXHXw.S.w.S.fXfXfXfXy. . . .{ %.%.%.g.bXbXbXcXI.I.I.I.'.=X=X=X=X=X=X=X`.I.I.I.U.=X=X=X=X=X=X=X=X=X=X=X=X=X=X=X=X`.k.k.k.k.g g g g g.V.V.V.G.I.I.I.U.=X=X=X=XU.I.I.I.`.=X=X=X=X=X=X=X=X=X=X=X=XC.V.V.V.I.I.I.I.H.V.V.V.D.=X=X=X=X=X=X=X=XU.I.I.I.I.I.I.I.H.h h h h   ",
"8 N N N =.V.V.V.C.K.K.K.K.`.`.`.`.Y.Y.Y.Y.Y.`.`.`.`.Y.Y.Y.Y.`.`.`.`.'.=X=X=X=X=X=X=X'.I.I.I.I.C.V.V.V.U.`.`.`.Y.I.I.I.I.Y.Y.Y.Y.h h h h o . r r r r r r r r 0XiXiXiXHXJXJXKXDX(.(.(.(.fXfXfXfXk.y.y.y.p.%.%.%.d.>X>X>X>XY.Y.Y.Y.'.=X=X=X=X=X=X=X'.Y.Y.Y.Y.=X=X=X=X=X=X=X=X=X=X=X'.'.=X=X=X`.p.p.p.p.g g g g g.V.V.V.D.K.K.K.I.`.`.`.`.Y.Y.Y.Y.`.`.`.`.'.=X=X=X=X=X=X=X=XH.H.H.H.K.K.K.K.H.H.H.H.H.Y.Y.Y.Y.`.`.`.`.Y.Y.Y.Y.I.K.K.K.G.h h h h   ",
"> g g g S V.V.C.V.V.V.V.V.I.I.I.I.`.=X=X=X`.I.I.I.U.=X=X=X=XU.I.I.I.`.=X=X=X=X=X=X=X'.I.I.I.I.C.V.V.V.I.I.I.I.I.I.I.I.I.V.V.V.V.h h h h o   q.w.w.w.2X5X5X5X%X$X$X$X3XfXfXfXfX/.w.w.w.j.u.u.u.d.V.V.V.C.=X=X=X=X=X=X=X=X=X=X=X=X=X=X=X=X=X=X=X=X=X=X=X=X=X=X=X=X=X'.=X=X=X`.h h h h g g g g g.V.V.V.V.V.V.V.C.I.I.I.I.'.=X=X=XU.I.I.I.Y.=X=X=X=X=X=X=X=X=X=X=X=XG.V.V.V.K.=X=X=X'.V.V.V.V.I.I.I.I.'.=X=X=XI.V.V.V.m.h h h h   ",
"> g g g S V.V.V.V.V.V.V.V.I.I.I.I.`.=X=X=X`.I.I.I.U.=X=X=X=XU.I.I.I.`.=X=X=X=X=X=X=X'.I.I.I.I.C.V.V.V.I.I.I.I.I.I.I.I.I.V.V.V.V.h h h h o   q.w.S.S.2X5X5X5X%X$X$X$X3XfXfXfXfX/.w.w.w.j.u.u.u.d.V.V.V.C.=X=X=X=X=X=X=X=X=X=X=X=X=X=X=X=X=X=X=X=X=X=X=X=X=X=X=X=X=X=X=X=X=X`.h h h h g g g g g.V.V.V.V.V.V.V.C.I.I.I.I.'.=X=X=XU.I.I.I.Y.=X=X=X=X=X=X=X=X=X=X=X=XG.V.V.V.K.=X=X=X'.V.V.V.V.I.I.I.I.'.=X=X=XI.V.V.V.m.h h h h   ",
"> g g g S V.V.V.V.V.V.V.V.I.I.I.I.`.=X=X=X`.I.I.I.U.=X=X=X=XU.I.I.I.`.=X=X=X=X=X=X=X'.I.I.I.I.C.V.V.V.I.I.I.I.I.I.I.I.I.V.V.V.V.h h h h o   q.w.S.S.2X5X5X5X%X$X$X$X3XfXfXfXfX/.w.w.w.j.u.u.u.d.V.V.V.C.=X=X=X=X=X=X=X=X=X=X=X=X=X=X=X=X=X=X=X=X=X=X=X=X=X=X=X=X=X=X=X=X=X`.h h h h g g g g g.V.V.V.V.V.V.V.C.I.I.I.I.'.=X=X=XU.I.I.I.Y.=X=X=X=X=X=X=X=X=X=X=X=XG.V.V.V.K.=X=X=X'.V.V.V.V.I.I.I.I.'.=X=X=XI.V.V.V.m.h h h h   ",
"> g g g S V.V.V.V.m.m.m.m.H.K.K.K.Y.`.`.`.Y.I.I.I.I.`.`.`.`.I.I.I.I.Y.`.`.`.`.`.`.`.`.I.I.I.I.V.V.V.V.G.K.K.K.K.K.K.K.H.m.m.m.m.k h h h o   X X X X w./././.2X%X5X5X%X$X$X$X3XsXsXsXsXe.w.w.w.j.u.u.u.i.m.m.m.V.`.`.`.`.`.`.`.`.`.`.`.`.`.`.`.`.`.`.`.`.`.`.`.`.`.`.`.`.`.`.`.`.`.U.h h h h g g g g g.V.V.V.V.m.m.m.V.K.K.K.K.`.`.`.`.I.I.I.I.U.`.`.`.`.`.`.`.`.`.`.`.`.G.V.V.V.K.`.`.`.`.V.V.V.V.I.I.I.I.Y.`.`.`.K.m.m.m.z.h h h h   ",
"8 B B B =.V.V.V.V.h h h h h h h h h h h h v k.k.k.k.k.k.k.k.k.k.k.k.k.k.k.k.k.k.k.k.k.k.k.k.k.k.k.k.k.v h h h h h h h d i i i i h.k.k.k.%   w.w.w.w.LXIXIXIXDX$X$X$X$X$X$X$X#Xw.w.w.w.% o o o = s s s s s s s s h h h h h.k.k.k.p O O O , k.k.k.k.k.k.k.k.h h h h h h h h a i i i i k.k.k.k.g g g g g.V.V.V.d.h h h h h h h h h h h h p.k.k.k.p.h h h h k.k.k.k.k.k.k.k.k.k.k.k.k.k.k.k.k.k.k.k.k.k.k.k.k.v h h h h h h h k k.k.k.k.  ",
"8 B B B =.V.V.V.V.h h h h h h h h h h h h v k.k.k.k.k.k.k.k.k.k.k.k.k.k.k.k.k.k.k.k.k.k.k.k.k.k.k.k.k.v h h h h h h h d i i i i h.k.k.k.%   w.w.w.w.LXIXIXIXDX$X$X$X$X$X$X$X#XS.w.w.w.% o o o = s s s s s s s s d h h h h.k.k.k.p O O O , k.k.k.k.k.k.k.k.h h h h h h h h a i i i i k.k.k.k.g g g g g.V.V.V.d.h h h h h h h h h h h h p.k.k.k.p.h h h h k.k.k.k.k.k.k.k.k.k.k.k.k.k.k.k.k.k.k.k.k.k.k.k.k.v h h h h h h h k k.k.k.k.  ",
"8 B B B =.V.V.V.V.h h h h h h h h h h h h v k.k.k.k.k.k.k.k.k.k.k.k.k.k.k.k.k.k.k.k.k.k.k.k.k.k.k.k.k.v h h h h h h h d i i i i h.k.k.k.%   w.w.w.w.LXIXIXIXDX$X$X$X$X$X$X$X#XS.w.w.w.% o o o = s s s s s s s s d d h h h.k.k.k.p O O O , k.k.k.k.k.k.k.k.h h h h h h h h a i i i i k.k.k.k.g g g g g.V.V.V.d.h h h h h h h h h h h h p.k.k.k.p.h h h h k.k.k.k.k.k.k.k.k.k.k.k.k.k.k.k.k.k.k.k.k.k.k.k.k.v h h h h h h h k k.k.k.k.  ",
"8 B B B =.V.V.V.V.h h h h h h h h h h h h v k.k.k.k.k.k.k.k.k.k.k.k.k.k.k.k.k.k.k.k.k.k.k.k.k.k.k.k.k.v h h h h h h h d i i i i k.k.k.k.%   w.w.w.w.LXIXIXIXDX$X$X$X$X$X$X$X#Xw.w.w.w.% o o o = s s x s s s s x d d d d h.k.k.k.p O O O , k.k.k.k.k.k.k.k.h h h h h h h h a i i i i k.k.k.k.g g g g g.V.V.V.d.h h h h h h h h h h h h p.k.k.k.p.d h h h k.k.k.k.k.k.k.k.k.k.k.k.k.k.k.k.k.k.k.k.k.k.k.k.k.v h h h h h h h k k.k.k.k.  ",
"> g g g g g g g g B B B B g g g g N B B B Z *.*.*.*.*.*.*.*.*.*.*.*.Z B B B Z *.*.*.*.B B B B B B B B B B B B B B B B B B B B B X X X X S S S S aXfXfXdX9X~.~.~./.dXdXdXdXsXsXsXsXr.W W W W W Q Q W W W W Q 8 8 8 8 B B B B Z Z Z Z Z B B B B B B B B B B B B B B B B B B B B B B B B B B B B B B B B B B g g g g B B B B B B B B F *.*.*.*.F F F F B B B B *.*.*.*.Z B B B B B B B B B B B B B B B B g g g g g g g g g g g g g   ",
"> g g g g g g g g B B B B g g g g N B B B Z *.*.*.*.*.*.*.*.*.*.*.*.Z B B B Z *.*.*.F B B B B B B B B B B B B B B B B B B B B B n n n v pXfXfXfX0Xw.w.w./.fXfXfXfXfXfXfXfXr.W W W W W W W W W W W Q 8 8 8 8 B B B B F *.*.*.F B B B B B B B B B B B B B B B B B B B B B B B B B B B B B B B B B N g g g g B B B B B B B B F *.*.*.*.*.*.*.F B B B B *.*.*.*.Z B B B B B B B B B B B B B B B B g g g g g g g g g g g g g   ",
"> g g g g g g g g B B B B g g g g N B B B Z *.*.*.*.*.*.*.*.*.*.*.*.Z B B B Z *.*.*.F B B B B B B B B B B B B B B B B B B B B B n n n n sXfXfXfX0Xw.w.w./.fXfXfXfXfXfXfXfXr.W W W W W W W W W W W Q 8 8 8 8 B B B B F *.*.*.F B B B B B B B B B B B B B B B B B B B B B B B B B B B B B B B B B N g g g g B B B B B B B B F *.*.*.*.*.*.*.F B B B B *.*.*.*.Z B B B B B B B B B B B B B B B B g g g g g g g g g g g g g   ",
"> g g g g g g g g B B B B g g g g N B B B Z *.*.*.*.*.*.*.*.*.*.*.*.Z B B B Z *.*.*.F B B B B B B B B B B B B B B B B B B B B B n n v v pXfXfXfX0Xw.w.w./.fXfXfXfXfXfXfXfXr.W W W W W W W W W W W Q 8 8 8 8 B B B B F *.*.*.F B B B B B B B B B B B B B B B B B B B B B B B B B B B B B B B B B N g g g g B B B B B B B B F *.*.*.*.*.*.*.F B B B B *.*.*.*.Z B B B B B B B B B B B B B B B B g g g g g g g g g g g g g   ",
"d.).).).).).).).).J.J.J.J.m.b.b.b.b.g.g.g.b.B.B.B.B.*.*.*.*.*X*X*X*XlXzXzXzXzXzXzXzXjX*X*X*X*X*X*X*X*X).).).).).).).).).C.C.C.C.H.H.H.H.H.H.H.H.Z.B.B.B.B.z.z.z.z.d.d.d.d.u.u.u.u.u.u.u.u.D H.H.H.H.gXgXgXgXgXR.R.R.R.@X@X@XR.@X@X@X@XZ.B.B.B.B.B.B.Z.Z.B.B.B.B.).).P.).S.S.S.S.p.] ] ] p.8X8X8X8XA.A.A.A.T y y y W | | | | | | | | [ [ [ [ =.-.-.-.).lXlXlXkX*X*X*X*X).).).).).).).).).).).).Z.g.g.g.b.*X*X*X*X*X*X*X*XP.J.J.J.Z.b.b.b.b.g.g.g.g.i.i.i.i.i.i.i.i.a.*.*.*.-.jXjXjXjXvXcXcXcXzXjXjXjX>X*X*X*X*X*X*X*X*X).).).).).).).).).).).).).).).).).  ",
"C.bXbXbXcX1X1X1X1X=X=X=X=XU.I.I.I.G.V.V.V.G.I.I.I.I.*.*.*.*.xXbXbXbXVXFXFXFXAXZXZXZXBXbXbXbXbXbXbXbXbXxX1X1X1X1X1X1X1X1XI.I.I.I.cXbXbXbXbXbXbXbXxX1X1X1X1X=X=X=X=XI.I.I.I.D.V.V.V.V.V.V.V.z.cXbXbXbXSXFXFXFXAXZXZXZXZXZXVXVXVXVXVXVXVXxX1X1X1X1X1X1X1X1X1X1X1X1X1X1X1X1XD l l l ~ U U U ' w.w.w.w.U U U U t t t t !  . . . . . . . . . . . .d.f.f.f.zXSXSXSXCXbXbXbXbX1X1X1X1X1X1X1X1X1X1X1X1X:XV.V.V.D.bXbXbXbXbXbXbXbX>X=X=X=X`.I.I.I.I.V.V.V.V.k.k.k.k.k.k.k.k.i.*.*.*.:.VXVXVXVXFXFXFXFXZXZXZXZXBXbXbXbXbXbXbXbXbX1X1X1X1X1X1X1X1XxXbXbXbXbXbXbXbXbX  ",
"C.bXbXbXcX1X1X1X1X=X-X=X=XU.I.I.I.G.V.V.V.G.I.I.I.I.*.*.*.*.xXbXbXbXVXFXFXFXAXZXZXZXBXbXbXbXbXbXbXbXbXxX1X1X1X1X1X1X1X1XI.I.I.I.cXbXbXbXbXbXbXbXxX1X1X1X1X=X=X=X=XI.I.I.I.D.V.V.V.V.V.V.V.z.cXbXbXbXSXFXFXFXAXZXZXZXZXZXVXVXVXVXVXVXVXxX1X1X1X1X1X1X1X1X1X1X1X1X1X1X1X1XD l l l j U U U ' w.S.w.w.U U U U t t t t !  . . . . . . . . . . . .d.f.f.f.zXSXSXSXCXbXbXbXbX1X1X1X1X1X1X1X1X1X1X1X1X:XV.V.V.D.bXbXbXbXbXbXbXbX>X=X=X=X`.I.I.I.I.V.V.V.V.k.k.k.k.k.k.k.k.i.*.*.*.:.VXVXVXVXFXFXFXFXZXZXZXZXBXbXbXbXbXbXbXbXbX1X1X1X1X1X1X1X1XxXbXbXbXbXbXbXbXbX  ",
"C.bXbXbXxX1X1X1X1X=X=X=X=XU.I.I.I.G.V.V.V.G.I.I.I.I.*.*.*.*.xXbXbXbXVXFXFXFXAXZXZXZXBXbXbXbXbXbXbXbXbXxX1X1X1X1X1X1X1X1XI.I.I.I.cXbXbXbXbXbXbXbXxX1X1X1X1X=X=X=X=XI.I.I.I.D.V.V.V.V.V.V.V.z.cXbXbXbXSXFXFXFXAXZXZXZXZXZXZXVXVXVXVXVXVXxX1X1X1X1X1X1X1X1X1X1X1X1X1X1X1X1XD l l l j U U U ' S.S.w.w.U U U U t t t t W  . . . . . . . . . . . .d.f.f.f.zXSXSXSXCXbXbXbXbX1X1X1X1X1X1X1X1X1X1X1X1X:XV.V.V.D.bXbXbXbXbXbXbXbX>X=X=X=X`.I.I.I.I.V.V.V.V.k.k.k.k.k.k.k.k.i.*.*.*.:.VXVXVXVXFXFXFXFXZXZXZXZXBXbXbXbXbXbXbXbXbX1X1X1X1X1X1X1X1XxXbXbXbXbXbXbXbXbX  ",
"B.lXlXlXlX>X>X>X>X`.`.`.`.Y.Y.Y.Y.H.G.G.G.C.b.b.b.b.F F F F mXMXMXMXBXBXBXBXBXmXmXmXmXlXlXlXlXlXlXlXlX1X1X1X1X1X<X<X<X<X=X=X=X=XlXlXlXlXlXlXlXlXkX>X>X>X>X`.`.`.`.Y.Y.Y.Y.G.G.G.G.m.d.d.d.i.@ @ @ @ mXMXMXMXBXBXBXBXBXmXmXmXmXmXmXmXmXmXmXmXmXlX1X1X1X1X<X<X<X<X<X<X<X<X>X>X>X>X%.n n n ' ( ( ( [ j.j.j.j.U U U U u u u u R } } } | +.+.+.+.+.+.+.+.8.8.8.8.@XzXzXzXzXjXjXjXjX:X:X:X:X:X:X:X:X>X>X>X>X:XY.Y.Y.Y.lXlXlXlXjXjXjXjX-X`.`.`.Y.H.H.H.H.G.G.G.G.l.l.l.l.p.t.t.t.%.F F F -.CXVXVXVXBXBXBXBXNXmXmXmXcXlXlXlXlXlXlXlXlX>X>X>X>X1X1X1X1XxXbXbXbXbXlXlXlXlX  ",
"d.=X=X=X=X=X=X=X'.I.I.I.I.'.=X=X=XY.I.I.I.b.h h h h B B B B CXSXSXSXzXgXgXgX-X=X=X=X=X=X=X=X=X=X=X=X=X<X1X1X1X<XgXgXgXhXbXbXbXbXgXgXgXgX=X=X=X=X=X=X=X=X'.I.I.I.I.=X=X=X=XU.I.I.I.g.h h h h g g g g CXSXSXSXzXgXgXgX-X=X=X=X=X=X=X=X=X=X=X=X=X1X1X1X1X<XgXgXgXgXgXgXgXgX=X=X=X=Xd.u.u.u.8.XXXXXXo.U U U U t t t t p a a a u P P P Q XXXXXXXXXXXXXXXXXXXXXXXX8.i.i.i.l.I.I.I.I.I.I.I.I.I.I.I.I.`.=X=X=X>XbXbXbXbXgXgXgXgXU.I.I.I.I.I.I.I.H.V.V.V.C.I.I.I.I.C.V.V.V.v i i i d B B B *.SXSXSXSXhXgXgXgX=X=X=X=X=X=X=X=X=X=X=X=X=X=X=X=X=X<X1X1X1XxXbXbXbXcX=X=X=X=X  ",
"d.=X=X=X=X=X=X=X'.I.I.I.I.'.=X=X=XY.I.I.I.b.h h h h B B B B CXSXSXSXzXgXgXgX-X=X=X=X=X=X=X=X=X=X=X=X=X<X1X1X1X<XgXgXgXhXbXbXbXbXgXgXgXgX=X=X=X=X=X=X=X=X'.I.I.I.I.=X=X=X=XU.I.I.I.g.h h h h g g g g CXSXSXSXzXgXgXgX-X=X=X=X=X=X=X=X=X=X=X=X=X1X1X1X1X<XgXgXgXgXgXgXgXgX=X=X=X=Xd.u.u.u.8.XXXXXXo.U U U U t t t t p a a a u P P P Q XXXXXXXXXXXXXXXXXXXXXXXX8.i.i.i.l.I.I.I.I.I.I.I.I.I.I.I.I.`.=X=X=X>XbXbXbXbXgXgXgXgXU.I.I.I.I.I.I.I.H.V.V.V.C.I.I.I.I.C.V.V.V.v i i i d B B B *.SXSXSXSXhXgXgXgX=X=X=X=X=X=X=X=X=X=X=X=X=X=X=X=X=X<X1X1X1XxXbXbXbXcX=X=X-X=X  ",
"d.=X=X=X=X=X=X=X'.I.I.I.I.'.=X=X=XY.I.I.I.b.h h h h B B B B CXSXSXSXzXgXgXgX-X=X=X=X=X=X=X=X=X=X=X=X=X<X1X1X1X<XgXgXgXhXbXbXbXbXgXgXgXgX=X=X=X-X=X=X=X=X'.I.I.I.I.=X=X=X=XU.I.I.I.g.h h h h g g g g CXSXSXSXzXgXgXgX-X=X=X=X=X=X=X=X=X=X=X=X=X1X1X1X1X<XgXgXgXgXgXgXgXgX=X=X=X=Xd.u.u.u.8.XXXXXXo.U U U U t t t t p a a a u P P P Q XXXXXXXXXXXXXXXXXXXXXXXX8.i.i.i.l.I.I.I.I.I.I.I.I.I.I.I.I.`.=X=X=X>XbXbXbXbXgXgXgXgXU.I.I.I.I.I.I.I.H.V.V.V.C.I.I.I.I.C.V.V.V.v i i i d B B B *.SXSXSXSXhXgXgXgX=X=X=X=X=X=X=X=X=X=X=X=X=X=X=X=X=X<X1X1X1XxXbXbXbXcX=X=X=X=X  ",
"d.=X=X=X=X=X=X=X'.U.U.U.U.'.'.'.'.Y.U.U.U.m.h h h h B B B B CXCXCXCXzXgXgXgX-X=X=X=X=X=X=X=X=X-X-X-X-X<X1X1X1X<XgXgXgXhXcXcXcXcXgXgXgXgX=X=X=X=X=X=X=X=X'.U.U.U.U.'.'.'.'.U.U.U.U.g.h h h h g g g g CXCXCXCXjXgXgXgX-X=X=X=X=X=X=X=X=X-X-X-X-X1X1X1X1X<XgXgXgXgXgXgXgXgX=X=X=X=Xd.i.i.i.8..X.X.Xo.U U U U t t t t s a a a u T T P Q }.}.}.}.XXXXXXXXXXXXXXXX8.i.i.i.g.I.I.I.I.I.I.I.I.U.U.U.U.`.=X=X=X>XcXcXcXcX-X-X-X-XU.I.I.I.I.I.I.I.K.C.C.C.D.I.I.I.I.D.C.C.C.v i i i h B B B *.CXCXCXCXhXgXgXgX=X=X=X=X=X=X=X=X=X=X=X=X=X=X=X=X=X<X1X1X1XxXcXcXcXcX=X=X=X=X  ",
"d.=X=X=X=X=X=X=X=X=X=X=X=XU.I.I.I.`.-X=X=XI.k.k.k.h.g g g g xXbXbXbX>X=X=X=X=X=X=X=X=X=X=X=X=X1X1X1X1XhXgXgXgX-X=X=X=X=XgXgXgXgX=X=X=X=X=X=X=X=X=X=X=X=X=X=X=X=X=XI.I.I.I.'.=X=X=XG.k.k.k.h.B B B B cXbXbXbX-X=X=X=X=X=X=X=X=X=X=X=X=X1X1X1X1XhXgXgXgX-X=X=X=X=X=X=X=X=X=X=X=X=X=X=X=X=XV.i.i.i.p.a a a h h h h s s h h h N C C C / W W W Q XXXXXXXXOXOXOXOX8.%.%.%.d.I.I.I.I.I.I.I.I.-XgXgXgXgXgXgXgXgXgXgXgXgXI.I.I.I.I.I.I.I.I.I.I.I.I.I.I.I.I.V.V.V.V.I.I.I.I.D h h h g B B B F bXbXbXbX-X=X=X=X=X=X=X=X=X=X=X=X=X=X=X=X=XgXgXgXgXgXgXgXgX-X=X=X=X=X=X=X=X=X  ",
"d.=X=X=X=X=X=X=X=X=X=X=X=XU.I.I.I.`.=X=X=XI.k.k.k.h.g g g g xXbXbXbX>X=X=X=X=X=X=X=X=X=X=X=X=X1X1X1X1XhXgXgXgX-X=X=X=X=XgXgXgXgX=X=X=X=X=X=X=X=X=X=X=X=X=X=X=X=X=XI.I.I.I.'.=X=X=XG.k.k.k.h.B B B B cXbXbXbX-X=X=X=X=X=X=X=X=X=X=X=X=X1X1X1X1XhXgXgXgX-X=X=X=X=X=X=X=X=X=X=X=X=X=X=X=X=XV.i.i.i.p.a a a h h h h s s h h h N C C C / W W W Q XXXXXXXXOXOXOXOX8.%.%.%.d.I.I.I.I.I.I.I.I.-XgXgXgXgXgXgXgXgXgXgXgXgXI.I.I.I.I.I.I.I.I.I.I.I.I.I.I.I.I.V.V.V.V.I.I.I.I.D h h h g B B B F bXbXbXbX-X=X=X=X=X=X=X=X=X=X=X=X=X=X=X=X=XgXgXgXgXgXgXgXgX-X=X=X=X=X=X=X=X=X  ",
"d.=X=X=X=X=X=X=X=X=X=X=X=XU.I.I.I.`.=X=X=XI.k.k.k.h.g g g g xXbXbXbX>X=X=X=X=X=X=X=X=X=X=X=X=X1X1X1X1XhXgXgXgX-X=X=X=X=XgXgXgXgX=X=X=X=X=X=X=X=X=X=X=X=X=X=X=X=X=XI.I.I.I.'.=X=X=XG.k.k.k.h.B B B B cXbXbXbX-X=X=X=X=X=X=X=X=X=X=X=X=X1X1X1X1XhXgXgXgX-X=X=X=X=X=X=X=X=X=X=X=X=X=X=X=X=XV.i.i.i.u.h a h h h h h a a h a h N C C C / W W W Q XXXXXXXXOXOXOXOX8.%.%.%.d.I.I.I.I.I.I.I.I.-XgXgXgXgXgXgXgXgXgXgXgXgXI.I.I.I.I.I.I.I.I.I.I.I.I.I.I.I.I.V.V.V.V.I.I.I.I.D h h h g B B B F bXbXbXbX-X=X=X=X=X=X=X=X=X=X=X=X=X=X=X=X=XgXgXgXgXgXgXgXgX-X=X=X=X=X=X=X-X=X  ",
"d.=X=X=X=X=X=X=X=X=X=X=X=XU.I.I.I.`.=X=X=XI.k.k.k.h.g g g g xXbXbXbX>X=X=X=X=X=X=X=X=X=X=X=X=X1X1X1X1XhXgXgXgX-X=X=X=X=XgXgXgXgX=X=X=X=X=X=X=X=X=X=X=X=X=X=X=X=X=XI.I.I.I.'.=X=X=XG.k.k.k.h.B B B B cXbXbXbX-X=X=X=X=X=X=X=X=X=X=X=X=X1X1X1X1XhXgXgXgX-X=X=X=X=X=X=X=X=X=X=X=X'.=X=X=X=XV.i.i.i.u.h h h h h h h a a a a h N C C C / W W W Q XXXXXXXXOXOXOXOX8.%.%.%.d.I.I.I.I.I.I.I.I.-XgXgXgXgXgXgXgXgXgXgXgXgXI.I.I.I.I.I.I.I.I.I.I.I.I.I.I.I.I.V.V.V.V.I.I.I.I.D h h h g B B B F bXbXbXbX-X=X=X=X=X=X=X=X=X=X=X=X=X=X=X=X=XgXgXgXgXgXgXgXgX-X=X=X=X=X=X=X=X=X  ",
"d.=X=X=X=X=X=X=X=X=X=X=X=X'.'.'.'.=X=X=X=XD.h h h h B B B B C.D.D.D.I.U.U.U.Y.=X=X=X=X=X=X=X=X-X-X-X-XkXkXkXkX=XC.C.C.D.=X=X=X=X=X=X=X=X=X=X=X=X=X=X=X=X=X=X=X=X=X'.'.'.'.=X=X=X=Xb.h h h h g g g g cXbXbXbX-X=X=X=X=X=X=X=X-XcXcXcXcX-X-X-X-X=X=X=X=X-XgXgXgXgXkXkXkXkXC.C.C.C.C.C.C.C.V.V.V.V.z.D D D D h h h h V C V V C C C C / W W W W a a a a p p p p v D %.%.d.I.I.I.I.I.I.I.I.=X=X=X=XF.k.k.k.x.U.U.U.U.I.I.I.I.I.I.I.I.I.I.I.I.I.I.I.I.I.I.I.I.I.I.I.I.I.v i i i d B B B Z D.D.D.D.I.U.U.U.'.=X=X=X=X=X=X=X=X=X=X=X=XjXkXkXkXH.D.D.D.I.=X=X=X=X=X=X=X=X  ",
"d.=X=X=X=X=X=X=X=X=X=X=X=X=X=X=X=X=X=X=X=XC.h h h h B B B B V.V.V.V.K.I.I.I.Y.=X=X=X=X=X=X=X=X=X=X=X=XkXkXkXkX'.V.V.V.D.=X=X=X=X=X=X=X=X=X=X=X=X=X=X=X=X=X=X=X=X=X=X=X=X=X=X=X=X=Xb.h h h h g g g g cXbXbXbX-X=X=X=X=X=X=X=X-XbXbXbXbX=X=X=X=X=X=X=X=X-XgXgXgXhXkXkXkXkXV.V.V.V.V.V.V.V.V.V.V.V.x.%.%.%.D h h h s V C C C C C C C / W W W W a a a a i i i i v %.%.%.d.I.I.I.I.I.I.I.I.'.=X=X=Xx.k.k.k.l.I.I.I.I.I.I.I.I.I.I.I.I.I.I.I.I.I.I.I.I.I.I.I.I.I.I.I.I.I.v i i i d B B B Z V.V.V.V.I.I.I.I.`.=X=X=X=X=X=X=X=X=X=X=X=XkXkXkXkXH.V.V.V.I.=X=X=X=X=X=X=X=X  ",
"d.=X=X=X=X=X=X=X=X=X=X=X=X=X=X=X=X=X=X=X=XC.h h h h B B B B V.V.V.V.K.I.I.I.Y.=X=X=X=X=X=X=X=X=X=X=X=XkXkXkXkX'.V.V.V.D.=X=X=X=X=X=X=X=X=X=X=X=X=X=X=X=X=X=X=X=X=X=X=X=X=X=X=X=X=Xb.h h h h g g g g cXbXbXbX-X=X=X=X=X=X=X=X-XbXbXbXbX=X=X=X=X=X=X=X=X-XgXgXgXhXkXkXkXkXV.V.V.V.V.V.V.V.V.V.V.V.x.%.%.%.D h h s s V C C C C C C C / W W W W a a a a i i i i v %.%.%.d.I.I.I.I.I.I.I.I.'.=X=X=Xx.k.k.k.l.I.I.I.I.I.I.I.I.I.I.I.I.I.I.I.I.I.I.I.I.I.I.I.I.I.I.I.I.I.v i i i d B B B Z V.V.V.V.I.I.I.I.`.=X=X=X=X=X=X=X=X=X=X=X=XkXkXkXkXH.V.V.V.I.=X=X=X=X=X-X=X=X  ",
"d.=X=X=X=X=X=X=X=X=X=X=X=X=X=X=X=X=X=X=X=XC.h h h h B B B B V.V.V.V.K.I.I.I.Y.=X=X=X=X=X=X=X=X=X=X=X=XkXkXkXkX'.V.V.V.D.=X=X=X=X=X=X=X=X=X=X=X=X=X=X=X=X=X=X=X=X=X=X=X=X=X=X=X=X=Xb.h h h h g g g g cXbXbXbX-X=X=X=X=X=X=X=X-XbXbXbXbX=X=X=X=X=X=X=X=X-XgXgXgXhXkXkXkXkXV.V.V.V.V.V.V.V.V.V.V.V.x.%.%.%.D h h s s V C C C C C C C / W W W W a a a a i i i i v %.%.%.d.I.I.I.I.I.I.I.I.'.=X=X=Xx.k.k.k.l.I.I.I.I.I.I.I.I.I.I.I.I.I.I.I.I.I.I.I.I.I.I.I.I.I.I.I.I.I.v i i i d B B B Z V.V.V.V.I.I.I.I.`.=X=X=X=X=X=X=X=X=X=X=X=XkXkXkXkXH.V.V.V.I.=X=X=X=X=X=X=X=X  ",
"d.=X=X=X=X=X=X=X=X=X=X=X=X=X=X=X=XY.U.U.U.m.h h h h B B B B H.I.H.H.Y.`.`.`.'.=X=X=X-XkXkXjXjXH.G.G.G.H.K.K.K.G.V.V.V.D.=X=X=X=X=X=X=X=X=X=X=X=X=X=X=X=X=X=X=X=X=X=X=X=X=XY.U.U.U.g.h h h h N N N N `.=X=X=X=X=X=X=X=X=X=X=X-XlXlXlXlXH.G.G.G.G.G.G.G.Y.=X=X=X=XK.K.K.K.I.I.I.I.V.V.V.V.s.[ [ [ [ E E E E E E E E u u u u ' O.O.O.O.| | | | [ [ [ [ n v v v d.z.z.z.V.I.I.I.I.I.I.I.I.x.x.x.x.k.k.k.k.x.I.I.I.I.I.I.I.I.I.I.I.I.I.I.I.I.I.I.I.I.I.I.I.I.I.G.D.D.D.v i i i d B B B Z I.I.I.I.`.`.`.`.'.=X=X=X=X=X=X=X=X=X=X=X=XI.K.K.K.D.V.V.V.I.=X=X=X=X=X=X=X=X  ",
"d.=X=X=X=X=X=X=X=X=X=X=X=X=X=X=X=XY.I.I.I.b.h h h h B B B B I.I.I.I.`.=X=X=X=X=X=X=X-XkXkXkXkXD.V.V.V.V.V.V.V.V.V.V.V.D.=X=X=X=X=X=X=X=X=X=X=X=X=X=X=X=X=X=X=X=X=X=X=X=X=XU.I.I.I.g.h h h h B B B B I.I.I.I.'.=X=X=X=X=X=X=X-XkXkXkXkXC.V.V.V.V.V.V.V.I.=X=X=X`.V.V.V.V.I.I.I.I.C.V.V.V.t.W W W W W W W W W W W W y t t t W  . . . . . . . . . . . .] %.%.%.g.V.V.V.D.I.I.I.I.I.I.I.I.k.k.k.k.k.k.k.k.x.I.I.I.I.I.I.I.I.I.I.I.I.I.I.I.I.I.I.I.I.I.I.I.I.I.C.V.V.V.v i i i d B B B Z I.I.I.I.'.=X=X=X=X=X=X=X=X=X=X=X=X=X=X=X=XC.V.V.V.V.V.V.V.I.=X=X=X=X=X=X=X=X  ",
"d.=X=X=X=X=X=X=X=X=X=X=X=X=X=X=X=XY.I.I.I.b.h h h h B B B B I.I.I.I.`.=X=X=X=X=X=X=X-XkXkXkXkXD.V.V.V.V.V.V.V.V.V.V.V.D.=X=X=X=X=X=X=X=X=X=X=X=X=X=X=X=X=X=X=X=X=X=X=X=X=XU.I.I.I.g.h h h h B B B B I.I.I.I.'.=X=X=X=X=X=X=X-XkXkXkXkXC.V.V.V.V.V.V.V.I.=X=X=X`.V.V.V.V.I.I.I.I.C.V.V.V.t.W W W W W W W W W W W W y t t t W  . . . . . . . . . . . .] %.%.%.g.V.V.V.D.I.I.I.I.I.I.I.I.k.k.k.k.k.k.k.k.x.I.I.I.I.I.I.I.I.I.I.I.I.I.I.I.I.I.I.I.I.I.I.I.I.I.C.V.V.V.v i i i d B B B Z I.I.I.I.'.=X=X=X=X=X=X=X=X=X=X=X=X=X=X=X=XC.V.V.V.V.V.V.V.I.=X=X=X=X=X=X=X=X  ",
"d.=X=X=X=X=X=X=X=X=X=X=X=X=X=X=X=XY.I.I.I.b.h h h h B B B B I.I.I.I.`.=X=X=X=X=X=X=X-XkXkXkXkXD.V.V.V.V.V.V.V.V.V.V.V.D.=X=X=X=X=X=X=X=X=X=X=X=X=X=X=X=X=X=X=X=X=X=X=X=X=XU.I.I.I.d.h h h h B B B B I.I.I.I.'.=X=X=X=X=X=X=X-XkXkXkXkXC.V.V.V.V.V.V.V.I.=X=X=X`.V.V.V.V.I.I.I.I.C.V.V.V.t.W W W W W W W W W W W W y t t t W  . . . . . . . . . . . .] %.%.%.g.V.V.V.D.I.I.I.I.I.I.I.I.k.k.k.k.k.k.k.k.x.I.I.I.I.I.I.I.I.I.I.I.I.I.I.I.I.I.I.I.I.I.I.I.I.I.C.V.V.V.v i i i d B B B Z I.I.I.I.'.=X=X=X=X=X=X=X=X=X=X=X=X=X=X=X=XC.V.V.V.V.V.V.V.I.=X=X=X=X=X=X=X=X  ",
"i.U.U.U.U.U.U.U.U.=X=X=X=X=X=X=X=XU.H.H.H.z.a a a d B B B B I.I.I.I.U.U.U.U.U.U.U.U.U.=X=X=X=XC.V.V.V.V.V.V.V.D.G.G.G.G.Y.Y.Y.Y.=X=X=X=XY.U.U.U.U.U.U.U.Y.=X=X=X=X=X=X=X=XI.H.H.H.d.h h h h B B B B I.I.I.I.U.U.U.U.U.U.U.U.Y.=X'.'.'.V.V.V.V.G.G.G.G.U.=X=X=X'.K.K.K.K.H.H.H.H.M.M.M.M.y.} } } } } } } ! R R R R u w u u R ! ! ! }  . . . .+.+.+.+.] n n n z.G.G.G.H.I.I.I.I.H.H.H.H.p.t.t.t.u.p.p.p.d.I.I.I.I.I.I.I.I.F.D.D.D.D.D.D.D.G.I.I.I.I.I.I.I.I.x.x.x.x.k i i i d B B B Z I.I.I.I.U.U.U.U.U.U.U.U.`.=X=X=X=X`.`.`.`.x.x.x.x.x.x.x.x.G.=X=X=X=X=X=X=X=X  ",
"D V.V.V.V.V.V.V.D.=X=X=X=X=X=X=X=XH.V.V.V.d.i i i i B B B B I.I.I.I.G.V.V.V.V.V.V.V.V.V.V.V.V.V.V.V.V.V.V.V.V.G.I.I.I.I.H.H.H.H.'.=X=X=XG.V.V.V.V.V.V.V.D.=X=X=X=X=X=X=X=XG.V.V.V.a.h h h h B B B B I.I.I.I.D.V.V.V.V.V.V.V.V.V.V.V.V.V.V.V.V.I.I.I.I.Y.=X=X=X=X=X=X=X'.V.V.V.V.y. . . . . . . . . . . .| t t t t i i i i w t t t T  . . .@.XXXXXXXXn v v v b.I.I.I.I.I.I.I.I.V.V.V.V.d p d d d h h h &.I.I.I.I.I.I.I.I.k.k.k.k.k.k.k.k.x.I.I.I.I.I.I.I.I.k.k.k.k.s i i i d B B B Z I.I.I.I.C.V.V.V.V.V.V.V.K.=X=X=X'.I.I.I.I.k.k.k.k.k.k.k.k.F.=X'.=X=X=X=X=X=X  ",
"D V.V.V.V.V.V.V.D.=X=X=X=X=X=X=X=XH.V.V.V.d.i i i i B B B B I.I.I.I.G.V.V.V.V.V.V.V.V.V.V.V.V.V.V.V.V.V.V.V.V.G.I.I.I.I.H.H.H.H.'.=X=X=XG.V.V.V.V.V.V.V.D.=X=X=X=X=X=X=X=XG.V.V.V.a.h h h h B B B B I.I.I.I.D.V.V.V.V.V.V.V.V.V.V.V.V.V.V.V.V.I.I.I.I.T.=X=X=X=X=X=X=X'.V.V.V.V.y. . . . . . . . . . . . .t t t t i i i i w t t t T  . . .@.XXXXXXXXn v v v b.I.I.I.I.I.I.I.I.V.V.V.V.d d d p d h h h &.I.I.I.I.I.I.I.I.k.k.k.k.k.k.k.k.x.I.I.I.I.I.I.I.I.k.k.k.k.s i i i d B B B Z I.I.I.I.C.V.V.V.V.V.V.V.K.=X=X=X'.I.I.I.I.k.k.k.k.k.k.k.k.F.=X=X=X=X=X=X=X=X  ",
"D V.V.V.V.V.V.V.D.=X=X=X=X=X=X=X=XH.V.V.V.d.i i i i B B B B I.I.I.I.G.V.V.V.V.V.V.V.V.V.V.V.V.V.V.V.V.V.V.V.V.G.I.I.I.I.H.H.H.H.'.=X=X=XG.V.V.V.V.V.V.V.D.=X=X=X=X=X=X=X=XG.V.V.C.a.h h h h B B B B I.I.I.I.D.V.V.V.V.V.V.V.V.V.V.V.V.V.V.V.V.I.I.I.I.T.=X=X=X=X=X=X=X'.V.V.V.V.y. . . . . . . . . . . . .t t t t i i i i w t t t T  . . .@.XXXXXXXXn v v v b.I.I.I.I.I.I.I.I.V.V.V.V.a d d p d h h h &.I.I.I.I.I.I.I.I.k.k.k.k.k.k.k.k.x.I.I.I.I.I.I.I.I.k.k.k.k.s i i i d B B B Z I.I.I.I.C.V.V.V.V.V.V.V.K.=X=X=X'.I.I.I.I.k.k.k.k.k.k.k.k.F.=X=X=X=X=X=X=X=X  ",
"D V.V.V.V.V.V.V.V.`.`.`.`.`.Y.Y.Y.D.m.x.x.i.i i i a B B B B H.I.I.I.C.m.m.m.m.m.m.m.m.m.m.m.m.V.V.V.V.m.m.m.m.C.K.K.K.H.C.C.C.C.Y.Y.Y.Y.C.m.m.m.V.V.V.V.V.`.`.`.`.`.`.`.`.C.m.m.m.i.h h h l B B B B I.I.I.I.V.m.m.m.m.m.m.m.m.m.m.m.m.V.V.V.V.I.I.I.I.U.T.T.Y.Y.Y.Y.Y.Y.x.x.x.x.y.@.@.@. . . . . .| | | | t t t t i i i i w t t t T | | | | o.o.o.o.b v v v z.H.H.H.H.H.H.H.H.V.V.V.V.a p p p d h h h %.H.H.H.H.H.H.H.H.k.h.h.h.h.h.h.h.l.H.H.H.H.H.H.H.H.h.h.h.h.s i i i h B B B Z I.I.I.I.m.m.m.m.m.m.m.m.G.`.`.`.Y.H.H.H.H.k.h.h.h.k.k.k.k.F.`.`.`.`.`.`.`.`.  ",
"c k.k.k.k.k.k.k.k.k.k.k.k.a d d p i i i i c k.k.k.k.B B B B V.V.V.V.D h h h h h h h h h h h h k.k.k.k.v h h h j J J J J = = = = i i i i d h h h n k.k.k.k.k.k.k.k.h h h h h h h h n k.k.k.k.*.*.*.*.V.V.V.V.n h h h h h h h h h h h h k.k.k.k.k.k.k.k.' P P P P P P P P P P P P |.XXXXXX+. . . .} t t t t P P P P P P P P P P P P r : : : : % % % % i i i i a h h h a i i i i >.>.>.>.7 = = = a h h h h h h h h h h h h h h h h h h h h h h h h h i i i i i i i i d h h h N *.*.*.*.V.V.V.V.h h h h h h h h h h h h h h h h h h h h h p.k.k.k.k.k.k.k.k.t.t.t.t.  ",
"c k.k.k.k.k.k.k.k.k.k.k.k.a d d d i i i i c k.k.k.k.B B B B V.V.V.V.D h h h h h h h h h h h h k.k.k.k.v h h h j J J J J = = = = i i i i d h h h n k.k.k.k.k.k.k.k.h h h h h h h h n k.k.k.k.*.*.*.*.V.V.V.V.n h h h h h h h h h h h h k.k.k.k.k.k.k.k.' P P P P P P P P P P P P |.XXXXXX+. . . .} t t t t P P P P P P P P P P P P r : : : : % % % % i i i i a h h h a i i i i >.>.>.>.7 = = = a h h h h h h h h h h h h h h h h h h h h h h h h h i i i i i i i i d h h h N *.*.*.*.C.C.C.C.h h h h h h h h h h h h h h h h h h h h h p.k.k.k.k.k.k.k.k.t.t.t.t.  ",
"c k.k.k.k.k.k.k.k.k.k.k.k.a d d d i i i i c k.k.k.k.B B B B V.V.V.V.D h h h h h h h h h h h h k.k.k.k.v h h h j J J J J = = = = i i i i d h h h n k.k.k.k.k.k.k.k.h h h h h h h h n k.k.k.k.*.*.*.*.V.V.V.V.n h h h h h h h h h h h h k.k.k.k.k.k.k.k.' P P P P P P P P P P P P |.XXXXXX+. . . .} t t t t P P P P P P P P P P P P r : : : : % % % % i i i i a h h h a i i i i >.>.>.>.7 = = = a h h h h h h h h h h h h h h h h h h h h h h h h h i i i i i i i i d h h h N *.*.*.*.C.C.C.C.h h h h h h h h h h h h h h h h h h h h h p.k.k.k.k.k.k.k.h.t.t.t.t.  ",
"c k.k.k.k.k.k.k.k.k.k.k.k.a d d d i i i i c k.k.k.k.B B B B V.V.V.V.D h h h h h h h h h h h h k.k.k.k.v h h h z J J J J = = = = i i i i d h h h n k.k.k.k.k.k.k.k.h h h h h h h h n k.k.k.k.*.*.*.*.V.V.V.V.n h h h h h h h h h h h h k.k.k.k.k.k.k.k.' P P P P P P P P P P P P |.XXXXXX+. . . .} t t t t P P P P P P P P P P P P r : : : : % % % % i i i i a h h h a i i i i >.>.>.>.7 = = = a h h h h h h h h h h h h h h h h h h h h h h h h h i i i i i i i i d h h h N *.*.F *.V.V.C.C.h h h h h h h h h h h h h h h h h h h h h p.k.k.k.k.k.k.k.k.t.t.t.t.  ",
": f f f f m m m m B B B B f 8 8 8 f g g g g g g g g 8 8 8 8 g g g g g g g g m B B B B g g g g B B B B f 8 8 8 V >.>.>.>.d d d d B B B B g g g g N B B B B B B B B B B B B B B B B B B B B B B B B B B B B B B B B B N g g g g B B B B B B B B Q Q Q Q W W W W W W W W W t t t t W Q Q Q 4 @ @ @ @ @ @ @ @ t t t t W W W W W W W W W W W W Q B B B B g g g g N B B B N g g g g 1.1.1.1.J J J J z g g g g g g g g g g g g B B B B m g g g m B B B B B B B B g g g g Z F F F B d d d f *.*.*.*.B B B B g g g g g g g g g g g g g g g g g B B B B #._ _ ,.#.m m m m   ",
": 8 8 8 f m m m m B B B B f 8 8 8 f g g g g g g g g , , , , g g g g g g g g m B B B B g g g g B B B B g 8 8 8 V 1.1.1.>.d d d d B B B B m g g g N B B B B B B B B B B B B B B B B B B B B B B B B B B B B B B B B B N g g g g B B B B B B B B Q W W W W W W W W W W W W t t t t W W W W 4 @ @ @ @ # # # @ t t t t W W W W W W W W W W W W Q B B B B g g g g N B B B N g g g g 1.1.1.1.J J J J z g g g g g g g g g g g g B B B B m g g g m B B B B B B B B g g g g Z *.*.*.B d d d f F F F *.B B B B m g g g g g g g g g g g g g g g g N B B B #._ _ _ _ m m m m   ",
": 8 8 8 f m m m m B B B B f 8 8 8 f g g g g g g g g , , , , g g g g g g g g m B B B B g g g g B B B B g 8 8 8 V 1.1.1.>.d d d d B B B B m g g g N B B B B B B B B B B B B B B B B B B B B B B B B B B B B B B B B B N g g g g B B B B B B B B Q W W W W W W W W W W W W t t t t W W W W 4 @ @ @ @ # # # @ t t t t W W W W W W W W W W W W Q B B B B g g g g N B B B N g g g g 1.1.1.1.J J J J z g g g g g g g g g g g g B B B B m g g g m B B B B B B B B g g g g Z *.*.*.B d d d f F F F *.B B B B m g g g g g g g g g g g g g g g g N B B B #._ _ _ _ m m m m   ",
": 8 8 9 f m m m m B B B B f 8 8 8 f g g g g g g g g , , , , g g g g g g g g m B B B B g g g g B B B B g 8 8 8 V 1.1.1.>.8 8 d d B B B B m g g g N B B B B B B B B B B B B B B B B B B B B B B B B B B B B B B B B B N g g g g B B B B B B B B Q W W W W W W W W W W W W t t t t W W W W 4 @ @ @ @ # # # @ t t t t W W W W W W W W W W W W Q B B B B g g g g N B B B N g g g g 1.1.1.1.J J J J z g g g g g g g g g g g g B B B B m g g g M B B B B B B B B g g g g Z *.*.*.B 8 8 8 f *.*.*.*.B B B B g g g g g g g g g g g g g g g g g N B B B #.,.,._ _ m m m m   ",
"0 ,.,.,.M.>X>X>X>XB.B.B.B.2.1.1.1.c.B.B.B.B.C.C.C.C.&.&.&.&.%.D D D u.a.a.a.d.b.b.b.b.C.C.C.C.C.C.C.C.i.D D D #.1.1.1.1.n.n.b.n.zXzXzXzXjX-X-X-X>X:X:X:X:X:X:X:X:X:X:X:X:X:X:X:X:X:X*X*X*X*X*X*X*X*X*X*X*X*X*X*X*X*X).K.K.K.K.C.C.C.C.b.b.b.b.E I I I W W W W W y y y y } } } } | | | | } ! ! ! [ ) ) ) ) b b b b r e e e I W W W W I I I I b.b.b.b.a.a.a.a.a.a.a.a.a.i.i.i.i.,.,.,.,.%.%.%.%.N m m m -.).).).).g.g.g.g.).*X*X*X).).).).).Z.Z.Z.J.*X*X*X*Xp.p.p.p.V.Z.Z.Z.C.g.g.g.g.g.g.g.g.J.J.J.J.C.C.C.C.b.z.z.z.g.n n n n p.p.p.p.g g g g #.,.,.,.8.`.`.`.`.  ",
"K 7.7.7.N.mXmXmXmXZ.Z.Z.Z.6.6.6.6.N.Z.J.J.H.I.I.I.I.d.d.d.d.u.u.u.u.d.d.g.g.z.V.V.V.C.I.I.I.I.I.I.I.I.d.u.u.u.;.1.1.1.1.Z.Z.J.Z.BXBXBXBXmXmXmXmXmXbXbXbXbXbXbXbXbXbXbXbXbXbXbXbXbXxX1X1X1X1X1X1X1X1X1X1X1X1X1X1X1X1X>X=X=X=X'.I.I.I.I.C.C.V.V.E I I I R W W W W t t t y  . . . . . . . . . . . .O.,.X.,.,.D D D D w w w w I W W W W I I I I V.V.V.C.g.d.d.d.g.g.g.g.d.d.d.d.d.,.,.,.,.&.u.u.&.N m m m -.1X1X1X1XV.V.V.V.<X1X1X1X1X1X1X1X:X).).).*X1X1X1X1Xk.k.k.k.G.I.I.I.H.V.V.V.V.z.z.z.z.'.=X=X=XU.I.I.I.H.V.V.V.V.t.t.t.t.k.k.k.k.l d 8 8 / <.<.<.7.zXzXzXzX  ",
"K 7.7.7.N.mXmXmXmXZ.Z.Z.Z.6.6.6.6.N.Z.J.Z.P.I.I.I.I.d.d.d.d.u.u.u.u.d.g.g.d.z.V.V.V.C.I.I.I.I.I.I.I.I.d.u.u.u.;.1.1.1.1.Z.Z.J.J.BXBXBXBXmXmXmXmXmXbXbXbXbXbXbXbXbXbXbXbXbXbXbXbXbXxX1X1X1X1X1X1X1X1X1X1X1X1X1X1X1X1X>X=X=X=X'.I.I.I.I.V.C.C.V.E I I I R W W W W t t t t  . . . . . . . . . . . .O.,.X.X.X.D D D D w w w w I W W W W I I I I V.V.V.C.g.g.g.d.g.g.g.g.d.d.d.d.d.,.,.,.,.&.u.u.&.N m m m -.1X1X1X1XV.V.V.V.<X1X1X1X1X1X1X1X:X).).).*X1X1X1X1Xk.k.k.k.G.I.I.I.H.V.V.V.V.z.z.z.z.'.=X=X=XU.I.I.I.H.V.V.V.V.t.t.t.t.k.k.k.k.l d 8 8 / <.<.<.7.zXzXzXzX  ",
"K 7.7.7.N.mXmXmXmXJ.Z.Z.Z.6.6.6.6.N.J.J.Z.H.I.I.I.I.d.d.d.d.u.u.u.u.d.g.g.g.z.V.V.V.C.I.I.I.I.I.I.I.I.d.u.u.u.;.1.1.1.4.H.J.Z.Z.BXBXBXBXmXmXmXmXmXbXbXbXbXbXbXbXbXbXbXbXbXbXbXbXbXxX1X1X1X1X1X1X1X1X1X1X1X1X1X1X1X1X>X=X=X=X'.I.I.I.I.V.V.V.V.E I I I R W W W W t t t t  . . . . . . . . . . . .O.,.,.,.,.D D D D w w w w P W W W W I I I I V.V.V.V.g.d.g.g.g.g.g.g.d.d.d.d.d.,.,.,.,.&.u.u.&.N m m m -.1X1X1X1XV.V.V.V.<X1X1X1X1X1X1X1X:X).).).*X1X1X1X1Xk.k.k.k.G.I.I.I.H.V.V.V.V.z.z.z.z.'.=X=X=XU.I.I.I.H.V.V.V.V.t.t.t.t.k.k.k.k.l 8 8 8 / <.<.<.7.zXzXzXzX  ",
"K <.<.<.N.>X>X>X>XN.N.N.N.6.4.4.4.N.Z.Z.Z.P.-X-X-X=X;.;.;.;.a.a.a.a.d.g.g.g.g.M.M.M.M.Y.Y.Y.Y.D.D.D.D.%.v v v #.1.1.1.1.M.M.M.M.zXzXzXzX;X@X@X@X,XbXbXbXbXlXlXlXlX>X>X>X>XlXlXlXlX<X;X;X;X;X>X>X>X>X>X>X>X>X:X:X:X:X`.I.I.I.I.Y.Y.Y.Y.G.G.G.G.j u u u ~ ( ( ( ( P P P P ! ! ! ! +.+.+.+.+.O.O.O.O.,.,.,.,.n n n n ] ] ] ] t.M.M.M.M.s.s.s.s.N.N.N.N.d.a.d.a.g.z.z.z.g.d.d.d.d.<.<.<.<.n v v v z #.#.#.:.xXxXxX1XV.V.V.V.).*X*X*X*X&X&X&XP.Z.Z.Z.Z.:X:X:X:Xl.k.k.k.G.I.I.I.H.V.V.V.V.f.f.f.f.Y.`.`.`.I.I.I.I.K.G.G.G.D.i.i.i.i.b b b b d 8 8 8 / <.<.<.7.;X;X;X;X  ",
"J <.<.<.7.Z.Z.Z.B.,.,.,.<.4.4.4.4.N.Z.B.Z.).bXbXbXxX,.,.,.,.z.z.z.z.g.g.g.g.s.,.,.,.<.=X=X=X=Xg.g.g.g.h > > > z 1.1.1.1.) ) ) ) G.H.H.H.8.,.,.,.N.bXbXbXbXgXgXgXgXH.H.H.H.=XgXgXgX@XI.I.I.I.=X=X=X=X=X=X=X=XK.H.H.H.C.x.x.x.V.=X=X=X=XI.I.I.I.a > > > L 1.1.1.,.W W W W P P P P |.XXXXXXo.( ( ( ..3.3.3.1.k k k k C.G.G.G.*X1X1X1X<X:X:X:X*X4.4.4.4.&.u.u.u.g.V.V.V.b.d.d.d.d.4.4.4.4.7 7 7 > / _ _ _ N.bXbXbXcXx.x.x.x.V.V.V.V.2.5.5.5.2.d.d.d.g.I.I.I.I.d.d.d.d.G.I.I.I.G.V.V.V.B.<.<.<.<.I.I.I.I.I.I.I.L.I.I.I.I.I.g.g.g.g.7 = = = , , , , / 7.7.7.8.B.Z.Z.Z.  ",
"J <.<.<.7.Z.Z.Z.B.,.,.<.<.4.4.4.4.N.B.B.Z.).bXbXbXxX,.,.,.,.z.z.z.z.g.g.g.g.s.,.,.,.<.=X=X=X=Xg.g.g.g.h > > > z 1.1.1.1.) ) ) ) G.H.H.H.8.,.,.,.N.bXbXbXbXgXgXgXgXH.H.H.H.=XgXgXgX@XI.I.I.I.=X=X=X=X=X=X=X=XK.H.H.H.C.x.x.x.V.=X=X=X=XI.I.I.I.a > > > L 1.1.1.,.W W W W P P P P |.XXXXXXo.( ( ( ..3.3.3.1.k k k k D.H.G.G.*X1X1X1X<X:X:X:X*X4.4.4.4.&.u.u.u.g.V.V.V.b.d.d.d.d.4.4.4.4.7 > 7 > / _ _ _ N.bXbXbXcXx.x.x.x.V.V.V.V.2.5.3.5.2.d.d.d.g.I.I.I.I.d.d.d.d.G.I.I.I.G.V.V.V.B.<.<.<.<.I.I.I.I.I.I.I.I.I.I.I.I.I.g.g.g.g.7 = = = , , , , / 7.7.7.8.B.Z.Z.Z.  ",
"J <.<.<.7.Z.Z.Z.B.,.,.,.,.3.4.4.4.N.Z.Z.Z.).bXbXbXxX,.,.,.,.z.z.z.z.g.g.g.g.s.,.,.,.<.=X=X=X=Xg.g.g.g.h > > > z 1.1.1.1.) ) ) ) G.H.H.H.8.,.,.,.+XbXbXbXcXgXgXgXgXH.H.H.H.=XgXgXgX@XI.I.L.I.=X=X=X=X=X=X=X=XK.H.H.H.C.x.x.x.V.=X=X=X=XI.I.I.I.a > > 7 L 1.1.1.,.W W W W P P P P |.XXXXXXo.( ( ( ..3.3.3.1.k k k k C.H.H.H.:X1X1X1X1X:X:X:X*X4.4.4.4.&.u.u.u.g.V.V.V.b.d.d.d.d.4.4.4.4.7 > 7 > / _ _ ,.N.bXbXbXcXx.x.x.x.V.V.V.V.2.3.3.3.2.d.d.d.g.I.I.I.I.d.d.d.d.G.I.I.I.H.V.V.V.B.<.<.<.<.I.I.I.I.I.L.I.I.I.I.I.I.I.d.g.g.g.7 = = = , , , , / <.<.7.7.Z.Z.Z.Z.  ",
"K <.<.<.8.B.B.B.B.,.,.,.,.3.4.4.4.N.B.B.B.P.cXcXcXlX,.,.,.,.z.z.z.z.g.g.g.g.s.<.<.<.8.Y.Y.Y.Y.g.g.g.g.h > > > z 1.1.1.1.^ ^ ^ ^ G.H.H.H.8.<.<.<.N.lXlXlXlXgXgXgXgXH.H.H.H.@X;X;X;XT.L.L.L.L.`.`.`.`.`.`.`.`.K.H.H.H.V.x.x.x.B.`.`.`.`.K.K.K.K.a 7 7 7 L >.>.>.,.W W W W P P P P o.{.|.}...( ( ( ..1.1.1.1.k k k k C.H.H.H.*X1X1X1X:X*X*X*X*X3.3.3.3.&.&.&.&.g.V.V.V.b.d.d.d.d.3.3.3.3.7 > > > L _ _ ,.N.cXcXcXlXx.x.x.x.V.V.V.V.2.3.3.5.2.d.d.d.d.I.I.I.I.d.d.d.d.G.I.I.I.G.m.m.V.B.<.<.,.,.H.I.I.I.L.L.L.L.I.I.I.I.H.d.d.d.d.7 = = = 7 7 7 7 / 7.7.7.7.B.B.B.B.  ",
"L 6.6.6.>.6 6 6 6 <.<.<.<.6.6.6.6.f.z.z.z.b.H.H.H.G.,.,.,.,.3.4.4.4.N.H.H.H.C.z.b.z.g.^ ^ ^ ^ d.g.g.g.h > > > 0 _ ,._ _ 6 5 5 5 b.V.V.V.b.z.z.z.f.,.,.,.8.=X=X=X=XH.H.H.H.8.,.,.,.;.z.z.z.z.4.4.4.4.z.z.z.z.G.L.I.I.M.,.,.,.8.z.z.z.z.^ ^ ^ ^ r r r r r r r r r W W W W 7 7 7 7 r r r r Y ( ( ( ....>.>...4 4 4 4 C.H.H.H.V.z.z.z.b.H.H.H.H.,.,.,.,.^ ^ ^ ^ s.V.V.V.b.z.z.z.z.,.,.,.,.7 > > > / ,.,.,.7.).).).).d.d.d.d.V.V.V.V.2.4.4.4.2.d.d.d.d.V.V.V.V.d.d.d.d.b.V.V.V.z.d.d.d.d.,.,.,.,.d.d.d.d.b.V.V.V.z.d.d.d.i.,.,.,.,.7 > > > 0 J J J _ 6.6.6.6.z.z.z.z.  ",
"L 6.6.6.>.6 6 6 6 <.<.<.<.4.6.6.6.f.z.z.z.b.H.H.H.G.,.,.,.,.3.3.4.4.N.H.H.H.C.b.b.z.z.^ ^ ^ ^ d.g.g.g.h > > > 0 ,.,._ _ 6 6 5 5 b.V.V.V.b.z.z.z.f.,.,.,.8.-X=X=X=XH.H.H.H.8.,.,.,.;.z.z.z.z.4.4.4.4.z.z.z.z.G.I.I.I.M.,.,.,.8.z.z.z.z.^ ^ ^ ^ r r r r r r r r r W W W W 7 7 7 7 r r r r Y ( ( ( ..>.>.>...4 4 4 4 C.H.H.H.V.z.z.z.b.H.H.H.H.,.,.,.,.^ ^ ^ ^ s.V.V.V.m.z.z.z.z.,.,.,.,.7 > > > / ,.,.,.7.).).).).d.d.d.d.V.V.V.V.2.4.4.4.2.d.d.d.d.V.V.V.V.d.d.d.d.b.V.V.V.z.d.d.d.d.,.,.,.,.d.d.d.d.b.V.V.V.z.d.d.d.i.,.,.,.,.7 > > > 0 J J J _ 6.6.6.6.z.z.z.z.  ",
"L 6.6.6.>.6 6 6 6 <.<.<.<.6.6.6.6.f.z.z.z.b.H.H.H.G.,.,.,.,.3.4.4.4.N.H.H.H.C.z.z.z.g.^ ^ ^ ^ d.g.g.g.h 7 > > 0 _ _ _ _ 6 6 6 6 m.V.V.V.b.z.z.b.f.,.,.,.8.=X=X=X=XH.H.H.H.8.,.,.,.;.z.z.z.z.4.4.4.4.z.z.z.z.G.I.I.I.M.,.,.,.8.z.z.z.z.^ ^ ^ ^ r r r r r r r r r W W W W 7 7 7 7 r r r r K ( ( ( ....>.>...4 4 4 4 C.H.H.H.V.z.z.z.b.H.H.H.H.,.,.,.,.^ ^ ^ ^ s.V.V.V.m.z.z.z.z.,.,.,.,.7 > > > / ,.,.,.7.).).).).d.d.d.d.m.V.V.V.2.4.4.4.2.d.d.d.d.V.V.V.V.d.d.d.d.b.V.V.V.z.d.d.d.i.,.,.,.,.d.d.d.d.b.V.V.V.z.d.d.d.i.,.,.,.,.7 > > > 0 J J J _ 6.6.6.6.b.z.z.z.  ",
"L 6.6.6.>.6 6 6 6 <.<.<.<.6.6.6.6.f.z.z.z.b.H.H.H.G.,.,.,.,.3.4.4.4.N.H.H.H.C.z.z.z.g.^ ^ ^ ^ d.g.g.g.h 7 > > 0 _ _ _ _ 6 6 6 6 m.V.V.V.b.z.z.z.f.,.,.,.8.=X=X=X=XH.H.H.H.8.,.,.,.;.z.z.z.z.4.4.4.4.z.z.z.z.G.I.I.I.M.,.,.,.8.z.z.z.z.^ ^ ^ ^ r r r r r r r r r W W W W 7 > 7 7 r r r r Y ( ( ( ....>.>...4 4 4 4 C.H.H.H.V.z.z.z.b.H.H.H.H.,.,.,.,.^ ^ ^ ^ s.V.V.V.m.z.z.z.z.,.,.,.,.7 > > > / ,.,.,.7.).).).).d.d.d.d.m.V.V.V.2.4.4.4.2.d.d.d.d.V.V.V.V.d.d.d.d.b.V.V.V.z.d.d.d.i.,.,.,.,.d.d.d.d.b.V.V.V.z.d.d.d.i.,.,.,.,.7 > > > 0 J J J _ 4.4.6.6.b.z.z.z.  ",
"L 4.4.4.>.6 6 6 6 ^ ^ ^ ^ 3.4.4.4._ ^ ^ ^ ;.H.H.H.H.z.z.z.z.4.4.4.4.f.d.d.d.s.<.<.<.,.,.,.,.,.B.V.V.V.k > > > 7 4 4 4 4 ^ ^ ^ ^ z.z.z.z.d.d.d.d.;.,.,.,.,.u u u u z.b.b.b.2.3.3.3.N.B.B.B.B.,.,.,.,.^ ^ ^ ^ &.u.u.u.;.,.,.,.,.<.<.<.<.Y Y Y Y |  . . .! Y Y Y U t t t t 7 7 7 7 _ X.X.X./ k k k z K J J J 6 6 6 6 g.b.b.b.g.d.d.d.d.b.b.b.z.3.3.3.3.^ ^ ^ ^ ;.d.d.d.f.4.4.4.5.,.,.,.,.b b v b ~ J J J ) <.<.<.<.x.x.x.x.d.d.d.d.8.,.,.,.;.d.d.d.i.^ ^ ^ ^ d.d.d.d.2.5.5.5.$.b b b b X.X.X.X.b b b b ` ,.,.,.;.d.d.d.f.,.,.,.,.* * * * _ 1.1.1.1.4.4.6.5.^ ^ ^ ^   ",
"L 4.4.4.>.6 6 6 6 ^ ^ ^ ^ 1.4.4.4._ ^ ^ ^ ;.H.H.H.H.z.z.z.z.4.4.4.4.f.d.d.d.;.,.,.,.,.,.,.,.,.V.V.V.V.k > > > 7 3 3 4 4 ^ ^ ^ ^ z.z.z.z.d.d.d.d.;.,.,.,.X.6 6 6 6 z.z.z.z.2.4.4.4.N.B.B.B.B.,.,.,.,.^ ^ ^ ^ %.&.u.&.;.,.,.,.,.,.,.,.<.Y Y Y Y |  . . .} Y Y Y U t t t t 7 7 7 7 _ X.X.X./ k k k z J J J J 6 6 6 6 g.z.z.z.g.d.d.d.d.z.z.z.z.4.4.4.4.^ ^ ^ ^ ;.d.d.d.f.4.4.4.3.,.,.,.,.b b b b ~ J J J ) <.<.<.<.x.x.x.x.d.d.d.d.8.,.,.,.;.d.d.d.i.^ ^ ^ ^ d.d.d.d.2.3.3.3.$.b b b b X.X.X.X.b b b b ` ,.,.,.;.d.d.d.f.,.,.,.,.* * * * _ 1.1.1.1.4.6.6.3.^ ^ ^ ^   ",
"L 4.4.4.>.6 6 6 6 ^ ^ ^ ^ 1.4.4.4._ ^ ^ ^ ;.H.H.H.H.z.z.z.z.4.4.4.4.f.d.d.d.;.,.,.,.,.,.,.,.,.V.V.V.V.k > > > 7 3 3 3 4 ^ ^ ^ ^ z.z.z.z.d.d.d.d.;.,.,.,.X.6 6 6 6 z.z.z.z.2.4.4.4.N.B.B.B.B.,.,.X.,.^ ^ ^ ^ &.u.u.u.;.,.,.,.,.,.,.,.,.Y Y Y Y  . . . .} Y Y Y U t t t t 7 7 7 7 _ X.X.X./ k k k z J J J J 6 6 6 6 g.z.z.z.g.d.d.d.d.z.z.z.z.4.4.4.4.^ ^ ^ ^ ;.d.d.d.f.4.4.4.3.,.,.,.,.b b b b ~ J J J ) <.<.<.<.x.x.x.x.d.d.d.d.8.,.,.,.8.d.d.d.i.^ ^ ^ ^ d.d.d.d.2.3.3.5.$.b b b b X.X.X.X.b b b b ` ,.,.,.;.d.d.d.i.,.,.,.,.* * * * _ 1.1.1.3.6.6.4.3.^ ^ ^ ^   ",
"L 4.4.4.>.6 6 6 6 ^ ^ ^ ^ 1.4.4.4._ ^ ^ ^ ;.H.H.H.H.z.z.z.z.4.4.4.4.f.d.d.d.;.,.,.,.,.,.,.,.,.V.V.V.V.k > > > 7 3 3 3 4 ^ ^ ^ ^ z.z.z.z.d.d.d.d.;.,.,.,.X.6 6 6 6 z.z.z.z.2.4.4.4.N.B.B.B.B.,.,.,.,.^ ^ ~ ^ &.u.u.u.;.,.,.,.,.,.,.,.,.Y Y Y Y |  . . .} Y Y Y U t t t t 7 7 7 7 _ X.X.X./ k k k z J J J J 6 6 6 6 g.z.z.z.g.d.d.d.d.z.z.z.z.4.4.4.4.^ ^ ^ ^ ;.d.d.d.f.4.4.4.3.,.,.,.,.b b b b ~ J J J ) <.<.<.<.x.x.x.x.d.d.d.d.8.,.,.,.8.d.d.d.i.^ ^ ^ ^ d.d.d.d.2.3.3.5.$.b b b b X.X.X.X.b b b b ` ,.,.,.;.d.d.d.i.,.,.,.,.* * * * _ 1.1.1.3.6.6.4.3.^ ^ ^ ^   ",
"0 ) ) ) ) _ _ _ _ ^ ^ ^ ^ ,.<.<.<.) ^ ^ ^ ) 8.8.8.8.z.z.z.z.) ) ) ) f.z.z.z.s.) ) ) ) 5.5.5.5.~ ~ ~ ~ #.>.>.>.,.) ) ) ) 6 6 6 6 / ) / / d.z.z.z.;.) ) ) ) _ _ _ _ z.z.z.z.2.4.4.4.,.~ ~ ~ ~ 5.5.5.5.^ ~ ~ ^ d.g.g.g.g.f.f.f.f.) ) ) ) o.o.o.o.@. . . .I e e e e P P P P r r y y 6 6 6 6 ] i.i.i.&.^ ^ ^ ^ 6 6 6 6 g.z.z.z.;.8.8.8.8.z.z.z.z.J J J J ^ ^ ^ ^ ;.g.z.z.f.3.3.3.3.) ) ) ) ` ` ` ` z 9 9 9 z ^ ^ ^ ) g.g.d.d.2.2.2.2.<.,.,.,.;.d.d.d.d.i.s.s.s.8.8.8.8.5.1.1.3.$.u.%.u.&.>.>.>.>.^ ~ ~ ~ ~ U J J / u.u.u.&.1.1.1.1.) ) ) ) K K K ^ _ <.<.<.,.u u u u   ",
"3 ^ ^ ^ ) <.<.<.,.^ ^ ^ ^ ,.,.,.,.) ^ ^ ^ ) ,.,.,.<.z.z.z.z.^ ^ ^ ^ d.z.z.z.s.^ ^ ^ ^ 4.4.4.4.6 6 6 6 ,.1.1.1.>._ _ _ _ 5 5 5 5 ^ ^ ^ ^ d.z.z.z.;.^ ^ ^ ^ ,.,.,.,.z.z.z.z.2.4.4.4._ 5 5 5 6 5.5.5.5.^ ~ ~ ~ d.z.z.z.z.z.z.z.g.^ ^ ^ ^ XXXXXXXX@. . . .I < < < < P P P P P P P P 2 2 2 2 ] d.d.d.s.^ ^ ^ ^ 6 6 6 6 g.z.z.z.8.,.,.,.8.z.z.z.z.6 6 6 6 ~ ^ ^ ^ ;.z.z.z.f.3.3.3.3.^ ^ ^ ^ _ _ _ _ z 8 8 8 d ^ ^ ^ ^ d.d.d.d.5.3.3.3.<.,.,.,.;.d.d.d.d.d.d.d.d.,.,.,.,.1.1.1.1.$.u.u.u.&.1.1.1.1.^ ^ ^ ^ 6 5 6 6 ~ u.u.u.&.1.3.1.1._ _ _ _ K J J K ) ,.,.,.X.6 u u u   ",
"3 ^ ^ ^ ) <.<.<.,.^ ^ ^ ^ ,.,.,.,.) ^ ^ ^ ) ,.,.,.<.z.z.z.z.^ ^ ^ ^ d.z.z.z.s.^ ^ ^ ^ 4.4.4.4.6 6 6 6 >.1.1.1.>._ _ _ _ 5 5 5 5 ^ ^ ^ ^ d.z.z.z.;.^ ^ ^ ^ ,.,.,.,.z.z.z.z.2.4.4.4._ 5 5 5 6 3.3.3.3.^ ~ ^ ^ d.z.z.z.z.z.z.z.g.^ ^ ^ ^ XXXXXXXX@. . . .I < < < w P P P P P P P P 2 2 2 2 ] d.d.d.s.^ ^ ^ ^ 6 6 6 6 g.z.z.z.8.,.,.,.8.z.z.z.z.6 6 6 6 ~ ~ ~ ~ ;.z.z.z.f.3.3.3.3.^ ^ ^ ^ _ _ _ _ z 8 8 8 d ^ ^ ^ ^ d.d.d.d.5.3.3.3.<.,.,.,.;.d.d.d.d.d.d.d.d.,.,.,.,.1.1.1.1.$.u.u.u.&.1.1.1.1.^ ^ ^ ^ 6 5 6 6 j u.u.u.&.3.3.3.1._ _ _ _ K J K J ) ,.,.,.X.u u u u   ",
"3 ^ ^ ^ ) <.<.<.,.^ ^ ^ ^ ,.,.,.,.) ^ ^ ^ ) ,.,.,.<.z.z.z.z.^ ^ ^ ^ d.z.z.z.s.^ ^ ^ ^ 4.4.4.4.6 6 6 6 >.1.1.1.>._ _ _ _ 5 5 5 5 ^ ^ ^ ^ d.z.z.z.;.^ ^ ^ ^ ,.,.,.,.z.z.z.z.2.4.4.4._ 5 5 5 6 3.3.3.3.^ ~ ^ ^ d.z.z.z.z.z.z.z.g.^ ^ ^ ^ XXXXXXXX@. . . .I < < < < P P P P P P P P 2 2 2 2 ] d.d.d.s.^ ^ ^ ^ 6 6 6 6 g.z.z.z.8.,.,.,.8.z.z.z.z.6 6 6 6 ~ ~ ~ ~ s.z.z.z.f.3.3.3.3.^ ^ ^ ^ _ _ _ _ z 8 8 8 d ^ ^ ^ ^ d.d.d.d.5.3.3.3.<.,.,.,.;.d.d.d.d.d.d.d.d.,.,.,.,.1.1.1.1.$.u.u.u.&.1.1.1.1.^ ^ ^ ^ 6 5 6 6 j u.u.u.&.3.3.3.1._ _ _ _ K K K J ) ,.,.,.X.u u u u   ",
"0 ) ) ) ) ) ) ) ) ) ) ) ) ,.,.,.,.) ^ ^ ^ ^ ) ) ) ) z.z.z.z.^ ^ ^ ^ ;.f.f.f.;.~ ~ ~ ~ 4.4.4.4.6 6 6 6 ,.1.1.1.,.K K K K ^ ^ ^ ^ J J J J ;.f.f.f.;.^ ^ ^ ^ ,.,.,.,.;.;.;.;.2.4.4.4._ 6 6 6 6 ,.,.,.,.J J J J i.d.d.d.s.;.;.;.;.) ) ) ) X.X.X.X.Y Y Y Y u p p p u y y y y T T T T 2 2 2 2 ~ ] ] ] / ~ ~ ~ ~ ] ] ] ] %.] ] ] ` _ _ _ ` f.f.f.;.6 6 6 6 _ _ _ _ ;.f.f.f.;._ _ _ _ ) ) ) ) ) ) ) ) z 8 8 8 9 ^ K ^ ^ ;.;.;.;.1.1.1.1.` ) ) ) ` ;.;.;.;.%.%.%.%.) ) ) ) >.1.1.1.$.c c c / 3.3.3.1.^ ^ ^ ^ 6 6 6 6 j / / / / 1.1.1.1.K K K K 6 6 6 6 ^ ,.,.,.X.6 6 6 6   ",
"J ,.,.,.` 6 6 6 6 ,.,.,.,.,.,.,.,.) ^ ^ ^ ~ 6 6 6 u z.z.z.z.^ ^ ^ ^ _ ,.,.,.) 6 6 6 6 4.4.4.4.6 6 6 6 _ >.>.1.L 3 3 3 4 ,.,.,.,.6 5 5 5 _ ,.,.,.` ^ ^ ^ ^ ,.,.,.,.^ ^ ^ ^ 1.3.4.4._ 6 6 6 6 ~ ~ ^ ^ 6 6 6 6 %.u.u.u./ ^ ^ ^ ^ ,.,.,.,.v v v v % @ @ @ 8 C C C V t t t t W W W W 2 2 2 2 H J J J H 6 6 6 6 z.z.b.b.u 6 6 5 ~ ^ ^ ^ ) ,.,.,.,.6 5 6 6 1.1.1.1.<.,.,.,.` 6 6 6 6 ,.,.,.,.J J J J 9 8 8 8 9 J J J K 1.1.1.1.,.,.,.,.~ 5 4 4 K 1.1.1.>.J J J J 6 6 6 6 >.1.1.1._ 4 4 4 6 3.3.3.3.K J J J 6 6 5 5 5 6 6 6 6 1.1.1.1.3 3 3 3 4 4 4 3 K ,.,.,.X.6 6 6 6   ",
"J ,.,.,.` 6 6 6 6 ,.,.,.,.,.,.,.,.) ^ ^ ^ ~ 6 6 6 u z.z.z.z.^ ^ ^ ^ _ ,.,.,.) 6 6 6 6 4.4.4.4.6 6 6 6 ,.>.1.1.L 3 3 4 5 ,.,.,.,.6 5 5 5 _ ,.,.,.` ^ ^ ^ ^ ,.,.,.,.^ ^ ^ ^ 1.4.4.4._ 6 6 6 6 ~ ^ ^ ^ 6 6 6 6 %.u.u.u./ ^ ^ ^ ^ ,.,.,.,.v v v v % @ @ @ 8 C C C V t t t t W W W W 2 2 2 2 H J J J H 6 5 5 6 z.z.z.z.u 6 6 6 ~ ^ ^ ^ ) ,.,.,.,.6 6 6 6 1.1.1.1.<.,.,.,.` 6 6 6 6 ,.,.,.X.J J J J 9 8 8 8 9 J J J K 3.1.1.1.,.,.,.,.~ 5 5 5 K 1.1.1.>.K K K K 6 6 6 6 >.1.1.1._ 5 5 5 6 3.3.3.3.K J J J 6 5 5 5 5 6 6 6 6 1.1.1.1.3 3 3 3 4 4 4 4 ^ ,.,.,.X.6 6 6 6   ",
"J ,.,.,.` 6 6 6 6 ,.,.,.,.,.,.,.,.) ^ ^ ^ ~ 6 6 6 u z.z.z.z.^ ^ ^ ^ _ ,.,.,.) 6 6 6 6 4.4.4.4.6 6 6 6 ,.>.1.1.L 3 3 3 4 ,.,.,.,.6 5 5 5 _ ,.,.,.` ^ ^ ^ ^ ,.,.,.,.^ ^ ^ ^ 1.4.4.4._ 6 6 6 6 ^ ^ ^ ^ 6 6 6 6 %.u.u.u./ ^ ^ ^ ^ ,.,.,.,.v v v v % @ % @ 8 C C C V t t t t W W W W 2 2 2 2 H J J J H 6 5 5 6 z.z.z.z.u 6 6 6 ~ ^ ^ ^ ) ,.,.,.,.6 6 6 6 1.1.1.1.<.,.,.,.` 6 6 6 6 ,.,.,.X.J J J J 9 8 8 8 9 J J J K 3.3.1.1.,.,.,.,.~ 5 5 5 K 1.1.1.>.K K K J 6 6 6 6 >.1.1.1._ 5 5 5 6 3.3.3.3.K J J J 6 5 5 5 5 6 6 6 6 1.1.1.1.3 3 3 3 4 4 4 4 ^ ,.,.,.X.6 6 6 6   ",
"0 X.X.X.) 6 6 6 6 X.X.X.X.X.X.X.X.) ^ ^ ^ ~ 6 6 6 u g.g.g.g.^ ^ ^ ^ ` ,.,.,.) 6 6 6 6 1.1.1.1.H 6 6 6 _ >.>.>.L 3 3 4 4 _ _ _ _ 6 5 5 5 ` ,.,.,.` ^ ^ ^ ^ X.X.X.X.^ ^ ^ ^ >.3.3.3._ 6 6 6 6 J J J J 6 6 6 6 %.&.&.&./ ^ ^ ^ ^ X.X.X.X.v v v v * % % % 8 C C C V t t t t W W W W 2 2 2 2 H J K K H 6 5 5 6 g.g.g.g.u 6 6 5 ~ ^ ^ ^ ) X.X.X.X.6 6 6 6 1.1.1.1.,.X.X.X.) 5 5 5 6 X.X.X.X.J J J J 0 9 9 9 9 J J J K >.>.>.>.,.X.,.X.~ 4 4 4 K >.>.1.>.J J J J 6 6 6 6 ,.>.>.>.) 5 5 5 6 3.3.3.3.K J J J 6 6 6 6 6 6 6 6 6 >.>.>.>.4 3 3 3 4 4 4 4 K X.X.X._ 6 6 6 6   ",
"1 5 5 5 6 J J J J 5 5 5 5 _ X.X.X.J 3 3 3 3 5 5 5 5 _ _ _ _ 5 4 5 5 J ~ ~ ~ H 3 3 3 4 J J J J _ _ _ _ H 5 5 5 5 J J J J 5 5 5 5 3 3 3 3 ) _ _ _ K 3 3 3 4 J K K K 4 3 3 3 ` X.X.X.) J ~ K J 4 4 4 4 5 5 5 4 ` X.X.X.) K K K J 3 3 3 4 h h h h s s x s l C C C V v v v v t t t t 2 2 2 2 H J K J H 5 5 5 5 ^ J J J 5 5 5 5 ^ X.X.X.) 5 5 4 5 X.X.X.X.1.1.1.1.K 3 3 3 3 3 3 3 4 _ _ _ _ 5 5 5 5 6 J J K 6 4 4 3 3 3 3 3 3 _ _ _ _ 6 3 3 3 H _ _ _ _ 4 3 4 3 >.1.1.1.J 3 3 3 3 3 3 3 4 _ _ _ _ 4 3 3 3 ) _ _ _ ) J J J J _ _ _ _ J J J J J J J J 6 5 5 5 5 3 3 3 3   ",
"1 5 5 5 5 J J J J 5 5 5 4 _ X.X.X.J 3 3 3 3 5 5 4 5 _ _ _ _ 5 5 5 5 J J J J H 3 3 3 4 J J J J _ _ _ _ H 5 5 5 6 J J J J 4 5 5 5 3 3 3 3 ) _ _ _ K 3 3 3 4 J J J J 4 3 3 3 ` X.X.X.) J J J J 4 4 5 5 5 5 4 4 ` X.X.X.) J J K J 3 3 3 4 h h h h s s s s l C C C V v v v v t t t t 2 2 2 2 H J K K H 4 4 4 5 ^ J K K 5 5 5 4 ^ X.X.X.) 5 5 5 5 X.X.X.X.1.1.1.1.K 3 3 3 3 3 3 3 4 _ _ _ _ 5 5 5 5 J J J J 6 4 4 3 3 3 3 3 3 _ _ _ _ 6 3 3 3 H _ _ _ _ 4 3 3 3 >.1.1.1.6 3 3 3 3 3 3 3 4 _ _ _ _ 4 3 3 3 ) _ _ _ ) J J J J _ _ _ _ J J J J J J J J 6 6 6 6 5 3 3 3 3   ",
"1 5 5 5 5 J J J J 5 5 5 4 _ X.X.X.J 3 3 3 3 5 4 4 5 _ _ _ _ 5 5 5 5 J J J ~ H 3 3 3 4 J J J J _ _ _ _ H 5 4 5 6 J J J J 4 4 5 5 3 3 3 3 ) _ _ _ K 3 3 3 4 J J J J 4 3 3 3 ` X.X.X.) J J J J 4 4 5 5 4 5 4 4 ` X.X.X.) J J J J 3 3 3 4 h h h h s s s s l C C C V v v v v t t t t 2 2 2 2 H J K K H 4 4 4 5 ^ K K K 5 5 5 5 ^ X.X.X.) 5 5 5 5 X.X.X.X.1.1.1.1.K 3 3 3 3 3 3 3 4 _ _ _ _ 5 5 5 5 J J J J 6 4 4 3 3 3 3 3 3 _ _ _ _ 6 3 3 3 H _ _ _ _ 4 3 3 3 >.1.1.1.6 3 3 3 3 3 3 3 4 _ _ _ _ 4 3 3 3 ) _ _ _ ) J J J J _ _ _ _ J J J J J J J J 6 6 6 6 5 3 3 3 3   ",
"1 4 4 4 5 J J J J 5 5 4 4 _ X.X.X.J 3 3 3 3 5 5 4 4 _ _ _ _ 5 5 4 5 J K ~ ~ 6 3 3 3 4 J J J J _ _ _ _ H 5 4 5 6 J J J J 5 4 5 5 3 3 4 3 ) _ _ _ K 3 3 3 4 J ~ J J 3 3 3 3 ` X.X.X.) J J J J 5 5 5 5 4 4 4 4 ` X.X.X.) J J J J 3 3 3 3 h h h h s s s s l C C C V v v v v t t t t 2 2 2 2 H J J K H 4 4 4 5 ^ K K K 5 5 5 5 ^ X.X.X.) 5 5 5 5 X.X.X.X.1.1.1.1.K 3 3 3 3 3 3 3 4 _ _ _ _ 5 5 5 5 6 J J K 6 4 4 3 3 3 3 3 3 _ _ _ _ 6 3 3 3 6 _ _ _ _ 3 3 3 3 >.>.>.>.6 3 3 3 3 3 3 3 4 _ _ _ _ 4 3 3 3 ) _ _ _ ) J J J J _ _ _ _ J J J J J J J J 6 6 6 5 4 3 3 3 3   ",
"  ",
"  "
};
