/* XPM */
static char *fc3d8df689e74e1ccb411dff4fe42794cjgIVx7aqTlbXwhB[] = {
/* columns rows colors chars-per-pixel */
"494 505 256 2 ",
"   c None",
".  c #260B00",
"X  c #2B0B00",
"o  c #270700",
"O  c #320D01",
"+  c #390C00",
"@  c #2C1202",
"#  c #341203",
"$  c #3A1708",
"%  c #281D15",
"&  c #381D13",
"*  c #2B2117",
"=  c #2D231A",
"-  c #292218",
";  c #32241B",
":  c #3B2519",
">  c #3D210D",
",  c #392B23",
"<  c #3A3028",
"1  c #1E0A00",
"2  c #441D0C",
"3  c #4B1D0C",
"4  c #461804",
"5  c #541C09",
"6  c #481E11",
"7  c #501C0E",
"8  c #4B210E",
"9  c #45210E",
"0  c #54220E",
"q  c #442314",
"w  c #4C2313",
"e  c #43261A",
"r  c #44291D",
"t  c #4C2B1C",
"y  c #4B2718",
"u  c #532514",
"i  c #5B2B15",
"p  c #542C1C",
"a  c #5B2D1B",
"s  c #562715",
"d  c #5D311D",
"f  c #55311E",
"g  c #4D311E",
"h  c #642C15",
"j  c #6A2E14",
"k  c #632E1A",
"l  c #692E1A",
"z  c #64321D",
"x  c #6B331D",
"c  c #6C3318",
"v  c #7C3315",
"b  c #74351C",
"n  c #7B361B",
"m  c #7C391E",
"M  c #74361A",
"N  c #722E14",
"B  c #4C2D21",
"V  c #452C22",
"C  c #562E22",
"Z  c #4A3327",
"A  c #543323",
"S  c #5B3423",
"D  c #5B362A",
"F  c #553A2C",
"G  c #5C3B2C",
"H  c #583728",
"J  c #5C3D32",
"K  c #553D32",
"L  c #473B34",
"P  c #643523",
"I  c #6B3622",
"U  c #643925",
"Y  c #6C3924",
"T  c #633B2B",
"R  c #6C3D2C",
"E  c #633629",
"W  c #723622",
"Q  c #743A24",
"!  c #7C3C24",
"~  c #743D2B",
"^  c #7B3E2A",
"/  c #7A3622",
"(  c #633E32",
")  c #6B3E31",
"_  c #753E31",
"`  c #622F21",
"'  c #5D4234",
"]  c #5B4539",
"[  c #584131",
"{  c #6D412D",
"}  c #65412D",
"|  c #74412D",
" . c #7C422D",
".. c #7C4126",
"X. c #644234",
"o. c #6C4333",
"O. c #64453A",
"+. c #6B453A",
"@. c #6B4A3D",
"#. c #67493A",
"$. c #734434",
"%. c #7C4533",
"&. c #7C4936",
"*. c #734639",
"=. c #7B4639",
"-. c #744A3B",
";. c #7C4A3B",
":. c #754936",
">. c #78513D",
",. c #6C4D42",
"<. c #654B43",
"1. c #734D42",
"2. c #7B4D41",
"3. c #6C5448",
"4. c #745244",
"5. c #7C5344",
"6. c #79574B",
"7. c #7B5C52",
"8. c #655A55",
"9. c #7C635A",
"0. c #726357",
"q. c #7C6965",
"w. c #574F4A",
"e. c #833516",
"r. c #83361B",
"t. c #843A1D",
"y. c #8A3B1D",
"u. c #873819",
"i. c #903C1D",
"p. c #833C23",
"a. c #8B3D23",
"s. c #833E29",
"d. c #893C27",
"f. c #923E22",
"g. c #913E29",
"h. c #843F32",
"j. c #844126",
"k. c #8C4125",
"l. c #84432C",
"z. c #8B442B",
"x. c #8C492E",
"c. c #85492E",
"v. c #934225",
"b. c #92452B",
"n. c #94492D",
"m. c #9C492D",
"M. c #9A4528",
"N. c #834532",
"B. c #8B4632",
"V. c #844935",
"C. c #8B4A34",
"Z. c #834B3B",
"A. c #8B4C3A",
"S. c #844639",
"D. c #934A33",
"F. c #9B4C34",
"G. c #934E3A",
"H. c #974A35",
"J. c #8C513D",
"K. c #85513D",
"L. c #94523C",
"P. c #9C533B",
"I. c #995236",
"U. c #A24B2E",
"Y. c #A34D33",
"T. c #A74E37",
"R. c #A45235",
"E. c #A3543B",
"W. c #AB553B",
"Q. c #AA583C",
"!. c #B1573D",
"~. c #90401E",
"^. c #844E41",
"/. c #845344",
"(. c #8B5443",
"). c #8C5B4B",
"_. c #86584A",
"`. c #935442",
"'. c #945B4C",
"]. c #9B5D4B",
"[. c #995744",
"{. c #875D52",
"}. c #965E52",
"|. c #954E41",
" X c #AC5C43",
".X c #A55A46",
"XX c #B25D44",
"oX c #A15B4E",
"OX c #886558",
"+X c #946354",
"@X c #9B6354",
"#X c #98675A",
"$X c #90624E",
"%X c #AC624C",
"&X c #A6614C",
"*X c #B3634C",
"=X c #B56349",
"-X c #A26454",
";X c #A3665A",
":X c #A76858",
">X c #B86954",
",X c #B6725C",
"<X c #866B66",
"1X c #8A726B",
"2X c #987669",
"3X c #987A72",
"4X c #8E746C",
"5X c #A57769",
"6X c #A47D73",
"7X c #B07566",
"8X c #C2715C",
"9X c #C67967",
"0X c #CD7E70",
"qX c #978379",
"wX c #A88578",
"eX c #B88778",
"rX c #B98672",
"tX c #C88978",
"yX c #D28B78",
"uX c #CF8D79",
"iX c #B89688",
"pX c #AF9188",
"aX c #A99A95",
"sX c #C99787",
"dX c #D69A88",
"fX c #CB9D92",
"gX c #C8A496",
"hX c #DAA797",
"jX c #D8A693",
"kX c #E2AA9A",
"lX c #E5B29F",
"zX c #DCB5A9",
"xX c #DCBBB4",
"cX c #D3AEA5",
"vX c #E4B3A4",
"bX c #E4BBAC",
"nX c #EABBAD",
"mX c #E7B5A8",
"MX c #E7BDB3",
"NX c #E9B4A7",
"BX c #E09E8E",
"VX c #EBC3B4",
"CX c #E4C3BB",
"ZX c #ECC4BA",
"AX c #EAC6B7",
"SX c #F3C6B8",
"DX c #E8C1AE",
"FX c #DAC2BA",
"GX c #E7CAC4",
"HX c #E9D8D3",
"JX c #ECD2CA",
"KX c #F8E4DA",
"LX c #FEF4EC",
"PX c #FFF9F3",
"IX c #FBECE5",
"UX c #DBCBC6",
/* pixels */
"                                                                                                                                                                                                                                                                                                                                                                                                                                                                                                                                                                                                                                                                                                                                                                                                                                                                                                                                                                                                                            ",
"                                                                                                                                                                                                                                                                                                                                                                                                                                                                                                                                                                                                                                                                                                                                                                                                                                                                                                                                                                                                                            ",
"                                                                                                                                                                                                                                                                                                                                                                                                                                                                                                                                                                                                                                                                                                                                                                                                                                                                                                                                                                                                                            ",
"                                                                                                                                                                                                                                                                                                                                                                                                                                                                                                                                                                                                                                                                                                                                                                                                                                                                                                                                                                                                                            ",
"                                                                                                                                                                                                                                                                                                                                                                                                                                                                                                                                                                                                                                                                                                                                                                                                                                                                                                                                                                                                                            ",
"                                                                                                                                                                                                                                                                                                                                                                                                                                                                                                                                                                                                                                                                                                                                                                                                                                                                                                                                                                                                                            ",
"                                                                                                                                                                                                                                                                                                                                                                                                                                                                                                                                                                                                                                                                                                                                                                                                                                                                                                                                                                                                                            ",
"                                                                                                                                                                                                                                                                                                                                                                                                                                                                                                                                                                                                                                                                                                                                                                                                                                                                                                                                                                                                                            ",
"                                                                                                                                                                                                                                                                                                                                                                                                                                                                                                                                                                                                                                                                                                                                                                                                                                                                                                                                                                                                                            ",
"                                                                                                                                                                                                                                                                                                                                                                                                                                                                                                                                                                                                                                                                                                                                                                                                                                                                                                                                                                                                                            ",
"                      xXcXcXcXiXpXpX                                                                                                                                                                                                                                                                                                                                                                                                                                                                                                                                                                                                                                                                                                                                                                                                                                                                                                                                                                                        ",
"                    gXcXcXzXzXzXiX5.-.5.{.2X                                                                                                                                                                                                                                                                                                                                                                                                                                                                                                                                                                                                                                                                                                                                                                                                                                                                                                                                          pX<X<XgXgXgXgXcX                      ",
"                    gXzXzXzXmXmXsX(.|.[.`.A.A.|.'.:X                                                                                                                                                                                                                                                                                                                                                                                                                                                                                                                                                                                                                                                                                                                                                                                                                                                                                                                          <X3.O.X.+.@.OXzXzXcXcXcXcX                    ",
"                    cXxXxXmXmXNXdXG.G.H.F.E..X.XF.[.[.`.(.}.5X                                                                                                                                                                                                                                                                                                                                                                                                                                                                                                                                                                                                                                                                                                                                                                                                                                                                                                        7.,.#.@.@.5.-.1.;.;.#XmXvXcXgXgXcXUX                  ",
"                    xXxXMXVXSXnXsXL.L.H.P.R.R.T.R.R..X.X`.A.(.'.(.}.5XiX                                                                                                                                                                                                                                                                                                                                                                                                                                                                                                                                                                                                                                                                                                                                                                                                                                                                                      9.+.X.X.+.1.1.2.2.-.2.;.;.:.#XbXbXhXzXzXzXFX                  ",
"                    xXCXAXMXVXnXuXC.G.H.R.R.E.E.E.E.Q. X.XP.L.[.[.[.].].`.(.}.2XpX                                                                                                                                                                                                                                                                                                                                                                                                                                                                                                                                                                                                                                                                                                                                                                                                                                                                  qX<X,.O.#.@.-.:.:.&.$.=.;.^.Z./.;.;.$.#XNXmXmXvXcXcXFX                  ",
"                    xXMXAXCXMXnXtXC.L.I.F.R.Q.Q.R.R.XXXX.XP.P..XP..X.X.X.X.XP.D.B.C.`.-XrX                                                                                                                                                                                                                                                                                                                                                                                                                                                                                                                                                                                                                                                                                                                                                                                                                                                  <X4.( G D T ) R ) $.%.%.%.%.S.;.;.K.S.Z.Z.&.&.#XmXvXvXlXcXcXxX                  ",
"                    xXAXAXAXZXMXsXJ.[.P.R.W.Q.E.Q.Q.=XXX XE.P..XP.E..X XQ.W.R.Y.F.n.b.b.B.B.C.(.#X                                                                                                                                                                                                                                                                                                                                                                                                                                                                                                                                                                                                                                                                                                                                                                                                                                  7.' H A D S T P P Y ~ R ~ %. .l. .%.%.%.%.Z.V.Z.Z.&.;.;XnXmXmXvXzXcXFX                  ",
"                    xXZXAXAXZXSXdX`.[.P.R.W.Q.R.Q.W.XXXX X.XP..XP.E.E.E.R.W.R.Y.T.F.H.F.D.C.C.A.S.S.S.S.(.#X                                                                                                                                                                                                                                                                                                                                                                                                                                                                                                                                                                                                                                                                                                                                                                                                              9.<.K Z Z A D G T U P P P P I R Y ~ %...l... .%.%.%.Z.Z.V.V.&.;.5XnXnXnXnXmXzXFX                  ",
"                    xXZXAXAXZXSXdX`.[.P.T.R.W.E.R.R.XXXXXX X.X.XE.E.P.R.R.R.Y.U.M.b.b.n.H.D.D.H.D.H.H.B.B.l. .$.:.>.{.2X                                                                                                                                                                                                                                                                                                                                                                                                                                                                                                                                                                                                                                                                                                                                                                                        <X3.K H F G H B G D D A A S P P P I I Y Y Y ~ %.^ j.^  .N.%.V.Z.Z.V.Z.;.;.5XmXnXbXnXMXzXFX                  ",
"                    xXZXCXAXZXSXdX`.[.E.R.R.Q.Q.E.R.XXXXXX X.X%XE.E.F.R.R.R.Y.m.m.m.v.v.v.b.z.z.b.b.b.b.z.z.z.z.l...^ ~ .. .Z.(.5XiX                                                                                                                                                                                                                                                                                                                                                                                                                                                                                                                                                                                                                                                                                                                                                                  4X3.' J ' H H D T D C S P S P P P P P I I I Y I x I x Y  .! ! ! ^ %.N.V.Z.V.V.Z.;.&.#XmXnXmXnXMXxXxX                  ",
"                    xXZXAXAXZXSXjX[..X.XR.R.Q.Q.Q. X*X=XXXXX X*XR.F.F.m.Y.U.m.M.v.v.v.v.v.b.b.b.k.v.v.v.k.k.a.a.k.k.a.a.a.d.d.d.Q Q ~ &./.+X5X                                                                                                                                                                                                                                                                                                                                                                                                                                                                                                                                                                                                                                                                                                                                              4X0.3.' F K G G G D T E P P P P P P P P Y I P z z z Y Y Y x x x W ..! ! ! ^ l.N.V.V.V.V.Z.;.=.5XnXnXmXnXMXxXFX                  ",
"                    xXAXAXAXZXSXjX`.[.E.E.W.Q.Q. XXX>X=XXX=X X*XR.Y.n.M.m.m.M.v.v.v.v.f.v.f.f.y.k.k.k.a.a.a.k.k.a.a.a.d.g.g.g.a.k.p.d.l.s.! Q  .~ &./.#X                    }.'.].[.[.P.P.D.D.I.n.n.D.D.D.D.D.D.z.c.V.%.%.%.| $.$.$.$.| $.R R R R R R R { R R o.R T o.o.o.*.o.o.o.o.o.o.*.-.o.-.;.>.5.5./.5.5./.5././././._._./._._._._._._.5.5.5.5.5.5.5.5.5.5.5._.5.5._._._.5.{.{._.{.{._._.5.7.{.6.6.6.6.6.6.{.{.7.6.{.{.6.{.OX{.OX{.6.6.{.6.{.{.{.{.{.{.{.{.OXOXOXOXOXOXOXOXOXOXOXOXOXOXOXOXOXOXOXOXOXOXOX                                                                                                                                                                                          2X          2X2X2X2X2X2X                  2X2X    2X2X2X    6X6XwX6XwXwXwX6XwX6X6XwX6XwXwXwXeXwXwXeXeX                                                                    qX9.,.J G G G D G G G S S S P P P Y P z z I Q Y I P z z x I Y Y Y x x x b W ..! m ! ! l.N.N.V.V.V.S.&.;.5XVXnXnXnXMXxXFX                  ",
"                    xXMXVXAXZXSXjX`.[..X X XXXXX X=X>X=XXXXX=X>XQ.Y.m.m.m.m.M.v.v.i.i.y.i.f.i.a.a.p.a.a.a.a.a.a.a.a.a.t.a.a.g.f.y.y.y.k.k.k.d.l.c.l...^ ^ V.J.).2X        dXoX[..X.XT.W.W.Y.Y.T.U.U.U.U.U.M.M.m.m.b.b.k.z.z.l.l.....^ ^ ^ Q Q ^ Q W W W b b I I Q I Q Q W Q W I W I I x I W x Q x x b Q ^ ^ ^ ! ^ ^ ^ ^ ! ! ! Q Q Q W W Q Q W Q I I Y Y Y Y Y Y I R I I ~ Y Y Y Y Y I Y ~ Y ~ Y Y Y Y Y Y Y Y Y R R P P Y P P P U P Y Y Y Y Y Y Y Y Y U Y Y P Y P P P P P Y Y Y Y P P U P P P P z P P U U Y Y Y Y Y Y P z z z P P P z Y z Y U U z U Y Y Y I I Y I I I I I I I Y z P P P U Y Y Y P Y Y P P P Y R R R R R R Y P P P z U z P P P P P P P P P z P P z z z z z z z z z P z z P P P P P P z P P z P z P P P P P P P P P U z z P z U U P Y P z U U P P P P P P U Y Y Y Y Y R Y R ~ ~ ~ ~ ~ ^ ~  .%.^ V.V.V.A.A.A.A.L.L.L.P.[.L.[.oXoX].A.].5X:X;X5X5XwX          <X3.J J H D T T T T S E S P S A P T P P Y Y I Y Q I z I I x x x x x x x W x x x W ~ ..m p.m ! l.V.V.V.Z.Z.S.&.;.5XSXnXnXnXMXxXUX                  ",
"                    xXZXAXCXZXMXjX`.[..XW. X=X=X=XXX>X>XXX=X X>XW.Y.m.m.m.m.M.v.v.v.i.i.i.i.i.u.a.a.a.a.a.a.a.a.a.a.a.a.a.a.a.a.y.y.v.k.k.a.k.k.k.z.z.z.z.z.c.c.l.B.A.`.].-X:X,X:X&X.X.X XE.Y.F.U.m.m.m.m.Y.F.n.m.b.z.z.z.l.l.l...! ! Q b b b b b b W b b b b W x I Y Y I I I Y I I I I I I I x x c b b ! ! ! ! ! ! ! ! ! ! ! ! ! Q Q W W W Q Q W W Q W W W Q Q Q ~ Q ~ Q Q Q W Q W Q W Q Y W I I Y Y Y Y x z x x z x I Y Y I x Y Y Y Y Y Y Y I Y Y I I I I I P I I I I Y Y Y Y Y Y I P P P Y Y P Y Y P P Y Y Y Y Y Y Y Y Y Y I Y Q Q Y Y Y Y Y Y Y W I I W I I I W Q Q Q Q Y I I I I Y Y Y Y Y I Y Y Y Y Y Y ~ ~ | | | ~ Y I I I I I I I I I I I I I I I x I I I P P P P P P P P P P P P P P I P I I I I I I I Y Y I I I I I I I x I I I x I I I Y I x x x I x x x x x x Y Y Y I Y Y Q ~ ~ ~ ~ ^ ^ ....l.l.z.c.c.C.C.x.D.D.H.H.P.P.P.E..X.X.X.XC.].7XrXrXtXrX5X#X{.,.( J G E T T T T U P P P P P P P P P P U Y Y I P I I I x x Y Y Y Y x x x x x x l x Q Q ! ^ p.p.p.! l.V.V.V.V.Z.S.;.=.5XSXnXnXnXMXzXUX                  ",
"                    xXZXAXCXZXMXjX`.[..X X X X=X=X=X>X=XXX=XQ.=XT.Y.U.m.m.m.v.v.v.v.~.i.i.i.i.y.y.a.a.a.a.a.a.a.a.a.a.a.p.a.k.k.v.v.v.v.v.b.v.b.n.n.n.n.n.x.x.n.F.F.F.H.G.G.C.C.].[.[.[..X X%X*XE.E.P.F.D.D.n.b.b.d.d.d.d.! ! ^ Q W W b W I x x x x I x x z x x x z z z z z z z x x x x x z z x x x x x b W ! ^ ^ ^ ! ! ! ! ! ! Q b b b x b b b W W b b b x x x Y Y Y Y Y Y W W Y Y x x x x x x x x x x x z z z z z z x x x x x I I I I I I I I I I I I I I I z I x I x I I I I I I I I I I I I z z I z z I I Y I Y Q Y I W Q Y x W W x x Y W I W W W W W W W W W W Q Q Q W W W x x x x I I W W x I I I I I Q Q ~ ^  .^ ~ Q W I x x x x x x x x I I I I I I I I x z z z z z I I x z x z x z x x x x I I I I I I W I I I x x I I I x x Y x x x x x b x x x b W I x x x x x W W b x W W W b W W M ^ ^ ! ! s.j.j.l.z.z.n.n.F.F.F.F.I.P.P.E. X*X>X>X,X7X7X:X).Z.~ P R E D E T R R R R Y Y Y P P P P I Y Y P Y U U Y P P P P Y Y Y P z z z z z z x x I I W W Q ! ! s.r.p.p.! c.V.S.V.V.V.V.&.=.5XSXnXmXnXMXzXUX                  ",
"                    xXZXAXCXZXZXdX`.[.E. X X X=X%X=X>XXXXX=X XXXR.Y.U.m.M.v.v.f.v.v.f.i.i.i.i.y.y.t.t.t.a.a.a.a.a.a.a.k.k.k.b.n.m.m.F.F.F.F.F.F.P.I.I.I.I.G.I.I.I.I.I.I.I.L.L.L.L.L.L.L.L.I.].&X:X:X%X].[.G.D.D.z.z.d.d.s.! m ! W W W I I I I I I P P P P P P z I z z z x x z z z z z z z z z z z z z z z z z I z z z z z z z x x x z z z z k k z z z z z k k k z z z z z z z x z z z z z z z z z I I I I I I I x x x k k k k x x x x x x x x x x z x x x x x x z z l k k k k k z z k z k k k k z z x z k k x x I W W W W W W W b W Q b b W W W b W Q Q M / / / / Q Q Q W Q Q Q b b b x x b b b x x b b x x b W b W Q W b b b b b b b x x x x x x c x x x c x j x z x z x z x z z z x z x z x z k x x W W W W W Q Q W W W W W W c c x b x c c x x x x x x x b x x x x x x x W b W W W W b W Q Q Q Q Q ! ^ j.l.l.z.z.n.D.F.F.I.P..X&X>X,X,X>X%X.XA. ._ ~ R E E T T T R R R E P U Y Y U U U U U P Y Y Y Y Y Y Y Y Y U U U U z z z z z z z z z x I I W W W ! ! ! l.n p.p.! c.V.S.S.V.V.V.V.=.5XnXnXvXnXMXzXUX                  ",
"                    xXZXAXCXZXSXdX[.|.P. X X X=X X=X=X=XXX=X X=XR.Y.Y.m.m.v.v.v.f.f.f.i.i.i.i.y.y.y.y.a.a.a.a.a.k.k.k.v.v.n.D.F.E.E..XE..XE.E.E..XE.P.P.P.P.P.P.L.L.L.L.P.P.P.[.P.P.L.L.G.C.L.L.L.`.`.[.[.[..X&Xc.l.j.s.p.! ! ! Q ~ W Y Y Y Y Y E E E E P P P P P z z z z z z z z z z z z z z z P S P S S d d d d d d d S S d S z z P P P P P P P P P P P P P P P z P P P z P z P z P P P P P P S S P P P P P P P P P P P S P P P z z z P z P z P z P z P z P z P P P P P z P P P z P z P z P P P P P P P z P Y R Y Y Y Y Y Y Y I Y Y Y I I I x Y Y Q I I W W W Q Q W W I I Y Y Q Y I I x x I I I I I I I x I I I Y Y Y I I I Y Q Y Y Y I Y Y Y W Y I I I Y I I z z P z z z z z z z z z z z z z k z P x I x I x z z z z k z k z x z z x x z z x z x x z z x z z z I I P P I I I I I I I I I Y Q Q Q Q Q ^ .. ...l.c.z.D.P.%X>X>X,X:X.XG.B.d.d.l.C.Q ~ R R T T ) R R R Y P P Y R R Y Y Y U U Y Y Y ~ Y Y Y Y Y Y Y Y Y Y U z z z I I I I I I I I W Q W / ! ! ! l.r.r.p.! c.V.S.V.V.V.V.V.&.5XnXnXmXnXnXzXUX                  ",
"                    xXZXAXDXZXSXdX[.[.P. X X X=X X%X=X>X=X=X X=XR.R.Y.U.m.m.m.m.v.v.v.v.f.a.y.y.f.f.f.v.v.v.v.v.v.v.v.b.n.D.I.P.[..X.X.X.X.X.XE..X.X.X.X.XE..X.X[.[.[.`.L.G.G.G.[.P.[.L.I.L.L.L.L.L.G.C.C.N.l.l.^ Q M M M b m Q x x I I Y Y Y Y z z z d d d a a S S P S S S S S S S S S S S S C A C A A A A A p A A A A A A A A A a A A A A A A A A S A A S S S D D D D D D S D S D S D D S D D D D D D D G D G A A D G D A D D D D D D D D D A D H D A D A D D D D D D D D D G D A D A D G D G D D A D D D D D D D S S S S E E E T T T G D D A S S S S S E E P E E E P S S E E S S S D D D S S S S S S S S S S S S S S P S P U T T T S P S P G T T T T T S T T D D D D D D D D D D D D D D D A S S S S S A S S D S D S D S D D S D A A D D D D D D D D D D D D S S S S S S S S P P P P P T T R R R R R _ | ~ ~ ^  .N.N.A.L.L.C.m m ! p.p.p.j.x.c.W Y Y U U P T P P Y Y Y Y Y Y R Y Y Y Y Y Y Y Y Q Q Q Q Q Q Y Y Y Y Y Y Y Y Y x x x x I I W Q Q Q W / ! ! ! j.p.p.p.s.l.N.V.V.V.V.V.S.%.7XnXnXbXnXmXcXUX                  ",
"                    xXZXAXDXZXSXdX`.[.P..X X X=X X=X>X8X*X=X X=XR.R.R.Y.Y.U.Y.Y.U.m.m.M.b.v.v.v.v.v.b.b.m.m.H.H.H.H.H.H.H.I.I.P.[.[.[.[..X.XE.E.E.E..XE..XE.E.E.[.[.[.[.[.[.[.[.G.G.D.G.D.C.x.x.D.z.z.l.l...^ ~ z z k k z z P P z z P P P z d d p p u w w w w w y t B B B t B B B t B t t t t t t y e e e e e e e e q e e e q q e q q q q q q e q q e e e e e e e q q e e q q e q q q q q q q q e q q q e e e e : q q e e e e r e e e e r r e e e e e e e e e e : e e e e e e e e e e e e r e r r r r r V t t t B y r t t t t t B B B A B V r r r t t t B C C B B B B B t t t B t t t V V V V V t t B B B B B B B B B B B B B B B B B B B B B B B B B B B t t B V V B Z B Z B B B Z B Z V t V t B Z B V V t V V V t V V V t V t B t r r V V V V r V V V V V Z V B Z Z B B Z B B A A A A A A A A S S S S E E E E ~ ~ ~ Q ~ ^ ~ b M n m t.t.t.k.D.l.M Y Y U Y U U Y Y Y Y Y Y Y Y Y Y Y Y Y Y Y Y Y Q Q Q Q Q Q Q Q Q Y W Y Q Y Y W W W W W W Q ! ^ ^ / ! p.p.p.s.p.d.s.s.l.N.V.V.V.V.S.V.%.5XnXnXnXnXmXcXUX                  ",
"                    xXZXAXDXZXSXdX`.[..XE.E. X%X%X*X*X8X*X=X=X=XE.R.R.Y.Y.Y.T.T.Y.Y.Y.F.F.F.F.n.n.n.n.H.F.F.P.E.P.P.P.P.P.P.P.P.P.P.P.E.E.E.P.P.P.P.P.H.H.H.H.F.F.F.F.F.H.H.H.H.G.H.n.n.n.b.b.b.d.a.a.j.l... .%.R R T T ( ( O.( ( X.X.( ( G G G J F H A Z Z Z Z V t V t V t V B V V V t V V B Z Z A B V V r r r t r r r r r r e r r r e e r r r r r r r r r r r V r r r r r r V r r r r r r r r e : : : e e e : r e : e e e e e e e : : e e e e : : : : : : : : r r r r r e e r e e e : : : : : e r r r r r r e t q q y t y y q q q e e e : : : e e e e t B B t t t r e q : q q : : q q : : : : q q q q q q q q e r e r y r q q q q q q q q q q q q q r q y q q q q q q q q q q q q q q q > q q e q e q q q q q e r r r r e q q : : : : : : : e : e e : e r r r e r e e e e e e e e e q q e e e t t B A A A S S S S P Y Y Y Y Q M N v n r.r.a.a.l.M x x z z a P P I I z z I Y R Y Y W W W W Y W Y Y Y Y Y Y W W W W W W W W W b / / W W W Q ! ! ^ ! ! ! ! m m p.p.d.d.s.l.N.N.V.V.V.V.V.%.5XnXnXnXnXmXcXUX                  ",
"                    xXZXAXbXZXSXfXA.[..XP.E. X X X=X=X*X=X*X=X XR.E.R.R.R.W.T.Y.R.R.R.R.R.Q.E.I.E.P.F.F.F.F.P.P..XE.[.P.P.P.[.P.P.I.P.E.E.E.P.I.I.I.D.x.z.z.z.z.v.b.v.b.v.b.z.b.z.k.k.k.g.g.g.b.f.d.k.z.l.l.V.Z.                                                                                                                                                                                                                                                                                                                                                                                                                              3.6.6.6.                          3.3.3.3.3.3.6.6.3.3.3.                                                                                                                  _.*.Y W m v v n r.u.t.a.s.j h l z k a P z z I z z z x x I I I W W W W Y Y I I Y Y Y W W x x b W W Q Q Q ! / / M M b M W ! ! m m m m n t.p.j.j.s.l.N.N.V.C.V.V.V.$.5XnXmXmXmXmXcXFX                  ",
"                    CXAXMXCXMXSXjX(.L.[..X X.X XQ. X=X=X=X=X=XQ.E.E.E.E.R.R.R.R.R.R.R.R.R.R.E.E.E.R.F.F.R.F.F.F.F.F.F.P.E.E.P.F.F.m.m.m.F.F.F.F.b.b.b.v.k.k.k.k.a.d.k.k.k.k.k.b.k.k.k.k.k.d.d.k.k.y.a.k.d.c..._.                                                                                                                                                                                                                                                                                                                                                                                                                                                                                                                                                                                                          @.R Q W M n r.r.u.t.k.p.j j k k k k i k z z z k x x x x x x I I I I I x x x x I I I I x I W W W W W W / M M M M n ! ! ! ! n n m ! p.d.p.d.p.s.l.c.c.c.B.N.S.V.;.5XnXvXzXbXbXxXGX                  ",
"                    CXVXVXCXMXSXhX'.[.[..X X X%XQ. XXX=X=XXXXXQ.R.R.W.T.R.R.R.R.R.Y.Y.R.R.R.R.Y.R.T.F.F.F.F.H.n.n.n.n.n.H.H.H.n.m.b.v.v.v.v.v.f.f.v.v.a.a.a.a.a.a.a.a.a.a.a.k.k.a.a.a.a.a.y.a.a.k.t.a.a.a.z.l._.                                                                                                                                                                                                                                                                                                                                                                                                                                                                                                                                                                                                          6.$.^ Q ! m r.u.r.t.k.j.j j x k z k k z z z z k x x l x x x x x x x x x z x x x x x x x x x b W b W W n n n n n n n n v n n ! p.p.p.p.d.j.! p.l.l.l.c.c.l.N.V.;.5XnXmXbXmXbXzXGX                  ",
"                    CXZXVXVXMXSXjX`.`.[.E.Q.Q.Q.Q.Q.XXXXXX=X!.W.Y.Y.T.T.R.Y.Y.Y.Y.Y.U.Y.U.U.m.m.m.m.M.b.m.m.m.b.b.b.v.v.v.d.f.a.v.v.v.v.v.v.v.v.a.f.a.a.y.y.y.t.a.a.a.a.a.a.y.a.t.u.r.u.t.u.t.t.y.t.a.a.a.z.l.).                                                                                                                                                                                                                                                                                                                                                                                                                                                                                                                                                                                                          6.$.^ ^ ! ! d.a.a.a.z.j.b x I x I x k z z z k l x x x x x x x x x z k k h x x x x x c x c x b b b b M n n n n n n n n v n m r.t.t.r.r.p.j.p.! l.l.l.c.c.l.l.N.%.5XnXnXmXnXMXxXGX                  ",
"                    CXZXVXAXMXSXfX(.G.[.E.W.R.Q.R.Q.Q.XXXXXX!.W.Y.Y.Y.Y.Y.Y.Y.Y.Y.U.m.m.m.m.m.m.M.v.v.v.v.v.v.v.b.v.v.k.a.y.y.y.y.y.y.y.a.a.a.y.a.a.a.a.y.y.t.t.t.t.t.t.u.t.t.a.r.r.r.r.r.e.r.t.y.t.a.a.d.z.l._.                                                                                                                                                                                                                                                                                                                                                                                                                                                                                                                                                                                                          6.&. . ...s.j.a.a.k.z.z.b I Y I Y I I z z k z x I x x x x x x x x z k x c c x x x b b c c b b c b b M n v v n n n n r.r.r.r.r.t.t.t.r.a.p.p.! j.l.l.l.c.l.l.N.%.#XnXnXvXnXMXxXGX                  ",
"                    CXZXAXAXMXSXdX(.G.P.E.W.R.Q.E.W.!.!.XXXX!.R.U.U.U.U.U.U.U.Y.Y.U.m.M.M.M.M.M.M.M.v.~.~.y.a.~.a.y.y.y.y.y.y.y.y.y.y.y.y.y.u.u.y.y.y.y.y.y.y.y.u.u.u.u.u.u.y.y.t.u.u.u.e.e.e.t.t.t.a.a.a.z.l._.                                                                                                                                                                                                                                                                                                                                                                                                                                                                                                                                                                                                          6.:.%.^ ^ ! s.d.p.k.z.c.Q Q ~ Y Q W I I I x x x x x x b b W W Y x I x b b b b b b M M b b b b b M M M m n n n m m n n n n n n e.r.r.r.r.r.p.! j.s.s.j.l.l... . .#XnXnXmXmXMXxXGX                  ",
"                    CXSXAXAXMXSXhX[.G.P.T.R.E.E.R.R.W.!.!.!.R.R.U.U.m.m.m.m.m.m.m.m.M.M.M.M.M.M.M.M.~.~.~.y.y.y.y.y.y.y.y.y.y.y.y.y.y.y.y.y.y.y.u.u.u.u.u.y.t.t.u.u.u.u.u.u.u.y.y.y.u.u.u.e.u.t.t.r.y.a.a.z.l._.                                                                                                                                                                                                                                                                                                                                                                                                                                                                                                                                                                                                          6.$.%.~ ~ ^ s.d.p.k.c.C.Q Q Q I I I I I x x x x x x W Q Q W W W W Q W b b b b b b b b b b M M M M ! ! ! ! m m m m n n n n n n r.r.r.n n r.r.p.s.s.! p.s.! !  .| #XnXnXnXmXxXxXJX                  ",
"                    CXZXVXVXnXSXjX`.D.F.Y.R.R.Y.U.Y.W.W.W.T.Y.U.m.m.m.m.M.M.M.M.M.M.M.v.v.v.v.v.v.~.~.i.i.i.y.~.y.y.i.y.y.y.y.y.y.y.y.y.y.y.y.y.y.y.y.u.u.u.u.u.u.u.u.u.u.e.u.u.y.u.u.t.u.u.u.t.r.e.y.k.a.z.l./.                                                                                                                                                                                                                                                                                                                                                                                                                                                                                                                                                                                                          6.&.%. .| ^ l.s.s.l.c.c.W W Q I I x x I x x I x x b Q Q Q W W W W W W b M M b b b b M b b M M M M ! ! ! ! ! ! m m ! ! n n n ! ! ! m n n r.r.m ! ! m ! ! m ^ ..~ @XnXnXnXVXMXxXJX                  ",
"                    CXVXDXDXnXSXdXJ.D.F.Y.T.Y.U.m.U.T.T.T.T.Y.U.m.m.m.m.M.b.v.v.v.v.v.v.v.v.k.a.f.f.f.y.y.y.y.y.y.y.y.y.y.y.y.y.y.y.y.y.y.y.y.y.y.y.y.y.y.y.y.y.u.u.u.u.r.e.e.e.u.u.u.u.u.u.u.t.r.e.y.k.k.z.l./.                                                                                                                                                                                                                                                                                                                                                                                                                                                                                                                                                                                                          6.$. .$.|  ...s.! j.z.V.W Q Q I Y I I W I I W I x b Q Q W W b W W I W x c b b Q M b b b M Q M W M W Q ! Q / Q / ! ! ! ! ! ! ! ! ! ! m m r.n n m m m m m m ! ^ ~ @XnXnXnXSXZXxXGX                  ",
"                    CXnXDXDXnXnXdXJ.G.F.T.Y.Y.U.U.U.Y.T.T.T.U.m.m.b.b.a.v.m.v.v.M.v.v.v.v.f.f.v.f.a.y.a.a.y.y.t.y.y.y.y.y.y.y.y.y.y.y.y.y.y.y.y.y.y.y.u.y.t.y.y.u.u.u.u.u.u.u.u.e.e.e.u.e.e.t.e.r.r.t.a.a.z.! /.                                                                                                                                                                                                                                                                                                                                                                                                                                                                                                                                                                                                          6.$.%.| | ^ ^ s.s.l.l...W Q Q Y Q I I Q Q I Q W W Q Q Q Q Q Q W W Q Q W W W W W W W W W b W b W W W b / ! / W ! s.! s.! s.m s.m ! ! m m r.p.m n m n ! ! ! ! ..~ @XmXnXnXVXAXMXGX                  ",
"                    CXnXVXDXnXnXdXA.H.F.T.Y.R.U.U.U.T.W.W.T.Y.U.n.v.m.v.a.v.f.M.v.v.v.v.v.v.i.y.a.y.y.t.t.t.t.t.a.a.a.y.u.u.u.t.t.y.t.t.u.u.y.y.y.y.y.y.y.y.y.y.y.u.u.u.u.u.u.u.u.e.u.u.e.t.t.e.e.e.t.p.a.z.l._.                                                                                                                                                                                                                                                                                                                                                                                                                                                                                                                                                                                                          6.$.%.| | ~ ^ ! ! s.l. .W ~ Q Q Q W Q Q I I Q W W Q Q Q Q Q Q Q Q Q Q W W W W W W W W W W W x x W Q ^ ! s.l.s.s.s.m m p.m ! p.n m d.p.n r.p.m n m m p.p.! ! ..~ $XvXvXmXVXZXCXGX                  ",
"                    CXnXDXDXnXnXdXA.G.F.R.R.E.E.R.R.W.!.!.W.R.R.F.z.b.D.n.b.v.v.f.f.f.f.f.f.f.f.d.a.p.r.r.r.r.r.t.t.t.t.r.r.r.r.e.e.e.e.u.u.u.y.y.y.y.y.y.y.y.y.y.u.u.u.t.t.t.u.t.e.e.e.r.t.t.r.e.r.y.p.p.z.l.).                                                                                                                                                                                                                                                                                                                                                                                                                                                                                                                                                                                                          6.$. .| | ~ ^ ! ! s.l.l.W ~ ~ Q ~ Q Q Q W W Q W W Q Q ! ! ^ ^ Q Q W W W W Q Q W I I W x I Q Q W I Q Q m p.n n r.p.d.z.d.m d.j.n n p.r.r.r.d.p./ ! m s.j.! ! ..| @XvXvXnXnXZXCXGX                  ",
"                    CXnXDXDXnXSXdXJ.L.P.E.W.Q.Q.Q.Q.!.!.XXXXW.E..XG.B.d.a.k.b.d.M.M.v.f.f.a.a.a.a.p.p.a.a.r.r.n r.r.r.r.r.r.r.r.v v v e.u.u.u.u.u.u.u.u.u.t.y.y.y.u.u.u.y.y.t.t.t.e.e.e.u.t.y.t.t.t.y.a.p.z.j._.                                                                                                                                                                                                                                                                                                                                                                                                                                                                                                                                                                                                          6.|  .| ~ ~ ^ ! s.l.c.l.~ ~ Y Q Q W Q Q Q Q Q Q Q Q Q ! ! ! ! Q Q W W I I I I I I I W I W Q Q Q I Q Q ! p.n n p.p.m m j.! j.p.s.j.s.p.n r.j.p.! ! ! s.j.! ^ ..| @XnXnXDXVXVXCXJX                  ",
"                    CXnXDXbXnXnXsXJ.L.P.W.Q. X%X=X=XXXXXXX=XQ.P.A.-X:XoXG.B.z.d.a.d.a.a.a.k.d.a.a.p.p.p.p.n v v n n r.r.r.r.v v v v v r.u.r.e.e.u.u.u.u.u.e.e.e.u.t.u.y.y.y.t.u.y.e.r.r.r.t.a.t.y.t.t.a.p.z.! /.                                                                                                                                                                                                                                                                                                                                                                                                                                                                                                                                                                                                          6.|  .~ ~ ^ ..l.j.l.c.N.~ Q Y Y Q W W Q Q W Q Q Q ! ! ! ! Q Q Q b W x x x W W W W W W ~ W W W W W W ^ m m m m ! ! ! ..^ ....Q !  .Q s.m p.d.s.! ! ! s.j.! ^ ..~ @XnXSXVXVXZXCXGX                  ",
"                    MXnXDXnXnXnXsXJ.`.P. X X X%X*X=XXXXXXX=X XI.5 ).eXsXtXtXtX7X%X&XL.z.s.s.s.s.d.d.s.p.! n n n n m r.p.r.r.r.n v v v t.t.u.e.e.u.e.e.e.e.e.e.e.u.u.u.u.u.u.t.r.t.u.r.r.r.r.t.r.t.t.t.a.p.z.! /.                                                                                                                                                                                                                                                                                                                                                                                                                                                                                                                                                                                                          6.$.^ Q ~ ^ ..j.j.l.c.V.~ Q Y Y Q W W W I W Q ^ ^ ! ^ ! ! ! Q Q M W W W W Q Q Q Q Q ~ ! Q Q Q Q b b W ^  . .....~ ~ %.Z.(.$X7XsXdX).l ! ! l.s.! ! ! ! ! ^ ^ ^ ~ @XnXSXVXZXSXCXGX                  ",
"                    MXnXDXDXnXnXdX(.[..X X X=X=X>X=X*X=XXX=X XC.3 @.-.R $./.:X7XrXtXuXuXtX7X].V.s.p.p.p.! n M n n n n n m r.r.m r.n r.t.a.t.r.r.u.e.e.e.v v v v e.e.u.u.u.u.r.r.r.r.r.r.n r.t.t.r.r.t.a.p.z.! /.                                                                                                                                                                                                                                                                                                                                                                                                                                                                                                                                                                                                          6.$.~ W Q ^ j.j.j.l.c.V.~ Q Y Y Q W W W I I Q ^ ^ ^ ^ ! ! ! Q Q Q Q b Q Q ! Q ! Q ! ! ! M Q ^ ^ Q ! ..~ ~ $.;._.#XrXsXhXhXhXfXwXwX+.3 ^ p.s.s.s.s.! ! ! ! Q ~ ~ @XnXSXVXSXZXCXGX                  ",
"                    ZXnXnXbXnXnXjX[.]..X%X=X=X*X>X%X>X>XXX=X XC.4 @.1.X.o.R R R R | $.;.$X5XrXrX7X,X,X-X].C. .^ Q M n v n n n n p.n n p.a.a.r.t.u.u.e.e.e.e.e.e.e.e.e.e.e.e.e.v v v r.r.v r.a.t.e.u.y.a.p.z.! /.                                                                                                                                                                                                                                                                                                                                                                                                                                                                                                                                                                                                          4.| | Q Q ^ j.l.j.l.z.V.~ Q Q W ~ W W W b W Q ^ ! ! ! ! ! Q Q W W M M Q Q Q Q Q Q Q Q ~ Q Q Q ~  .J.$X5XwXiXgXgXiX2XOX5.+.( ( B 6.X.w ^ p.l.s.s.l.! ! ^ ! Q ~ ~ #XVXSXSXZXAXCXHX                  ",
"                    CXnXnXnXnXnXhX`.oXoXXX*X*X%X>X*X=X>X=X X.XC.3 @.X.( T T T o.X.} } T P P P P R &.).$X#XwXeXrX5X&.M N N n b / n M n ! l.d.d.a.a.y.u.u.u.u.u.e.e.e.v v e.e.v n n v n n r.u.a.a.u.y.a.a.a.j.! _.                                                                                                                                                                                                                                                                                                                                                                                                                                                                                                                                                                                                          4.$.%.~ ^ ! ! ! j.j.z.c.m M b b Q W W M b b Q ! ! m ! m M Q ~ Q W M M M Q W Y ~ W Q | 5._.+X2XwXwXeXeX#XOX6.@.J A A A C C D C t 4.J w ^ p.s.l...^ ^  .^ l.^ ..~ ;XVXZXZXZXZXCXHX                  ",
"                    CXnXbXbXnXnXhX`.oX%X%X*X*X*X*X*X*X>X*XXX XG.3 o.-.) ) ) ) E T T G G G P E E T S P o.o.D E 2.OX;...m n m W x b b M ..^ W / N n v e.e.e.u.u.u.y.u.e.v e.v v n n v n n r.r.r.t.t.y.a.a.a.k.! (.                                                                                                                                                                                                                                                                                                                                                                                                                                                                                                                                                                                                          4.$.| ~ ^ ! ! ^ j.d.z.l.m ! ^ ....Q Q b c x b Q m m ! ! b Y R R Y M M ! ! ~ Y Y Y ~ $.wX2X2XOX3.O.S C A A A A Z t t p A S C C p 5.( u ..p.s.l.^ ^ ^  . .N.^  .| 5XVXAXVXZXZXCXHX                  ",
"                    MXnXbXbXnXnXjX`.&X%X%X*X*X*X=X=X>X>X*XXX XD.5 R ;.~ I W I k Y U P d d P U U S T P a T X.E C T | Q M n m ! x b M Q N.^ W A. .! n n v v v v v v v v r.t.t.r.n v v n m r.v v r.t.y.a.a.a.a.! /.                                                                                                                                                                                                                                                                                                                                                                                                                                                                                                                                                                                                          4.o.| ~ | ^ ^ ....d.l.c...l.s.Q Q W W W W W ~ ^ ! ! ! W Y R *.$.~ ..! ! ^ ~ Q Q ~ ~ %.X.D C H A g p A t t t g g g A S a a a a S 5.S 0 l.d.s.l.^ ^ ^ l.l.N.^  .$.5XVXAXVXZXZXCXHX                  ",
"                    MXnXbXbXnXnXhX`.-X%X%X*X*X*X*X*X>X>X=X X XD.5 | K.V.^ N.^ S.~ ~ I z d d z P S d P R S t D ( D :.! v n M ! x b b x  .I k '.S.A.V.l.^ ! Q W W p.r.v v v e.n n r.v n m r.v v r.e.y.a.a.a.d.m /.                                                                                                                                                                                                                                                                                                                                                                                                                                                                                                                                                                                                          ,.o.| | | ^ ^ ..! s.z.C.~ W W Q  .^ ! ^ ! Y Y Y ~  .%.K.+X2X2X5.z Q ! ^ s...| ..| ^ &.A p t B B g u u D A f f p f f d P R R $.:.$XS 0 l.j.l.l. .^  .l.l.N.l.%.%.5XVXAXZXZXZXCXHX                  ",
"                    MXnXbXbXnXnXhX`.-X%XXX*X*X*X*X>X>X>X=X X XD.4 &.).K.A.J.N.A.J.A.V.%.| | ~ R R U d u 2 X.{.( G ;.! v n N W x c b x %.z 8 /.R P z P P R $.=.S.V.N.l.s.d.d.s.p.r.n n m n v v v e.y.y.t.a.d.! /.                                                                                                                                                                                                                                                                                                                                                                                                                                                                                                                                                                                                          ,.) | ~ | ^ ^ ..! s.z.N... .^ ~ ~ Q W ^ =.^.{.+X#X#X2XOXOX7.6.D u  .N.s.l... . . . .&.E G ( G t f d i s a ` Y { $.$.&.%.S.S.K./.+XP s l.z.l.l.l. . .l.N.C.N.V.%.5XnXVXZXSXZXCXHX                  ",
"                    CXnXbXDXnXnXhX`.-X%X%X*X*X*X*X>X*X*X=X%X XL.4 o.5.Y &.Z.(.J.Z.S.S.S.S.S.%.%.;.:.R w o q 6.( D | b v n N W W b W Y %.d 8 5.G S S A a a a S ` Y Y |  .l.l.s.^ / / / m m v v v e.y.y.a.a.z.! _.                                                                                                                                                                                                                                                                                                                                                                                                                                                                                                                                                                                                          @.R ~ ~ ~ ! ! ! ! s.c.&.| ~ ~ $./.@X;X#X#X+XOX6.@.T S S A r J D a N./ s.l... .l... .%.p G X.G $ y P Q S.S.Z.Z.Z.Z.V.%.V.Z.&.&.&.).d 0 l.z.z.l.l.l.l.N.N.C.S.V.%.5XnXVXZXSXZXCXHX                  ",
"                    CXnXbXDXnXnXhX`.-X%X*X>X*X*X*X>X*X>X*X=X XC.w @.-.o.S T T P *.*.*.;.^.^.^.Z.;.R z 8 X y 6.( T $.! n m M W b b b I | a 8 6.X.o.o.T T T P E P S S d d z x x x W W I Q ! r.e.e.e.t.y.a.a.z.! _.                                                                                                                                                                                                                                                                                                                                                                                                                                                                                                                                                                                                          @.R ~ Q ! / p.! m s.c.Z.| $.;.{.#X).5.o.X.G H Z Z A A g F Z #.S u S.s.s.s.....l...^ %.S ( @.T o $ P ~ N.N.N.N.V.Z.V.N. .%.~ | $.).P i l.k.l.l.l.l.N.C.C.A.V.Z.%.5XnXZXZXZXZXCXHX                  ",
"                    CXnXbXDXnXnXhX`.&X*X>X>X>X*X*X*X>X>X*X=X.XN.3 @.{.eX{.{.5.4.T T E E T ) ) ) $.~ I u X q 4.+.T | ! v n M W W M b Q | d w 5.G G G T R R $._ $.} T T U U z z d P k z I ! r.e.e.e.u.y.a.a.z.! _.                                                                                                                                                                                                                                                                                                                                                                                                                                                                                                                                                                                                          @.R ~ Q ! / p.p.m s.N.&.o.o.X.G [ S D f g Z Z A Z g f f A V O.P i C.d.d.j.j.j.l.l. .%.S G +.( o $ Y ~ _ %.%._ _  .~ ~ I I P R { ).T s l.j.l.l...l.V.A.A.G.V.Z.&.5XVXVXVXAXAXCXHX                  ",
"                    MXmXvXDXVXSXjX'.oX*X*X>X>X*X>X>X>X>X*X X.XA.3 *._.fX2.X.6.6.6.6.6.6.4.+.( D a i z u o t 4.( S ~ ! r.n n ! W M b W Y d 2 6.-.+.o.T R z I Y P E T U R R R } S S S S P C.n r.u.u.u.t.a.a.d.j./.                                                                                                                                                                                                                                                                                                                                                                                                                                                                                                                                                                                                          @.$.~ ~ ^ ! p.! ! s.N.P A A A H A g f g A Z A A A p p p S A +.a k C.p.k.j.l.l.l.l.l.%.a X.+.T X $ x x P S S S U T o.:./._.+X+XeX+XT i B.k.l.l.l.N.C.C.A.A.C.A.%.5XVXVXVXAXZXCXHX                  ",
"                    CXnXvXDXnXVXjX'.oX*X*X>X*X*X>X>X>X>X*X X.XA.3 *._.sX) p o.-.o.o.o.-.4.4.6.6.;.~ Y s o r 4.+.D | ! r.m n ! M ! n Q Y a 8 6.+.>.>.;.K.&.Z.V.%.R R P a i d S g T +.o.R A./ u.e.u.u.u.t.a.d.j./.                                                                                                                                                                                                                                                                                                                                                                                                                                                                                                                                                                                                          @.$.$.~  .! ! ! ! ! %.S t t e r F A S g f f Z A S T R :.-.*.2.` h C.z.z.z.l.l.l.l.s.%.S X.+.G o $ I I } #.5.OX#X#X#X+X+X_.;.-.iX2XT s C.z.l.l.l.N.C.C.A.A.C.A.%.5XnXVXVXVXZXCXHX                  ",
"                    CXVXbXDXnXVXhX'..X*X*X*X*X>X>X>X>X>X*X X.XA.3 2.OXfX) s $.K.)./.^.;.:.o.+.o.&.~ I u o r 4.+.D R ! t.r.n ! / p.n Q I a u /.o.{ $.$.&.&.Z.V.Z.A.|.S.%.W z w O D 6.+.T Z./ a.u.u.u.t.t.a.p.s./.                                                                                                                                                                                                                                                                                                                                                                                                                                                                                                                                                                                                          @.o.~ { | ..! ......%.S H #.A > t p a z U R o.*.&.$.%.%.$.*.:.i i c.x.z.z.z.l.l.l.N.%.P X.@.T o $ W ^ OXOX{.{._.5.>.-.;.o.S S iX2XT a C.z.l.l.l.N.C.A.A.A.A.A.%.5XnXVXVXMXZXCXHX                  ",
"                    CXVXDXDXnXVXkX].oX*X*X>X*X>X*X>X>X>X>X%X.XA.3 4.OXfXR s %.J.A.C.A.A.V.V.>.K.&.V.~ s o t 6.( A R ! a.t.m ! ! m n ! W k u 5.T o.{ { | ~  .| _ ^ h.^ ^ W x 8 o B 6.X.T Z./ t.u.y.t.y.t.p.p.! /.                                                                                                                                                                                                                                                                                                                                                                                                                                                                                                                                                                                                          @.) R { | | Q ......&.S A 1.t o q a | %.&.:.$.=._ _ _ $.$.$.:.k h x.k.z.z.z.l.l.l.N.%.S O.@.( o $ Q S.K.;.;.&.&.&.&.:.*.o.C D sX2XD a C.z.l.l.l.N.C.A.G.L.A.A.%.5XnXnXDXbXCXCXJX                  ",
"                    CXVXDXDXnXSXhX].&X>X*X*X*X>X*X>X>X>X>X%X.XJ.8 4.{.sX{ s  .C.G.D.H.P.C.C.A.A.J.J.~ 0 o r 3.J A R s.t.t.r.! ! p.m ! W k u -.+.o.T o.{ { o.T R _ _ ~ ~ W I w o B 6.( T Z./ u.u.y.u.t.u.a.d.j._.                                                                                                                                                                                                                                                                                                                                                                                                                                                                                                                                                                                                          @.o.R { | | ~ ......V.p V ,.V X t a Y Q ~ ~ ) _ _ _ $.R o.) -.a h c.j.z.z.z.l.z.l.l.%.S X.@.X.X $ ~ B.N.N.N.l.N.N.N.%.Z.$.s T iX2XG a G.z.z.l.l.V.A.A.L.L.A.A.%.5XnXbXbXbXCXCXUX                  ",
"                    CXVXDXDXnXSXhX].oX*XXX*X*X*X*X>X>X>X>X%X.XA.8 4.{.fX{ i N.C.G.H.H.H.H.D.D.G.A.V.x 8 o e ,.J A ~ s.t.t.r.s.! p.m M W z p 5.OX#X6.{.5.1.-.o.X.( ) E P I z w X B 1.G P V.! u.u.u.u.u.u.a.d.l._.                                                                                                                                                                                                                                                                                                                                                                                                                                                                                                                                                                                                          @.) ~ R | ^ ! ! ....V.o.J ,.e o y d I ~ $.$.o.+.) T T ( +.6.4.s 0 c.k.k.k.z.l.z.l.s.%.A X.@.( o $ ^ B.d.d.s.d.d.d.s.N.%.R u T eX#XT a G.z.z.c.N.V.A.A.G.G.A.A.%.5XnXbXnXMXCXCXUX                  ",
"                    CXVXDXVXVXSXjX'.oX%XXX>X*X*X>X>X>X>X>X*X&XJ.3 5.{.fX{ u &.Z.A.D.I.P.H.D.H.G.J.A.I u X r ,.G D | s.t.t.m ! ! m n M W P u 5.wXOXO.4.6.6.7.9.9.6.6.@.} S u 9 X B 1.G S  .t.e.u.u.u.u.u.a.d.j._.                                                                                                                                                                                                                                                                                                                                                                                                                                                                                                                                                                                                          #.R R ~ _ ^ s.p.s.l.V.A G ,.r X y a z U T G ' #.,.3.6.6.6.qX7.A i C.k.z.k.z.l.z.l.N.%.A X.@.X.o $ ^ B.l.j.l.z.z.z.z.l. .| a T iX#XT a L.z.z.z.N.V.A.A.G.L.A.A.%.5XnXnXVXVXMXCXUX                  ",
"                    MXVXDXVXVXSXjX].&X%X.X>X>X*X>X>X>X>X>X>X%X`.7 _.OXgXo.u &.Z.A.D.P.P.H.H.H.G.A.J.I 3 o r 6.G D | s.a.r.n ! ! m m M W z w 4.wX6.A +.4.4.4.4.,.,.6.6.6.-.S q X B 1.X.S ^ t.e.u.u.u.u.u.a.d.s.(.                                                                                                                                                                                                                                                                                                                                                                                                                                                                                                                                                                                                          #.R ~ _ ^ ^ s.p.s.s.V.S G #.e X y z P | :.>.4.6.6.4.,.#.' qX4.C i C.k.z.k.k.z.z.l.l.%.S O.1.( o 4 ! z.l.j.s.d.z.z.z.c...| s d iX#XT a L.z.z.z.c.C.A.A.G.L.G.A.%.;XnXZXZXVXMXCXUX                  ",
"                    CXVXVXVXSXSXjX.X&X.X%X*X*X>X>X>X=X>X>X>X.X`.u 5.OXgX} u %.A.G.G.P.H.H.D.H.G.L.`.I 3 X r 7.D S | ! p.r.m n ! m m M W z u 5.6X6.y R :.&.$.$.$.$.$.&.V.%.Y w o B 4.J S ^ u.u.u.u.t.y.t.a.r.s._.                                                                                                                                                                                                                                                                                                                                                                                                                                                                                                                                                                                                          @.R R ~  ...! ..! s.V.P G @.r o u | N.V.K.Z.;.;.Z.V.%.f G wX4.C a c.k.z.k.z.z.d.s.l.%.P ( 1.( o $ ^ z.l.l.s.l.z.z.z.z.c...u T iX#XU i D.D.k.z.D.C.V.A.J.`.A.A.V.;XVXZXVXbXCXCXGX                  ",
"                    CXnXVXVXSXSXdX[.&X%X*X*X>X>X>X>X*X>X>X>X%X`.7 6.OXgXX.u %.L.H.H.P.P.G.D.G.G.G.L.Q 3 o r 7.G S | ! d.p.r.n ! p.m b W d u /.6X_.u ~  . ...^ ^ | ~ ^ ^ ! I w X B 1.J D s.u.u.u.e.t.y.t.t.n s._.                                                                                                                                                                                                                                                                                                                                                                                                                                                                                                                                                                                                          ,.) R ~ ..........d.S.P D @.y X a  .c.N.N.N.^ ^ l.z.V.P S wX4.C a l.k.z.k.k.z.d.l.l. .P T 1.X.o $ ^ z.l.l...l.N.z.k.z.l...s T pX#XP i D.D.b.z.G.D.C.A.A.L.A.A.V.#XVXAXDXbXMXxXUX                  ",
"                    CXnXVXVXSXSXdX[.%X*X*X*X>X>X>X>X>X8X>X>X*X[.3 5.OXgXo.u V.`.D.H.P.P.L.G.G.G.G.L.Q 2 o r 7.G A | ! a.p.t.m ! j.m b I d u 5.6X_.u ~  .| | ^ Q Q W ! / Q x w O B 1.J D s.t.u.u.t.u.y.u.t.m p._.                                                                                                                                                                                                                                                                                                                                                                                                                                                                                                                                                                                                          @.R R ~  .......j.l.A.S A @.y # d  .c.l.l.^ ! ^ l.C.C.P S wX5.A s l.k.z.k.k.z.l.l.l. .z T 1.X.o $ ~ z.l..... .N.z.z.z.l. .u T pX#XP i D.H.b.b.H.D.C.C.V.A.A.A.V.#XnXVXbXVXMXxXGX                  ",
"                    CXVXVXVXVXSXdX[.%X*X*X*X>X>X8X>X>X,X>X>X>X`.7 5.OXgXX.u %.L.H.H.P.P.L.G.G.P.P.L.Q 3 o : 7.X.d | ! a.p.p.p.p.s.m b I d u /.6X6.u ~ ~ | ..^ M Q W ! ! ! I w X p 1.J E s.t.u.u.t.t.y.u.t.r.s.(.                                                                                                                                                                                                                                                                                                                                                                                                                                                                                                                                                                                                          @.R R ~  ...! ..j.l.A.S D @.y O d  .c.c.l.s.! ^ c.C.C.z S wX6.A s l.z.z.k.k.z.z.l.l. .P T 1.+.. $ Q j.l..... .N.z.z.z.l. .u T pXOXP i G.H.n.H.D.C.V.V.V.A.A.A.N.+XmXVXbXVXCXCX                    ",
"                    CXVXZXVXVXnXdX].%X%X%X*X>X>X8X>X>X,X>X>X>X`.3 5.OXgXX.u V.`.G.P.P.P.L.G.I.P.P.L.W 3 o : 6.X.A | ! a.p.p.p.s.p.m b I d p /.6X5.u ~ ^ ....^ ! ! M ! s.m x w X p 4.X.E s.u.e.u.r.r.t.u.a.p.s._.                                                                                                                                                                                                                                                                                                                                                                                                                                                                                                                                                                                                          @.R R ~  ...! ....N.A.P G 1.t O d l.z.c.c.s.s.s.l.z.C.z S wX6.S a l.v.v.k.k.z.z.l.l. .P T 1.+.X $ Q j.l.....l.l.z.z.z.z...u T eXOXP h G.n.D.H.D.C.V.l.C.G.A.A.%.+XvXVXDXAXCXCX                    ",
"                    CXVXZXVXVXnXBX].-X&X%X*X>X>X>X>X>X>X,X,X>X[.3 5.OXgXo.u V.`.G.P.P.P.L.H.I.P.P.G.Q w o r 6.X.S | s.a.p.t.m p.p.m M I P s _.wX6.w Y ......l.! ..! ! ! m c w X p 4.X.E s.r.e.u.r.r.u.u.a.p.j._.                                                                                                                                                                                                                                                                                                                                                                                                                                                                                                                                                                                                          ,.) R _ %...! ....B.A.P T 1.t O d ..l.z.l.s.! p.l.z.C.z S wX7.S a c.v.v.k.k.z.z.s.l. .P T 1.+.X $ Q j.l.....l.l.z.z.z.z. .u T pXOXP h G.n.n.H.D.C.V.l.A.L.A.A.%.+XmXVXZXAXCXCXJX                  ",
"                    CXnXVXVXVXnXhX].-X&X%X>X>X>X>X>X>X>X,X>X,X].3 5.OXgXX.u V.`.G.L.P.P.L.H.G.P.P.L.~ 3 o V 6.( S | ! a.p.p.p.p.p.! Q Y S p _.wX6.w Y ..l.l.l.s.j.! p.p.m c w X A 4.J A ^ r.e.e.e.r.u.t.a.p.j._.                                                                                                                                                                                                                                                                                                                                                                                                                                                                                                                                                                                                          #.) ~ $.%. .! ..l.B.A.P S 1.t O a s.d.z.l.s.s.p.j.z.C.z S wX5.D a c.v.v.a.k.b.z.s.l. .P T 2.+.X $ Q k.j..... .l.z.z.z.l...u T pXOXS i G.b.D.H.D.C.C.l.A.L.A.A.%.+XnXAXAXZXZXMXJX                  ",
"                    AXnXVXVXnXnXkX@X-X&X:X>X>X*X*X>X,X>X,X>X>X].3 5.OXgXX.u %.`.G.L.P.P.L.H.G.L.P.L.^ 3 . V 6.T d | s.k.d.p.p.p.j.! Q Y S p _.wX_.w Y  .l.l.j.s.j.m r.r.n c 3 o D 4.F p ^ r.e.e.e.e.u.t.a.d.j._.                                                                                                                                                                                                                                                                                                                                                                                                                                                                                                                                                                                                          O.R ~ _ %. .....l.B.A.P S -.y O z l.d.j.j.p.p.p.j.z.c.z S wX6.A i l.z.v.a.k.b.d.s.s. .P T 1.+.o $ ! z.s.......l.z.k.z.l...u T pXOXS i G.v.D.H.D.C.C.c.A.L.A.A.%.+XnXAXZXZXZXCXJX                  ",
"                    MXnXDXDXnXnXkX@XoX&X&X>X>X>X>X>X>X,X>X>X>X].3 5.OXgXT s %.`.G.P.P.P.G.G.P.P.P.L.Q 6 o r 6.T S | s.a.j.r.p.s.p.! ! I a p _.wX6.u ~ N.l...j.r.! p.r.r.m c 3 X T 4.J S ^ u.e.e.r.r.t.a.d.j.l._.                                                                                                                                                                                                                                                                                                                                                                                                                                                                                                                                                                                                          #.) R ~  . .l...l.B.A.P S 4.y + k l.d.j.p.p.p.p.j.z.C.z S wX4.A a B.v.b.k.k.z.d.d.l. .P ) @.( o $ M k.j...^ s.l.l.k.k.c.~ u G pX{.S i G.n.n.D.D.C.C.l.V.A.A.A.%.@XnXVXSXSXZXCXHX                  ",
"                    MXnXDXDXnXnXkX-XoX&X&X>X*X>X>X>X>X,X>X>X,XoX3 5.OXgXT s %.L.G.P.P.P.G.H.G.I.P.L.Q 3 o r 6.X.S | s.k.z.p.p.s.s.s.! Y d p {.eX_.u ~ N.l...j.p.p.p.a.r.r.M 8 X G 4.X.S ^ r.e.e.e.e.t.a.d.d.l./.                                                                                                                                                                                                                                                                                                                                                                                                                                                                                                                                                                                                          #.) R ~  . .l.l.l.B.A.P S 4.t + k l.d.j.p.p.p.s.j.z.x.z S wX4.S a z.z.v.k.k.z.d.d.l. .P ) *.( . $ b j.l.....l.l.z.k.z.l.~ u G pXOXS i H.n.n.D.D.C.C.N.V.J.A.A.V.#XMXAXZXSXZXCXHX                  ",
"                    CXnXDXVXVXVXkX-XoX&X%X>X>X>X>X>X>X,X>X>X,X-Xu 5.{.sX( s %.`.G.P.P.P.G.D.G.H.G.L.Q 3 o e 6.+.P | l.k.k.p.p.d.j.j.! Q S s {.eX6.w ~ %.l...j.p.p.p.a.a.t.b w O G 4.' S ^ r.r.u.e.e.t.a.d.d.l./.                                                                                                                                                                                                                                                                                                                                                                                                                                                                                                                                                                                                          @.) R ~  . .l.l.l.B.A.T S 1.t + z l.d.j.s.s.p.s.j.z.c.z S wX4.S a z.v.v.k.k.z.d.s.l. .P o.1.( . $ b j.j.l.l.l.l.z.k.k.z.~ u T iXOXS i H.m.H.H.D.C.C.N.V.J.A.A.S.#XMXAXZXSXZXCXHX                  ",
"                    CXVXVXVXVXSXkX-X&X%X%X>X>X>X>X>X>X8X,X,X9X%Xu 5.7.sX( a %.L.H.P.P.P.G.G.G.I.P.L.W 3 o : 6.X.P | d.z.k.r.p.d.k.j.! Q P p ).eX6.w ~ %.l.l.j.s.p.p.a.a.p.b w X G 4.' S ! r.t.u.r.r.y.a.d.d.l._.                                                                                                                                                                                                                                                                                                                                                                                                                                                                                                                                                                                                          @.) R ~ ^ ..l.l.l.B.A.P G 1.t # z l.d.s.! ! s.! j.z.C.z S wX5.S a z.b.v.k.z.z.d.s.l. .P o.1.( X $ Q j.j.l.l.l.z.z.k.k.z.~ u T iXOXS i H.m.H.H.C.C.C.N.V.J.A.A.=.#XMXAXZXSXZXCXHX                  ",
"                    CXVXVXVXSXSXkXoX&X:X>X>X>X>X*X>X>X8X8X8X8X%Xu 5.7.gXX.a %.`.D.P.P.P.L.G.G.I.P.L.W 3 o e 6.T U | d.k.k.p.d.z.k.j.! Q P p _.eX6.w ~ N. .l.s.s.s.p.a.a.p.x w X G 4.J A ! u.t.u.t.r.a.a.d.d.c.).                                                                                                                                                                                                                                                                                                                                                                                                                                                                                                                                                                                                          @.) R ~  .l.l.c.c.c.A.P D 1.w # z l.d.s.! ! s.! j.z.C.z S wX5.S k z.b.v.k.k.z.l.l.l. .P o.1.( . $ Q z.j.l.l.l.z.z.k.z.z.^ u T iXOXP i D.m.m.H.B.z.V.l.A.J.A.A.=.#XMXZXZXSXZXCXHX                  ",
"                    CXVXZXAXSXSXkX.X&X:X>X>X>X>X*X>X>X8X8X8X8X%Xu 5.7.gXX.a %.`.D.P.P.P.L.G.G.I.P.L.W 3 o r 7.T T | d.k.z.p.d.z.k.j.! ~ P s _.wX6.w $.N. .l.s.s.! s.p.s.! x w X G ,.J A ! t.t.e.t.t.a.a.d.d.c.).                                                                                                                                                                                                                                                                                                                                                                                                                                                                                                                                                                                                          @.) R ~  .l.l.c.l.c.A.P D ,.q # z l.s.j.! ! ! ! l.z.c.z S wX5.S k x.z.v.z.k.z.d.s.l. .P o.1.( o $ Q z.j.l.l.l.z.z.v.z.c.^ u T iXOXS i D.b.m.H.B.z.V.l.A.L.A.A.=.#XnXZXSXSXZXCXHX                  ",
"                    CXVXAXAXSXSXkX.X&X*X*X>X>X>X>X>X>X8X8X8X9X%Xu 5.7.gX( s %.`.D.P.P.P.G.D.G.I.P.G.W 7 o V OX( P | d.k.z.p.d.z.k.j.! ~ P s _.wX6.w $.%. .l.! s.! ! p.p.p.x w X G @.J S ^ u.u.u.t.r.a.a.a.d.c.).                                                                                                                                                                                                                                                                                                                                                                                                                                                                                                                                                                                                          @.) ~ ^ l.l.l.l.l.c.A.P A ,.q # d l.s.^ ! ^ ! ! l.z.c.z S wX1.S k c.z.v.z.k.z.d.s.l. .P o.,.( o $ Q z.j.s.s.l.z.z.v.b.z.^ u ( iX{.S i D.b.n.H.B.C.V.c.V.J.A.A.=.#XnXZXZXSXAXCXHX                  ",
"                    CXZXSXSXSXSXkX.X&X*X*X>X>X>X>X>X>X,X8X8X9X%Xu 4.7.gX( s %.`.D.P.P.P.D.D.G.I.P.G.~ 7 o B OX( S ~ s.k.z.p.d.z.k.j.p.^ P s _.wX6.9 %.N. .l.! s.! ! p.p.p.b w X A @.J D ^ r.u.u.e.u.a.a.a.d.c._.                                                                                                                                                                                                                                                                                                                                                                                                                                                                                                                                                                                                          @.) ~ ^ l.l.c.l.l.c.A.P A @.q # d l.s.^ ! ^ ! ! j.z.c.z S wX1.S k c.z.z.k.k.z.d.s.l. .P o.1.( o $ W j.d.s.s.d.z.b.b.b.x.^ u ( iX{.S i D.b.n.H.n.C.V.N.N.A.A.A.S.#XMXAXZXZXZXCXJX                  ",
"                    CXZXAXSXZXSXlX@X-X-X:X>X>X>X>X>X>X8X,X8X9X*X7 5.OXsXo.s %.`.G.P.P.P.G.G.I.I.P.L.Q 3 o V 7.X.S ~ d.b.z.p.p.k.k.k.r.! I a _.wX6.y | l.....^ s.s.p.s.p.p.b w X A 1.G S ..n y.u.e.t.a.a.j.s.c._.                                                                                                                                                                                                                                                                                                                                                                                                                                                                                                                                                                                                          @.$.~ ^  .l.l.l.l.B.A.P G @.q # d l.s.! ^ ! ! ! j.z.z.z S wX4.D s B.z.x.l.z.z.d.l... .U o.+.( X $ Q j.l.l.z.z.k.k.v.b.C...u ( iXOXS s D.n.n.n.D.C.V.N.V.A.A.A.%.#XbXSXSXAXZXCXHX                  ",
"                    GXZXSXSXZXSXvX@X@X-X:X,X,X>X>X>X>X,X>X>X8X%Xu 5.OXsXo.u %.`.G.P.P.P.G.H.H.I.P.L.Q 3 o r 7.O.S ~ s.b.k.t.a.k.k.j.r.! x a _.wX6.w ~ l.....^ ^ p.p.p.p.p.M u O D 4.G S ~ m t.u.u.t.a.a.d.s.l./.                                                                                                                                                                                                                                                                                                                                                                                                                                                                                                                                                                                                          @.$.~ ^  .N.c.l.c.B.A.P G 1.q # z l.l.^ ^ ! ! ! s.z.z.z d wX4.D a V.x.C.l.z.z.d.l.s. .Y o.+.( X $ Q z.j.l.z.z.k.v.v.b.x...u ( iXOXS i D.n.m.b.n.C.S.N.V.A.A.A._ +XnXAXAXZXZXCXJX                  ",
"                    CXZXSXSXZXSXvX@X@X-X:X,X,X>X>X>X>X,X>X>X8XoXu 5.{.sXo.u %.`.D.P.P.P.G.H.G.F.P.L.W 3 o : 7.+.S ~ s.k.k.t.a.k.k.j.r.m x a _.wX6.w ~ l.....^ ! r.r.p.p.p.M u O D 4.J D  .! t.u.u.t.u.a.j.j.l./.                                                                                                                                                                                                                                                                                                                                                                                                                                                                                                                                                                                                          4.$.~ ^ %.N.c.c.c.B.A.P T 4.q # d l.l...^ ^ ! ! s.k.z.z S wX5.S a V.n.C.l.z.z.d.l.s. .Y o.+.( X $ ~ z.j.z.z.k.b.v.v.v.z.^ u ( iXOXS i x.n.m.b.z.B.S.V.Z.A.A.A.~ +XbXAXZXZXZXCXJX                  ",
"                    CXZXSXSXZXSXvX@X-X:X:X>X>X>X>X>X>X9X,X,X8XoX7 5.{.iXo.u %.`.H.P.P.P.G.H.G.H.P.L.I 3 o : 6.O.U | d.v.v.p.a.k.k.j.r.m x a _.wX6.w ~ ......! ! p.r.r.p.p.M u O D 1.J D %.s.r.e.r.r.r.p.j.j.N./.                                                                                                                                                                                                                                                                                                                                                                                                                                                                                                                                                                                                          4.$.~  .N.N.c.l.c.B.A.P T 4.q O d l.l...^ ^ s.j.j.k.l.z S wX6.S a C.D.C.d.z.z.d.l.l. .P o.+.( o $ ~ j.j.z.z.z.b.b.v.v.z...u ( iXOXS i x.n.n.b.z.C.C.Z.A.J.G.A._ +XnXAXZXZXZXCXJX                  ",
"                    MXZXSXSXSXSXlX@X-X:X:X>X>X>X>X>X>X8X,X,X8XoX7 5.{.iXo.u %.`.G.P.P.P.L.G.I.I.P.L.Y 7 o : 6.X.U | l.v.v.p.a.k.k.k.t.m x s _.wX6.w ~ l.l.! ! ! p.r.p.p.p.b w O D @.J D  .j.r.e.e.r.r.p.l.l.V._.                                                                                                                                                                                                                                                                                                                                                                                                                                                                                                                                                                                                          4.$.~ %.N.N.c.l.c.B.A.P T 4.q O d l.l.! ^ ^ s.l.s.a.l.z S wX6.A a C.D.x.l.z.z.d.l.l.%.P o.*.( . $ Q j.j.z.z.k.v.b.v.v.z...u ( iXOXS h x.b.b.b.C.C.A.V.A.J.`.A.%.@XbXAXZXZXZXCXGX                  ",
"                    CXZXSXSXSXSXvX@X-X:X>X>X>X>X>X>X>X,X>X>X9X%Xu 5.{.iXX.u %.`.G.P.P.P.L.L.I.I.P.L.W 7 o : 6.T U | d.v.v.t.a.k.k.k.t.m x s _.wX6.w ~ l.l.! ! / p.r.n p.p.M 8 O G @.J H $.l.r.r.e.r.r.p.l.l.V._.                                                                                                                                                                                                                                                                                                                                                                                                                                                                                                                                                                                                          4.$._ %.N.N.c.l.c.B.A.P G 4.q O d l.s.! ^ ! s.l.j.a.l.k S wX5.C a B.H.x.l.z.z.d.l.l. .P o.*.( X $ Q j.j.j.z.k.v.b.M.b.z...u ( pXOXP k x.v.b.b.D.G.A.A.A.L.G.A.%.#XnXVXZXZXAXCXGX                  ",
"                    CXZXSXSXSXJXNX@X-X:X>X,X>X>X,X>X>X8X>X,X9X%Xu 5.{.iXX.u %.`.G.P.P.P.L.L.P.I.P.L.I 3 o r 6.T U | d.v.v.t.a.k.k.k.a.m x s _.wX6.w ~ l.s.! ! ! p.r.n p.p.M 8 O G ,.] G &.c.r.r.e.r.r.p.l.l.N._.                                                                                                                                                                                                                                                                                                                                                                                                                                                                                                                                                                                                          4.$.~ %.N.N.c.l.l.B.A.P T 4.q O z l.s.! ! ! l.l.j.a.l.k S wX6.C a B.H.x.l.z.z.d.l.!  .P o.*.( X $ ~ k.d.d.d.k.b.b.M.b.z. .u ( pXOXP k x.v.b.b.C.C.A.C.A.J.L.A.N.#XnXVXAXSXAXCXJX                  ",
"                    xXZXAXSXSXJXvX@X-X:X>X>X>X>X>X>X>X8X>X>X8XoX7 5.{.iXX.u %.`.G.P.P.P.L.P.P.P.P.L.I 3 o V 6.T P | d.v.b.a.a.k.k.k.a.! x s _.wX6.w ~ j.s.s.! p.t.r.n p.p.M 8 O G 4.O.X.;.C.m n v n r.p.l.l.N._.                                                                                                                                                                                                                                                                                                                                                                                                                                                                                                                                                                                                          4.$.~ %.N.N.c.l.l.B.A.P T 4.q O z l.s.! ^ ! s.l.l.z.l.k U wX_.C z C.I.b.k.z.z.d.l.! ..z X.*.( . $ ~ z.a.d.d.k.b.M.M.b.D. .u T eX$XP k z.v.b.b.B.C.C.C.A.G.G.A.S.5XnXVXAXSXZXCXHX                  ",
"                    GXZXAXAXZXSXvX@X-X:X>X>X,X>X>X>X>X8X>X>X>XoXu 5.{.iXT a %.`.D.P.P.L.L.G.G.I.P.[.W 2 o r 7.T U | d.v.v.a.a.k.a.p.t.p.x s _.wX6.w ~ ! ! s.p.s.a.r.r.p.p.M 8 O G 4.O.@.;.l.n v v n r.p.j.l.N.).                                                                                                                                                                                                                                                                                                                                                                                                                                                                                                                                                                                                          3.*._ %.N.N.C.l.c.z.C.P D 4.9 # z l.s.! ! s.s.l.l.z.l.i S wX6.A z C.D.b.a.z.z.l.j... .P o.1.( . $ ^ z.a.a.k.b.b.M.M.v.D...a ) pXOXP c x.k.b.b.C.C.C.C.G.L.G.A.%.:XnXVXVXAXZXGXJX                  ",
"                    GXZXAXAXZXSXvX@X-X:X>X>X>X>X>X>X>X8X>X>X>XoX3 4.{.iXT a %.`.D.P.P.L.L.G.G.I.P.[.I 2 o V 7.T U | z.b.b.t.a.k.k.a.r.! x s _.wX6.y ~ s.p.p.p.p.a.r.r.p.p.M 3 O G 4.O.@.;.l.n v v n r.p.j.l.N.).                                                                                                                                                                                                                                                                                                                                                                                                                                                                                                                                                                                                          ,.+._ %.N.N.C.l.c.z.C.P D 1.2 # d l.s.! ! s.s.l.l.z.l.a S wX5.p z C.F.D.z.z.z.l.j... .z o.1.( o $ ^ z.k.k.z.k.b.M.M.b.D...i o.pXOXP x x.k.b.b.b.C.C.C.G.L.G.G.N.5XnXVXVXVXZXCXJX                  ",
"                    GXZXAXAXZXSXNX@X-X:X>X>X>X>X>X>X>X8X>X>X>X-X3 5.OXiXT a %.`.G.P.P.I.L.G.G.I.P.L.I 3 o V {.T U | z.b.b.y.a.k.k.a.r.m x s _.wX6.w ~ j.j.p.p.r.t.r.r.p.p.M 3 O D 4.O.+.;.l.n n v n p.p.j.l.N.).                                                                                                                                                                                                                                                                                                                                                                                                                                                                                                                                                                                                          ,.*.$. .N.N.C.l.c.z.V.P A 1.2 # d  .! p.! s.s.l.l.z.l.a S 6X5.p z C.I.H.k.n.z.z.l... .z o.1.( o $ ^ k.k.k.k.v.M.m.m.m.D.l.i ) iX#XP x x.k.b.b.b.C.B.C.G.G.G.A.N.5XnXVXVXVXCXCXHX                  ",
"                    GXZXAXAXSXSXNX@X-X%X>X*X>X>X>X>X>X,X>X>X>X&X7 5.OXgXX.s %.`.G.P.P.I.G.G.G.I.P.P.I 3 o V OXT U | z.n.v.a.a.k.k.a.r.m x s _.wX6.w ^ j.j.p.r.r.r.r.r.r.p.M 3 O D ,.O.X.&...n n e.r.a.p.j.l.N._.                                                                                                                                                                                                                                                                                                                                                                                                                                                                                                                                                                                                          <.+._  .N.N.C.l.C.z.V.P A 1.2 # d l.s.p.! s.s.l.l.z.c.a S 6X5.p z C.F.H.z.n.n.z.l.l.%.U o.1.( o $ ! k.k.k.k.v.M.m.m.m.n.l.s R iX#Xz x C.z.b.b.b.z.z.C.C.G.G.A.N.5XMXMXVXVXCXCXJX                  ",
"                    GXZXSXSXSXSXNX@X-X%X*X>X>X>X>X>X>X,X>X>X>XoXu 6.OXiXT u %.`.G.P.P.I.L.G.G.P.P.L.I 3 o V OXT P | z.m.n.k.d.k.k.a.r.p.I a _.wX5.w ^ l.j.p.n r.r.r.r.r.p.M 8 O D @.O.( &.! r.e.r.r.a.p.z.l.N._.                                                                                                                                                                                                                                                                                                                                                                                                                                                                                                                                                                                                          ,.+.$. .N.l.c.l.C.B.V.a A -.2 # z l.s.s.! ! s.l.l.z.c.i U wX5.p z C.n.n.k.n.n.z.z.l.c.U o.1.( o 4 ! k.k.k.v.b.b.M.m.m.n.l.s R iX#XP x D.z.b.b.b.z.z.c.C.G.G.A.N.5XMXbXVXVXZXCXGX                  ",
"                    GXZXSXSXSXSXNX@X-X%X>X*X>X>X>X>X>X>X>X>X,XoXu 6.OXiXT u %.`.G.P.P.I.L.G.G.P.P.L.W 3 o V OXT P ..z.H.H.v.v.k.k.a.t.d.W a _.wX5.w ^ l.j.p.p.p.r.r.r.p.p.M 8 O G @.O.J %.! r.e.e.u.a.p.z.l.N._.                                                                                                                                                                                                                                                                                                                                                                                                                                                                                                                                                                                                          ,.@.*.%.N.N.c.l.C.B.V.a p @.& # z l.s.s.! ! s.l.l.z.l.a T wX2.p z C.b.b.k.D.n.z.z.l.c.U o.1.( o $ ! v.k.k.b.v.v.v.M.m.H.c.s R sX#XP x D.v.n.b.b.z.z.c.C.L.G.A.%.5XVXDXVXAXZXCXJX                  ",
"                    JXZXSXSXSXSXNX@X-X%X*X>X>X>X>X>X>X>X>X>X,XoXu 6.OXiXT u &.[.L.P.P.G.D.G.G.P.P.L.Q 7 o V OX( U  .z.H.H.v.b.b.k.a.t.d.W a _.wX6.w ^ l.j.p.p.a.a.a.a.p.p.M 8 O G -.O.J %.n r.e.u.u.a.a.z.z.N.).                                                                                                                                                                                                                                                                                                                                                                                                                                                                                                                                                                                                          <.+.$.$.S.N.c.l.C.B.C.a f @.& # z l.s.s.s.s.s.l.l.z.l.z T wX5.p z C.v.n.k.n.n.z.z.l.c.z o.1.( o 4 ! v.k.k.v.v.M.m.M.M.H.c.s T iX#Xz x D.v.n.b.b.z.z.c.C.D.G.A.%.5XMXbXVXAXZXCXHX                  ",
"                    JXZXAXSXSXSXvX@X-X-X%X*X>X>X>X>X,X,X,X>X,X@Xu 5.OXiXX.u %.`.L.P.P.G.D.G.G.I.E.P.~ u o V OXT U  .B.F.H.v.b.b.k.a.u.d.W a _.wX6.w ~ l.k.p.p.a.a.a.d.p.t.M w O G -.O.D  .n n e.e.t.a.a.k.z.c._.                                                                                                                                                                                                                                                                                                                                                                                                                                                                                                                                                                                                          <.@.*.%.S.N.c.l.C.B.A.P A @.& # z l.d.s.! s.s.d.d.z.c.z { wX5.s z D.n.m.k.n.b.z.l.l.c.z o.1.( o 4 ! b.v.k.k.v.M.m.M.M.H.B.i R iX+Xa x D.v.b.b.b.n.z.x.C.G.G.S._ 5XnXMXVXAXAXCXHX                  ",
"                    GXZXSXAXGXSXvX@X].&X*X>X>X>X>X*X>X8X>X>X,X].7 6.OXiXT u &.`.G.P..XP.I.I.P.P. XP.^ u o V OX( o.%.z.H.F.b.b.b.k.a.a.s.W a _.6X5.w ^ j.j.p.a.a.a.y.a.a.y.n u O D @.X.P ..n r.r.r.t.a.k.p.j.l.).                                                                                                                                                                                                                                                                                                                                                                                                                                                                                                                                                                                                          <.+.:.%.N.c.l.l.z.C.C.a A ,.& # z l.d.s.! ! s.d.l.l.l.z T wX4.s I D.b.M.v.D.z.c.l...N.U o.-.( o 4 ! b.k.k.k.k.v.M.m.n.H.c.h R eXOX` l D.n.v.b.b.n.z.z.G.G.C.V.&.#XnXAXZXAXZXZXHX                  ",
"                    GXZXSXAXGXGXmX+X].&X%X>X>X>X>X>X>X8X>X>X,X@X7 6.OXiXG w &.`.L.P..XP.H.H.P.E.Q.E.s.u o r {.+.o.&.B.H.H.b.b.b.z.k.d.j.Q a _.wX5.8 ! d.a.a.a.d.a.y.y.y.y.M u O D 1.X.P ..n n n r.t.a.a.p.j.l.).                                                                                                                                                                                                                                                                                                                                                                                                                                                                                                                                                                                                          <.+.:.%.N.B.l.l.C.C.V.a A ,.& # z l.d.l.! ! s.s.d.l.l.z T wX4.u x D.M.M.v.n.z.l. ...N.P o.-.( . 4 ! b.k.k.k.k.v.v.M.n.H.l.h Y eX$X` l D.n.b.b.b.b.z.z.C.C.C.V.&.#XMXAXAXAXZXCXHX                  ",
"                    GXZXSXSXGXGXmX@X].oX%X*X>X*X*X>X>X>X>X*X>X-X3 6.OXiXG w &.[.L.E..XP.H.I.P.E.Q.E.l.u o r 6.+.o.&.B.H.F.b.b.v.k.z.a.j.W a _.wX5.8 Q d.a.a.a.d.d.a.a.a.y.M u O G 1.X.P ! n n v e.t.t.a.p.j.l._.                                                                                                                                                                                                                                                                                                                                                                                                                                                                                                                                                                                                          <.+.:.%.N.B.c.l.C.B.S.a A @.$ # z l.d.j...s.s.d.d.l.l.a T wX1.u x D.M.b.v.b.c.l...^  .P o.-.( . $ ! k.k.k.k.k.v.v.M.n.H.l.i Y eX$XS l D.n.b.v.b.z.z.z.z.C.C.Z.;.#XnXAXAXAXZXCXHX                  ",
"                    GXZXSXSXGXGXvX+X].oX%X*X*X*X*X>X>X>X>X*X*X].w 6.OXiXG u %.`.P.P..XP.H.I.P.E.Q.E.l.0 o r 4.+.T %.B.H.H.v.b.b.k.a.a.s.x s _.wX5.8 Q d.k.a.a.a.d.a.a.a.y.n u O G 1.X.P ! n v v e.t.t.a.p.l.l._.                                                                                                                                                                                                                                                                                                                                                                                                                                                                                                                                                                                                          <.@.:.%.N.B.c.l.C.B.S.A A @.& # z l.d.j.j.s.s.d.d.j.l.i U wX4.u x n.b.v.k.z.l.....^  .P o.-.( . $ ! k.k.k.k.k.v.v.b.n.H.l.i Y eXOXS k H.m.n.b.z.z.z.z.z.C.A.Z.&.#XnXnXAXAXAXCXHX                  ",
"                    GXZXSXAXSXSXvX+X].&X%X*X*X*X%X>X>X>X>X*X%X].u 6.OXiX( p ;.`.G.P.E.P.I.P.P.E.Q.P.^ 3 o r 6.+.P %.B.H.H.v.b.b.a.a.a.s.I s _.wX5.3 ! j.k.k.a.a.a.a.a.a.a.m u # G 1.o.P ! v r.v e.t.t.a.j.l.l._.                                                                                                                                                                                                                                                                                                                                                                                                                                                                                                                                                                                                          ,.@.&.%.V.B.c.l.z.C.V.S A @.$ # z l.d.j.j.l.d.d.d.j.l.i T wX4.u x n.v.v.k.z.l.....^  .P o.-.T o $ ! k.k.k.k.k.v.v.b.n.D.l.i R eX+XS l H.m.b.b.b.b.n.B.B.C.C.V.&.#XbXMXVXAXZXCXJX                  ",
"                    GXZXSXAXSXSXvX$X].&X%X*X*X*X%X*X>X>X>X>X*X].u 6.OXiXX.s ;.J.G.P.E.P.P.P.P.E.E.P.Q 3 o V 7.X.P %.B.H.n.v.b.k.k.a.a.j.I s _.wX6.w ! l.k.k.p.p.a.r.y.a.y.m u O ( 1.o.P ! n r.r.u.t.t.a.j.l.l._.                                                                                                                                                                                                                                                                                                                                                                                                                                                                                                                                                                                                          ,.-.&.V.V.B.l.l.z.C.V.S A @.$ # z l.d.j.j.s.d.d.d.j.l.i T wX4.u x b.v.v.k.z.l.....^  .P o.-.T o $ ! d.k.z.k.k.v.v.b.n.D.l.i R eX+XS k H.n.v.k.b.b.D.D.C.C.V.V.$.#XbXAXAXAXCXCXGX                  ",
"                    GXZXSXAXSXSXvX$X].oX%X%X*X*X*X*X>X>X>X>X>X].u {.OXiXJ s ;.`.G.P.E.P.P.P.P.P.E.P.W 3 o r OXG P &.D.H.b.v.b.v.k.a.a.j.I s _.wX6.w Q j.k.j.p.p.a.r.t.p.r.b u O ( 4.o.P s.r.u.u.u.y.u.a.k.z.l._.                                                                                                                                                                                                                                                                                                                                                                                                                                                                                                                                                                                                          ,.-.&.V.V.B.c.l.C.C.A.d A @.$ O z l.d.j.j.s.d.d.d.d.l.k { wX4.u x z.v.v.k.z.l.^ ^ ^  .P *.1.G . 4 ! d.k.k.k.k.v.v.b.b.D.l.i R eXOXa k H.n.b.k.b.n.D.B.B.C.N.V.$.#XbXVXVXAXCXCXGX                  ",
"                    GXZXSXAXAXSXvX'.]..X.X X%X*X>X*X>X>X>X>X>X].u {.OXiXJ p ;.`.G.P.E.P.P.P.P.P.E..Xb 3 o r OXD T &.D.D.b.k.v.v.k.a.a.d.I s _.6X6.w Q s.j.j.p.a.d.p.t.t.r.b u # ( 4.o.P s.r.t.u.t.y.y.a.a.z.l._.                                                                                                                                                                                                                                                                                                                                                                                                                                                                                                                                                                                                          3.*.&.N.V.B.c.l.C.C.A.S A @.$ O z l.a.j.j.d.d.d.d.d.l.z { wX4.u x D.v.v.k.z.l.^ ^ ^ ..P *.1.G o 4 ! k.k.k.k.k.v.v.b.b.D.c.i R eX$Xa h H.b.k.k.b.D.D.B.C.C.N.%.$.#XzXMXVXZXCXCXGX                  ",
"                    GXZXAXAXZXSXmX'.].&X%X%X*X%X*X*X*X>X>X*X%X].7 {.OXiXJ w &.`.P.P.P.P.P.P.P.E.E.[.x u o V 7.+.R Z.B.n.k.k.k.k.k.k.a.d.W s _.wX6.8 W s.j.j.d.d.d.r.n r.r.M p O ( 1.o.P m t.y.e.u.y.a.k.k.z.N.).                                                                                                                                                                                                                                                                                                                                                                                                                                                                                                                                                                                                          ,.-.;.Z.N.c.z.l.C.B.V.a H @.$ # z l.a.d.j.d.d.a.a.a.l.z { wX4.u I D.v.v.a.z.j.^ ^ ^  .I $.1.G . $ ! k.k.v.z.k.v.v.M.b.b.l.i R eXOXa h D.n.z.k.k.z.B.C.G.C.N.%._ #XzXbXVXAXAXxXJX                  ",
"                    GXZXSXAXZXSXvX'.].&X%X%X%X&X*X>X>X>X>X*X%X].7 {.OXiXG w &.`.G.P.P.P.P.P.P.E.E.[.x u o V 7.+.R Z.B.n.k.k.k.v.k.k.a.d.W i _.wX7.8 W s.p.p.p.p.d.r.r.r.r.M u O ( 1.o.P ! t.y.u.y.y.a.k.k.z.c.).                                                                                                                                                                                                                                                                                                                                                                                                                                                                                                                                                                                                          3.;.S.Z.N.c.c.l.C.B.V.A S @.$ # z l.a.d.j.d.a.a.a.k.l.z { wX4.u I D.v.v.a.z.l.^ ^ !  .I $.1.G . $ ! k.k.v.b.k.v.v.b.b.b.l.i R eXOXa h D.n.k.k.z.z.B.C.C.C.V.%._ #XzXbXMXAXZXCXJX                  ",
"                    GXZXAXAXZXZXvX+X].&X.X%X%X.X%X>X>X>X>X*X*X].7 6.OXiXG w %.`.G.P.P.P.I.I.P.P.E.[.W u o r 7.+.R Z.B.n.k.k.v.v.k.k.a.d.W s _.wX7.w ~ j.p.p.p.p.p.m m n n M u X ( 1.o.P ! t.y.t.y.y.a.v.k.z.N.).                                                                                                                                                                                                                                                                                                                                                                                                                                                                                                                                                                                                          4.;.=.V.N.c.z.l.C.B.S.A G ,.$ # z l.a.d.j.z.d.a.a.k.l.z R wX4.u x D.v.v.k.z.l.^ ^ !  .I $.1.G . $ ! k.d.b.k.k.v.v.b.b.D.s.s R eXOXa k C.b.k.k.z.B.B.C.C.A.S.V.$.#XbXMXbXVXZXCXJX                  ",
"                    CXZXSXAXZXZXvX+X].&X%X%X%X.X%X*X*X>X*X*X*X].7 6.OXiXX.u %.`.G.P.E.P.I.H.P.P.E.P.W u o r 7.X.R Z.B.n.a.k.v.v.k.k.a.p.W s /.wX7.w ~ l.j.p.p.p.m m n n n M u X ( 1.o.z ! t.a.y.y.y.a.v.k.x.B.).                                                                                                                                                                                                                                                                                                                                                                                                                                                                                                                                                                                                          4.;.%.V.N.B.z.l.C.B.V.a S @.$ # z N.d.d.j.z.k.d.a.k.l.k R wX4.s x x.v.v.k.z.l.^ ! ! l.I $.1.G . $ ! k.d.k.k.v.v.v.M.n.D.^ s R eXOXS k C.n.k.d.z.B.B.C.C.A.V.V.$.5XMXMXbXAXAXCXJX                  ",
"                    GXSXSXSXGXSXmX'.].&X%X%X%X%X.X%X*X>X>X>X>X].w {.OXiXX.u &.`.G.P.E.P.P.I.P.P.E.P.W w o V {.( R Z.B.n.a.v.v.v.k.k.a.d.W a /.6X7.w ~ l.j.p.! ! ! m n n v c w X ( 1.o.z ! t.a.y.y.y.a.f.k.x.B.}.                                                                                                                                                                                                                                                                                                                                                                                                                                                                                                                                                                                                          4.;.%.V.N.B.z.j.C.B.N.a H @.$ # z N.z.p.j.z.z.a.a.k.l.k T wX4.s x z.k.v.k.l.s.! ! ! l.I $.-.G . $ ! k.d.k.k.v.b.v.b.n.b.! s R iX+XS k C.n.k.d.z.B.B.C.B.C.S.%.&.5XMXMXbXAXZXCXJX                  ",
"                    GXAXAXAXZXSXnX'.].&X%X.X%X%X&X%X%X>X>X>X>X].u 6.OXiXX.w &.`.G.P.P.P.P.P.P.P.E.P.Q w o V {.( R Z.n.n.a.v.v.v.k.k.a.j.Q a _.wX6.9 ~ j.j.p.! ! ! m n n n M w X ( 1.o.z m t.a.y.y.y.a.b.k.z.c.).                                                                                                                                                                                                                                                                                                                                                                                                                                                                                                                                                                                                          4.;.V.V.N.B.z.j.C.B.V.a H @.$ # z N.z.a.k.z.k.d.d.k.l.k T wX4.s x z.k.v.a.l.s.^ ^ ! N.I $.-.G . $ ^ k.d.k.k.v.n.b.M.n.b.! s { iX+XS k C.x.k.d.z.B.B.B.C.C.N.V.=.5XMXMXMXAXZXCX                    ",
"                    CXCXAXAXZXSXnX+X].&X%X%X%X%X&X%X%X>X>X*X*X].u 6.OXiX( w %.`.G.F.P.P.P.P.P.P.P.P.^ u o V OXE R Z.n.n.a.v.v.v.k.k.a.j.Q a _.wX6.9 W j.j.j.! ! ! m n n n b u X T 1.o.z m t.a.a.y.y.a.b.k.z.c.).                                                                                                                                                                                                                                                                                                                                                                                                                                                                                                                                                                                                          1.;.V.V.N.C.z.j.C.B.S.A G ,.$ # z l.d.k.k.k.k.k.d.k.z.k U wX4.s x z.k.k.a.l.s.! ! ! l.I o.-.G . $ ^ a.d.k.k.v.m.v.v.n.b.! s { iX#XP k C.z.k.d.z.C.B.B.C.C.N.%.=.6XSXMXAXAXZXCX                    ",
"                    GXAXAXAXGXGXnX@X-X&X.X%X%X.X%X%X%X*X*X%X*X].u 6.OXiXX.w $.L.G.F.P.I.P.P.P.P.P.P.^ u o r {.E E Z.n.b.a.v.v.f.v.a.y.d.Q a _.wX7.8 Q j.j.j.! ! p.m n n r.M u X T -.o.z m t.a.y.u.y.a.b.k.z.N.).                                                                                                                                                                                                                                                                                                                                                                                                                                                                                                                                                                                                          ,.;.%.V.V.C.z.j.D.B.S.a G @.& # z l.z.k.k.v.k.b.k.k.z.k U wX4.s I z.k.k.a.l.l...^ ! l.I o.*.G . $ ^ a.a.d.k.v.n.b.v.b.n.^ s o.sX#XP k c.z.d.d.z.C.B.C.B.C.N.%.=.6XSXMXZXVXZXGX                    ",
"                    CXZXAXSXGXSXnX@X-XoXoX%X%X.X%X%X%X>X>X%X%X].u 6.OXiXJ w &.A.G.P.P.I.P.P.P.P.P.P.! u o r {.S E A.b.v.a.a.v.a.a.a.a.d.W i _.wX6.8 ~ l.j.d.s.p.r.t.u.r.t.m u O T -.o.k ! t.y.y.y.y.t.g.b.n.V.$X                                                                                                                                                                                                                                                                                                                                                                                                                                                                                                                                                                                                          1.;.V.V.V.C.z.z.C.D.S.S G 4.$ + z N.k.k.v.n.b.v.v.v.z.k T wX4.s x z.k.j.p.j.s.! ..s.l.I $.1.D . $ ! k.d.b.b.k.v.v.v.b.C. .u o.iX#XP x x.k.a.z.z.z.z.B.C.c.l.N.&.rXMXMXAXAXZXCX                    ",
"                    CXZXSXAXSXSXmX@X].oX%X%X%X.X%X%X*X>X*X%X*X].u 6.7.iXJ y &.J.G.P.P.I.P.P.F.P.P.P.! u o r OXG T K.b.v.a.f.v.~.y.a.a.d.W a _.wX6.8 ~ l.j.d.s.r.u.y.u.u.t.m s O } :.) k / u.y.y.y.y.a.g.b.D.N.{.                                                                                                                                                                                                                                                                                                                                                                                                                                                                                                                                                                                                          1.;.%.S.V.B.z.l.x.H.B.P S 5.$ + z N.k.k.v.M.b.v.v.v.z.k U wX1.p x z.k.p.! l.! ! ..! l.I $.1.D o 4 ! a.d.v.b.b.b.v.v.v.C. .u ( iX+Xz j D.v.a.k.z.z.B.B.B.B.l.N.%.rXnXbXAXAXZXCX                    ",
"                    CXZXSXAXSXSXmX$X].&X%X%X%X.X%X%X*X*X%X%X*X].u 5.7.iX( p ;.L.G.P.P.P.P.P.P.P.P.P.Q 0 o r OXG T J.n.v.f.v.v.~.y.y.y.d.W s _.wX6.w ~ l.l.j.s.r.u.t.u.u.t.! u O } -.o.` ! u.y.y.y.y.a.g.b.n.N._.                                                                                                                                                                                                                                                                                                                                                                                                                                                                                                                                                                                                          1.;.V.Z.V.B.z.l.x.H.C.P T 5.$ + z N.k.k.b.b.v.v.v.v.z.k U wX5.p x z.k.p.! l.! ! ..! l.x $.1.D o 4 ! a.d.v.b.b.b.v.v.v.C. .w ( iX+Xz j D.v.k.k.z.z.z.z.B.B.N.V.%.rXVXbXAXAXZXCX                    ",
"                    CXZXSXAXSXSXmX'.].oX%X.X.X.X%X%X%X*X%X%X%X[.0 5.{.iXX.p S.L.G.P.P.P.P.P.F.P.P.P.Q 0 o r OXG T J.n.v.f.v.v.~.y.y.t.p.b s /.wX6.w ~ l.j.j.s.p.t.t.u.p.a.! u # } -.o.` ! u.y.y.t.t.a.b.v.D.N.).                                                                                                                                                                                                                                                                                                                                                                                                                                                                                                                                                                                                          1.;.S.S.V.B.l.l.x.H.C.E T 6.2 $ z N.k.k.b.b.v.k.v.v.z.k U wX5.p z z.k.p.! l.! ! ..! l.x $.1.D . 4 ! a.d.v.k.b.b.v.v.v.C.^ w ( iX+Xz h H.b.k.k.z.z.z.z.B.C.N.V.%.rXnXnXVXVXAXCX                    ",
"                    CXZXZXAXZXSXmX'.].oX%X.X&X&X%X%X*X>X*X*X*X[.0 5.{.iXX.s V.L.H.P.P.P.P.G.I.P.P.I.W 8 o r OXT R J.b.v.f.v.v.i.y.y.t.p.x u 5.6X6.w Q l.j.j.s.p.t.t.r.a.a.! u # T -.o.` ! t.y.y.t.t.a.b.v.D.V.).                                                                                                                                                                                                                                                                                                                                                                                                                                                                                                                                                                                                          1.;.V.S.V.C.z.z.C.H.B.E T 6.$ + z N.z.k.v.b.v.k.v.b.z.k U wX5.p x z.a.p.! l.! ! ..! l.z o.-.D . 4 ! a.a.v.k.v.b.v.v.v.x.^ w ( iX+Xz h n.b.k.k.k.b.z.z.z.C.B.V.%.rXVXnXVXVXZXCX                    ",
"                    ZXZXZXAXZXSXmX'.].oX%X%X%X%X%X%X%X>X>X*X%X[.0 /.{.iXX.s V.L.H.E.P.P.G.G.H.P.P.P.b 8 o r OXT R J.b.v.d.v.v.y.y.y.t.p.x u 5.6X6.q ~ l.j.j.d.d.r.t.a.a.p.m u O T -.o.` ! u.y.y.t.y.a.b.b.D.N.).                                                                                                                                                                                                                                                                                                                                                                                                                                                                                                                                                                                                          ,.;.%.S.V.C.c.z.D.H.B.P T 6.$ # z N.k.k.v.b.v.d.v.b.z.i U wX5.s x z.a.p.! l.! ! ..! l.z o.-.D . $ ! a.v.v.k.k.b.b.v.v.x.~ u ) iX+Xz h b.b.v.k.k.b.z.z.z.c.B.V.%.rXnXnXVXVXZXMXGX                  ",
"                    GXZXAXAXSXSXmX'.].].oX%X%X%X%X.X%X>X>X=X%X[.0 _.{.iX( u V.L.I.E.P.L.G.H.H.P.P.P.W u o r OXT R J.b.v.f.v.v.y.y.y.t.p.b s 5.wX6.9 ~ l.j.j.d.s.r.r.a.a.p.M w O T -.o.` ! r.y.y.t.y.a.b.b.D.V.$X                                                                                                                                                                                                                                                                                                                                                                                                                                                                                                                                                                                                          ,.;.%.S.V.C.z.z.D.H.B.P T 6.$ # z N.k.k.k.b.f.a.v.v.z.i U wX5.s x z.a.p.! l.......! l.z o.-.D o 4 ! a.v.v.k.k.b.b.v.v.c.^ u ( iXOXP l b.b.b.k.k.b.b.z.z.c.N.N.%.rXnXmXbXVXZXCXJX                  ",
"                    GXAXAXAXSXSXvX'.].].oXoX%X%X%X&X%X>X>X=X%X].0 _.{.iXT u V.L.I.E.P.I.G.D.H.P.P.P.b u o r OXT R J.b.v.d.v.v.y.y.y.y.d.W i _.wX6.9 ~ l.j.j.s.s.m r.a.d.p.b 8 O } -.X.P ! r.y.y.t.t.a.b.b.D.C.$X                                                                                                                                                                                                                                                                                                                                                                                                                                                                                                                                                                                                          ,.;.%.S.V.C.z.z.D.H.B.P T 6.4 # z N.k.a.k.b.d.k.v.v.z.i P wX5.s x z.a.p.! l.......! l.z o.-.D . 4 ! a.v.v.v.v.b.b.v.v.c. .u ( iXOXP x n.M.b.k.k.b.D.b.z.c.N.N.%.rXnXmXbXVXZXCXHX                  ",
"                    CXZXVXAXZXSXvX'.[.].oX%X%X&X%X*X*X>X>X>X*X[.0 /.OXiXT s N.I.F.E.P.I.I.H.H.I.P.P.! 0 o r {.T T Z.z.b.a.v.v.f.y.t.a.p.x a _.wX6.9 ~ c.l.j.s.s.p.p.p.l.a.b w O } -.X.P ! r.u.t.t.t.a.b.n.H.V.OX                                                                                                                                                                                                                                                                                                                                                                                                                                                                                                                                                                                                          1.=.%.V.S.C.z.z.C.H.B.P T 5.2 # z l.z.d.k.k.d.k.v.v.k.i U wX5.p z j.k.r.p.s.....^ .. .z { *.D X 4 ! a.a.v.b.v.b.v.v.v.z.^ u ( iXOXz l H.v.b.v.k.b.z.z.z.c.C.N.%.rXSXnXmXVXCXCXHX                  ",
"                    CXZXAXAXZXSXvX'.].].oX.X%X&X%X*X*X*X*X>X>X].0 /.{.iXX.s N.I.F.E.P.I.P.H.P.I.P.P.! s o r 7.T R Z.z.b.a.a.v.a.y.t.a.d.x a /.wX6.w ~ l.j.j.s.s.! p.s.z.d.b w X } -.X.P ! r.t.t.t.t.a.b.n.D.N.$X                                                                                                                                                                                                                                                                                                                                                                                                                                                                                                                                                                                                          1.;.%.V.S.C.z.z.D.H.B.a G 4.$ O z l.z.d.k.k.d.a.v.v.k.k U wX5.p I z.k.r.p.s.....^ j. .z o.*.D X 4 ! f.a.v.b.v.v.v.v.v.z.^ w X.iXOXz l H.v.b.v.k.z.z.z.c.z.B.l.%.rXSXnXbXAXCXCXHX                  ",
"                    CXZXAXAXSXSXvX'.].oXoX.X%X X%X%X=X*X*X*X>X.X0 5.{.iX) s N.P.I.R.P.I.I.H.I.I.P.P.! s o r {.T R Z.z.b.a.a.v.a.y.y.a.s.x a 5.wX6.w ~ l.j.! ! s.p.s.s.z.l.b w X } -.X.P ! r.t.t.y.y.d.b.n.D.N.OX                                                                                                                                                                                                                                                                                                                                                                                                                                                                                                                                                                                                          1.;.V.S.S.B.z.z.D.H.B.a G 4.$ O z l.z.d.z.k.d.a.k.v.k.h R wX5.p I z.a.r.p.s.j.! ^ j. .z o.*.D X 4 ! v.a.v.b.v.b.v.v.v.z.~ w X.iXOXz j n.v.v.b.k.z.z.z.c.c.V. .%.7XVXnXbXAXCXCXHX                  ",
"                    CXZXAXAXZXSXvX'.].oXoX.X%X%X%X%X=X*X*X*X*XP.0 /.{.iX) s l.P.I.R.E.F.I.H.F.F.I.I.! 0 o e 7.T R Z.z.b.d.f.v.y.y.y.a.d.b a 5.6X6.w ~ l.j.j.s.s.p.j.s.l.l.b w X o.>.X.P ! r.t.t.y.y.f.b.n.D.N.OX                                                                                                                                                                                                                                                                                                                                                                                                                                                                                                                                                                                                          4.;.S.S.S.B.z.z.D.H.B.P T 4.$ # z l.z.l.z.k.a.k.k.v.k.h R wX1.s z z.a.t.p.s.j...^ !  .z o.*.D X 4 s.v.a.v.v.b.M.v.v.v.z.Q w X.iXOXP k H.b.b.k.a.z.z.z.c.c.V. .%.7XVXnXnXAXCXCXHX                  ",
"                    CXZXAXAXZXSXmX'.[.[.oX%X%X%X%X%X=X*X*X*X*XP.0 5.{.iX) u l.P.R.Q.E.F.I.H.F.F.I.I.! s o r {.X.T S.z.n.d.v.v.a.y.y.a.d.b a 5.5X6.w ~ l.j.l.s.s.s.j.s.c.l.I w X X.-.( P ! r.t.r.t.t.d.b.b.D.l.$X                                                                                                                                                                                                                                                                                                                                                                                                                                                                                                                                                                                                          4.;.S.S.S.B.z.z.D.H.B.P T 4.$ # z l.d.j.z.k.a.a.k.v.k.h U wX1.s z k.a.a.p.s.l...! ! ..z o.*.D . 4 s.v.y.v.v.b.M.v.v.v.z.Q w X.iXOXP k H.b.b.k.d.z.z.l.C.z.V.%.%.7XnXnXnXAXCXCXHX                  ",
"                    CXZXAXAXZXSXmX'.`.[.oX%X*X%X%X%X=X=X*X*X>X].u 5.{.iXT u l.P.E.Q.E.E.P.F.I.I.I.I.! s X r OXX.T S.z.n.k.v.b.a.y.y.a.d.b a 5.2X6.w ..l.j.l.d.s.s.j.! l.l.I w X T +.( S ! n t.t.t.y.f.b.n.D.N.+X                                                                                                                                                                                                                                                                                                                                                                                                                                                                                                                                                                                                          4.;.S.S.B.B.z.z.D.H.B.P T 4.$ # z l.d.l.z.k.a.a.k.v.k.h U wX5.p z j.a.p.d.l.l...! ! ..z o.-.D . 4 s.v.i.v.v.v.M.v.v.k.z.Q w X.pXOXP k n.b.b.k.d.z.z.l.c.c.N.N.%.5XnXnXbXAXCXCXHX                  ",
"                    CXZXAXAXSXSXmX'.`.[.oX%X%X%X%X%X=X=X=X*X>X].s 5.{.iXT s l.P.R.Q.W.E.P.F.F.I.I.I.! s X e OXo.T S.z.n.k.v.b.a.y.y.a.a.b i /.6X6.w ^ l.j.j.d.! ! j.! l.s.x w X G +.( P ! n t.t.t.a.b.n.m.H.N.+X                                                                                                                                                                                                                                                                                                                                                                                                                                                                                                                                                                                                          1.;.S.S.C.C.z.z.D.H.C.P G 4.$ # z l.d.l.z.k.a.a.k.v.k.h U wX5.d z j.k.p.s.l.l...^ ....z o.1.D X 4 s.v.i.v.v.v.v.v.v.v.c.Q u +.pX{.P h n.v.b.k.z.z.z.c.c.c.N.%.%.5XnXmXnXVXCXCXHX                  ",
"                    CXZXAXSXSXSXvX'.[.]..X.X%X X&X%X%X*X*X*X*X[.s 5.6.iXT u l.P.R.Q.W.E.F.H.F.F.P.I.^ s o e {.o.R Z.z.b.k.v.b.a.y.y.v.a.b i /.wX6.w ~ l.s.j.s.s.! ! ! s.s.x w X G +.X.P ^ n t.t.t.a.b.n.n.D.N.+X                                                                                                                                                                                                                                                                                                                                                                                                                                                                                                                                                                                                          1.;.V.V.C.D.z.z.D.H.C.U } 4.$ # P l.d.l.l.z.a.a.k.v.k.h U wX5.S z d.k.p.d.j.l...^ .. .z o.1.D X 4 d.v.a.v.v.v.v.v.v.v.C.Q u +.pX{.P h z.v.v.k.d.z.z.c.c.l.N.N.%.5XnXmXnXVXCXCXHX                  ",
"                    CXMXDXZXVXSXNX].L..X.X X.X.X.X%X*X*X*X>X%X[.0 5.7.iX( w  .P.I.R. XE.F.D.D.F.P.I.^ 0 o e {.T P Z.z.v.d.v.M.f.i.y.y.j.b s 5.6X_.u Q c.s.s.! ! ! ! ! ! l.x w X G O.X.S ! r.t.t.t.a.b.n.b.D.N.+X                                                                                                                                                                                                                                                                                                                                                                                                                                                                                                                                                                                                          1.;.V.S.V.C.n.b.n.H.A.P T 5.$ + z  .s.s.j.l.d.d.k.k.j.h Y 6X5.a l z.a.t.s.z.z.j.! ! ..z o.1.G X 4 p.v.v.v.v.M.M.v.M.M.n.! u X.pX{.P k z.k.b.k.k.z.l.z.C.l.l.N.%.5XmXnXbXAXZXMXHX                  ",
"                    xXCXVXVXVXVXNX].G..X X.XE..X X%X*X*X%X%X%X[.8 >.6.iX( u %.P.I.R..XE.F.D.F.F.I.D.^ 0 o : 7.T T Z.z.v.d.b.M.i.i.y.y.j.b s 5.wX_.u ~ c.s.p.! m ! ! ! s.l.x w X G #.X.P ^ n t.t.y.a.b.b.b.D.N.+X                                                                                                                                                                                                                                                                                                                                                                                                                                                                                                                                                                                                          4.;.S.S.V.C.H.b.b.D.B.P T 5.$ + z  .s.s.l.l.d.d.a.k.j.h Y 6X4.a k z.a.t.s.d.d.s.! ! ..z o.,.D X 4 s.v.v.f.v.M.v.M.f.M.n.! u o.pX{.P k z.k.b.b.k.z.l.c.c.l.l.N. .5XnXbXbXMXZXMXHX                  ",
"                    xXCXDXVXVXVXNX].G..X.X.X.X.X.X X.X*X%X X%X[.3 -.6.pXX.u  .L.I.R.E.P.I.H.F.I.H.D.~ 0 o : {.U T Z.z.v.d.b.M.f.i.y.y.j.b s 5.wX_.u ~ c.p.p.! m m m ! s.l.x w X } #.X.T ^ n r.t.y.a.d.b.b.D.N.+X                                                                                                                                                                                                                                                                                                                                                                                                                                                                                                                                                                                                          4.;.V.%.N.C.H.b.H.D.N.P T 5.$ + z ..! s.j.l.d.d.d.d.s.h Y wX4.a x z.a.m p.d.d.s.! ! ..z o.@.H X 4 j.v.v.v.v.M.v.v.f.M.n.! u o.pX{.P k z.k.b.b.k.z.l.c.l.l.N.l.^ 7XVXVXbXMXCXCXHX                  ",
"                    xXMXbXVXVXSXNX@X`..X.X X.X.X.X.X X=X X X%X].3 -.6.pX( u  .L.P.E.E.P.H.H.F.F.I.D.~ 0 o : {.U T K.z.v.d.v.M.v.f.y.y.j.M s _.wX_.u Q c.p.s.! ! m m ! ! l.x w X ' #.X.) ^ v r.t.y.y.a.k.b.D.B.+X                                                                                                                                                                                                                                                                                                                                                                                                                                                                                                                                                                                                          4.;.V.%.N.C.H.H.H.H.B.P T 5.$ + z ..s.s.j.l.s.s.d.d.j.k Y wX4.s x z.a.p.p.a.d.s.! ^ ..P o.+.H X 3 d.v.v.v.v.M.M.M.M.M.b.! u o.pX{.S h z.v.b.b.b.k.z.z.l.c.c.s.^ 7XSXVXVXMXZXCXJX                  ",
"                    xXCXbXVXVXSXNX@X[..X.X X X.X.X.X X*XXX X&X[.3 -.6.pXX.w %.L.P.E.E.I.H.H.F.F.I.D.~ 0 o q OXT T K.x.v.d.v.M.v.i.y.y.j.b i _.wX_.u Q c.! ! ! ! ! ! ! ! s.x w X [ O.( *.^ v r.t.t.t.a.k.b.D.N.+X                                                                                                                                                                                                                                                                                                                                                                                                                                                                                                                                                                                                          4.;.S.%.S.C.H.H.F.H.C.d T 5.$ + z  .s.s.j.l.s.d.d.d.j.h U wX4.s x l.t.p.p.a.d.l.^ ^  .P o.+.A X 4 s.v.v.v.v.M.v.M.M.M.n.Q s o.pX_.S k x.v.b.b.b.k.z.z.c.c.l.^  .7XSXVXVXCXCXxXHX                  ",
"                    CXAXVXVXVXVXNX-X[..X.X X X X X.X X*X=X=X%X[.3 -.6.pX( w %.L.P.E.E.I.H.D.F.F.F.D.~ 0 o e OX} T Z.z.n.f.v.v.v.a.y.y.j.b i 5.wX_.u ~ c.! ! ! m ! ! ! ! s.k w @ G #.( -.^ v t.t.t.a.d.k.b.D.N.+X                                                                                                                                                                                                                                                                                                                                                                                                                                                                                                                                                                                                          4.;.Z.V.V.D.H.b.H.H.S.d T 5.$ + z l.s.j.j.l.j.d.s.d.j.i U eX4.p I l.t.p.p.a.d.l.^ ^  .U o.+.H X 3 p.a.v.v.v.v.v.v.v.M.n.! s o.eX{.z h x.v.M.M.b.k.z.c.z.l.l.s. .7XSXnXVXCXCXxXJX                  ",
"                    CXAXVXZXVXVXvX-X[..XE. X XQ.Q..X X*X=X=X*X[.3 4.7.pXO.w %.L.I.P.P.F.H.D.F.I.F.D.~ 0 o e OX} T Z.z.v.k.v.v.f.a.y.a.j.b s 5.wX_.u ~ c.p.! ! M m ! ! ! s.k w @ G #.X.2.^ n p.r.t.a.k.b.b.C.l.+X                                                                                                                                                                                                                                                                                                                                                                                                                                                                                                                                                                                                          4.;.S.V.V.D.H.n.H.H.N.d G 5.$ + z l.s.s.j.j.j.s.s.s...k U pX4.u I l.p.j.p.a.z.l.! ! ..P o.+.H o 4 p.k.k.k.v.v.v.v.v.v.v.! s o.eX{.P l z.v.v.M.n.v.z.c.c.z.c.l. .7XVXVXAXMXMXxXHX                  ",
"                    CXAXVXVXVXSXlX@X[.E.E.E.Q.Q.Q. XXX*X=X=X=X[.3 4.7.iXO.w %.L.I.F.F.H.D.D.F.I.F.D.^ s o e OX} T Z.z.v.k.k.v.a.a.y.a.j.b s 5.wX6.u Q c.s.s.! m m m ! ! s.l w @ G #.X.2.^ n p.r.r.t.k.z.z.C.N.+X                                                                                                                                                                                                                                                                                                                                                                                                                                                                                                                                                                                                          4.;.S.%.V.D.n.n.H.D.N.d G 4.$ + z l.s.! ! ..s.s.s.j.l.i U eX1.w z j.t.j.! d.z.l.! ! ..P X.+.H o 3 ! k.v.v.v.v.v.v.v.v.v.Q s o.eX_.P l z.v.M.M.n.v.z.x.z.z.B.l.^ 7XVXZXZXMXMXMXHX                  ",
"                    GXMXZXbXVXVXNX].L..XE.Q.Q.Q. X XXX=X=X*X=X.X8 5.7.iXX.w  .L.H.P.P.H.H.D.H.I.P.D.Q s X e {.o.o.K.c.v.k.b.v.a.v.a.t.l.x s 5.wX5.u Q l.s.s.! m M m ! s.! x w X G @.J +.^ d.n t.r.a.k.z.z.c.N.+X                                                                                                                                                                                                                                                                                                                                                                                                                                                                                                                                                                                                          4.;.S.%.C.H.H.H.F.H.S.d T 1.$ $ z c.j.j.j.! ! s.s.! ..i T wX@.w I l.t.p.! a.d.l...! ..P T +.H X 3 ! a.y.a.v.v.v.v.f.v.n.Q s o.wX6.P l v.v.M.v.b.n.z.x.z.z.l.l.^ 7XVXVXAXAXMXxX                    ",
"                    GXCXZXDXVXVXNX].L..XE.Q.E.Q. X XXX=X=X=X=X&X0 5.7.pXX.w  .L.H.P.P.F.H.H.F.P.F.D.^ s X r _.o.) Z.c.v.k.v.v.f.d.a.t.l.x s 5.wX6.u Q c.s.s.! m M m ! s.! x w X G #.G T Q p.n r.r.a.a.z.z.c.N.+X                                                                                                                                                                                                                                                                                                                                                                                                                                                                                                                                                                                                          4.;.V.V.A.D.n.D.H.H.V.S G 4.$ $ z c.j.j.j.! ! ! ! ! ..s T wX@.w I l.t.! ! a.d.j.! ! ..P T +.A o 3 ! a.y.a.v.v.v.v.v.v.n.Q s o.wX6.P x k.v.M.v.M.v.z.x.z.z.l.N.^ 7XVXVXVXAXMXMXJX                  ",
"                    GXAXZXDXVXVXNX].`..X.XQ.W.Q. X XXXXXXX=X=X&X0 5.7.pXX.w  .L.F.P.P.I.H.H.F.I.F.D.! s X e _.o.T Z.z.v.d.b.v.a.a.t.r.j.x s 5.wX6.u Q c.j.s.! ! m ! ! s.! x w X G O.D S I m m r.r.j.a.k.z.x.N.+X                                                                                                                                                                                                                                                                                                                                                                                                                                                                                                                                                                                                          1.;.V.V.A.D.b.n.H.G.C.d G 1.$ + z c.j.j.j.! ! ! ! ! ..a S wX@.u I l.t.! ! a.a.l.^ ! ..z T +.A o 4 ! k.y.a.k.v.v.v.v.v.v.W s o.wX_.P j k.i.v.v.b.v.z.z.z.z.l.N.^ 7XnXMXVXAXMXxXGX                  ",
"                    CXAXVXDXVXVXNX].L.[.E..XE.Q. X XXXXXXX=X=X.X0 5.7.pXX.w  .I.F.E.P.I.H.H.H.F.F.H.! s X q _.o.T ;.z.k.a.k.d.a.y.t.n j.x s 4.6X6.u ~ c.l.j.! ! ! ! ! s.! z q . G O.J C I n r.r.r.j.a.z.z.x.N.$X                                                                                                                                                                                                                                                                                                                                                                                                                                                                                                                                                                                                          4.;.V.V.A.H.b.b.F.G.A.a G 4.$ + z c.l.j.l.! ! ! ! !  .a S wX,.p I l.t.m ! a.a.l.^ !  .a T @.H o 4 ! k.y.a.d.d.f.v.v.M.v.M s o.wX6.P j k.i.v.b.b.v.k.z.z.c.l.N.~ 5XmXbXVXAXMXxXUX                  ",
"                    GXZXVXDXVXVXnX$X`.[.P.E.Q.Q..X XXXXXXX=X%X[.7 5.7.pXX.u  .L.H.E.P.F.H.n.n.F.F.H.! s X q _.+.T ;.z.k.p.a.a.y.t.t.n j.x s 4.3X5.u Q c.j.j.! ! ! ! ! l.! x q . G #.O.S Q n r.r.r.p.d.z.z.x.N.$X                                                                                                                                                                                                                                                                                                                                                                                                                                                                                                                                                                                                          4./.Z.V.C.H.b.H.F.G.V.d G 4.$ + z c.l.j.l.s.! ! ! s. .a S wX1.p Y l.t.m ! p.d.l.! !  .a T ,.H o 4 ! a.a.a.a.a.f.v.v.M.b.M s o.wX5.P h k.i.v.b.b.b.d.l.z.c.l.N.^ 7XmXzXbXAXCXxXUX                  ",
"                    GXAXVXDXnXVXmX'.L.L.P.E.E.Q.E. XXXXXXXXX XP.5 5.7.iX+.u  .L.D.I.P.F.H.D.m.F.F.H.! s X q _.+.T ;.z.k.a.a.y.y.t.t.n j.x a 5.6X6.u Q l.j.s.! ! ....^ l.! x w . F #.O.S Q n r.r.r.p.d.z.z.c.N.$X                                                                                                                                                                                                                                                                                                                                                                                                                                                                                                                                                                                                          4.;.S.V.C.H.b.H.H.G.V.a G 1.$ + z c.l.j.l.s.! ! ! !  .a S wX,.p Y l.t.m ! d.l.l.! !  .d } ,.H X 3 ! a.a.a.a.a.f.i.v.v.n.M u o.wX5.z h k.i.v.v.b.b.d.l.c.N.l.N.^ 7XnXbXzXMXCXCXJX                  ",
"                    GXAXVXVXVXVXvX'.|.`.F.E.E.E.Q..XXXXXXXXX XP.5 5.7.pXX.u  .D.H.P.E.F.H.H.m.F.F.H.! i X q _.o.T ;.z.k.p.a.t.y.u.r.n j.x a 6.6X6.u Q l.j.s.! ! ! ! ^ l.! x q . F #.X.D Q n m r.v p.a.z.z.c.N.+X                                                                                                                                                                                                                                                                                                                                                                                                                                                                                                                                                                                                          1.;.V.Z.A.H.b.H.H.G.Z.a G -.+ + z c.l.j.l.l.! s.! s. .s S wX@.w I l.t.m ! d.d.s.! !  .d } ,.H o 3 ! y.a.a.a.a.f.i.v.v.n.Q u o.wX5.z h v.v.v.v.g.b.d.c.c.N.N.N._ rXVXbXbXbXCXCXHX                  ",
"                    CXAXDXVXVXVXvX'.(.[.P.E.E.E. X XXXXX X XQ.P.0 5.6.iXX.u  .L.H.E.E.F.F.H.n.F.F.H.! i X q 6.{ T ;.z.k.r.t.t.t.r.r.n s.I a 5.6X6.u ~ c.j.j.! ! ! ..^ l.! x q o F O.J D ~ ! m n v p.a.z.z.c.N.+X                                                                                                                                                                                                                                                                                                                                                                                                                                                                                                                                                                                                          4.;.S.A.J.D.b.n.F.G.A.d G -.+ + z C.z.l.z.d.s.s.s.s.l.s S wX+.6 x z.p.m ! s.d.s.! ! ..d } ,.H X 8 ! y.a.a.a.a.f.f.v.v.n.Q s o.wX5.z j v.v.v.v.g.k.d.c.c.B.N. .~ rXVXzXbXMXMXCXHX                  ",
"                    CXZXVXVXVXVXmX).A.P.[.P.E.E. XQ.XXXXXXXX XP.7 5.{.iXT u &.J.G.P.E.F.H.D.H.I.F.H.! 0 O e -.R E S.z.a.n p.r.r.v t.r.s.I a 5.6X6.w ~ N.l.! ! ! ! m ! ! ..z q . F O.J A ~ M n n r.p.a.z.z.c. .OX                                                                                                                                                                                                                                                                                                                                                                                                                                                                                                                                                                                                          5.;.;.Z.J.C.z.D.F.P.A.d H 1.+ + x z.z.z.z.d.d.d.d.z.l.i T wX+.u x k.y.t.p.s.l.s.! ! ..d } 1.H X 3 ! y.t.a.a.a.a.f.i.v.m.m s o.eX_.k l b.v.v.v.f.k.z.z.c.l.l.l. .rXMXMXVXVXMXCXHX                  ",
"                    CXZXVXDXVXVXvX).`.[..XP.E.E. X XXXXXXXXX XP.7 5._.eX} u %.J.C.P.E.F.H.D.C.D.F.H.! 0 X e -.T P S.z.a.n p.r.n v t.r.s.x a 5.6X6.w ~ V.l.! ! ! ! ! ! ! j.z q @ F O.J C ~ M n n r.a.a.z.z.c. .OX                                                                                                                                                                                                                                                                                                                                                                                                                                                                                                                                                                                                          4.2.;.Z.J.C.B.H.F.P.A.A H ,.$ 4 I B.z.z.z.d.a.a.p.k.c.s T wX1.u I k.a.a.p.s.l.s.! ! ..d X.1.D X 3 ! a.t.a.p.p.a.a.i.v.v.M 0 o.wX_.k b b.v.v.v.v.k.z.z.c.l.l.l. .rXMXMXVXVXMXMXHX                  ",
"                    CXZXVXDXVXVXvX'.[.[..XP.E.E. X XXXXXXXXX X[.7 5._.iX} 0 | J.G.I.E.F.D.n.D.H.H.H.! 0 X q >.U S %.z.a.n m r.v v r.r.! x a 5.6X6.w ~ C.c.p.s.p.! ! s.! j.x q @ F O.J C ~ m m r.r.a.z.z.c.c. .$X                                                                                                                                                                                                                                                                                                                                                                                                                                                                                                                                                                                                          4.2.S.S.A.C.B.H.I.P.V.A H 1.$ 4 I B.k.k.v.d.d.p.p.k.z.i S wX1.p I z.a.t.p.s.j.s.! ! ..d X.1.D X 8 ! a.r.t.p.p.d.a.y.v.z.M w X.wX6.i x b.v.v.v.v.k.z.c.c.l.l.l. .eXVXZXAXVXMXMXHX                  ",
"                    CXZXVXDXVXVXvX'.[.[..XP.E.E. X XXXXXXXXX X[.7 5._.eX{ 0  .L.G.P.E.H.n.b.H.H.H.D.Q 0 X q 5.P S %.z.a.n m r.v v r.r.! x a 5.6X{.w ~ B.c.s.s.p.! ! l.^ s.x q X F O.J C ~ / m r.t.a.z.z.C.C. .$X                                                                                                                                                                                                                                                                                                                                                                                                                                                                                                                                                                                                          4.2.Z.S.A.B.B.D.H.P.S.A H @.$ 4 x c.z.k.v.v.v.a.y.v.c.i S wX1.p P l.k.p.p.! ..s.! ! ..d X.1.D X 3 ! a.r.t.p.p.j.a.y.v.x.M w X.wX5.s l b.v.v.M.v.k.z.c.l.l.l.l.%.eXZXZXAXVXMXMXHX                  ",
"                    CXVXDXDXVXDXmX'.`.L.[.P.E.E.Q.Q.XXXXXXXX X.Xu 2._.eXR u %.L.H.F.Y.F.n.n.n.D.H.C.W 0 o q 5.P P &.z.k.n p.r.v v r.r.s.I a 5.6X{.u ^ B.c.s.d.p.! ! s.s.l.z q . A O.J C Q n n a.t.a.d.z.c.c. .$X                                                                                                                                                                                                                                                                                                                                                                                                                                                                                                                                                                                                          4.2.Z.Z.A.S.B.B.D.H.S.A F @.+ 4 x c.z.v.M.v.v.v.y.v.z.i U 6X1.t Y l.z.p.p.s...s.! ! ..a X.1.D X 8 ! p.t.t.p.d.a.a.y.v.z.b u o.wX5.s l b.v.v.M.v.k.z.l.l.l.l.l.%.eXZXZXAXVXMXMXHX                  ",
"                    CXAXnXDXDXDXvX`.`.G.P.P.E.E.Q.Q.XXXXXXXX X[.u 1.5.pXR u %.J.D.G.I.F.H.H.D.x.C.C.Q s o q 6.U P &.z.k.n p.r.v v r.r.s.I a 5.6X{.u ~ B.N.s.s.! ! ^ ^ ^ ..x q o A O.J C W n n a.t.a.a.z.c.c. .$X                                                                                                                                                                                                                                                                                                                                                                                                                                                                                                                                                                                                          4.2.;.Z.Z.S.B.B.D.H.S.f A +.+ 4 x l.z.v.M.v.v.v.k.v.k.i U 5X1.w Y l.k.p.p.s...s.! ! ..p X.1.C o 3 ! r.a.a.p.s.d.a.t.a.z.b u o.wX5.i b b.v.v.M.v.k.z.l.l.l.l.l.%.eXZXCXAXAXMXMXHX                  ",
"                    CXVXnXDXDXVXlX).`.G.P.E..XE.Q.Q.XXXXXXXX X[.u +.5.iXT u ;.S.V.A.G.G.A.C.C.C.C.C.Q u o q {.U T ;.l.a.n p.r.v r.t.r.s.I a 5.6X_.w ~ S.N.^ ..^ ^ Q ^ ! ^ z q o Z O.J p W n m a.t.a.a.z.c.c. .$X                                                                                                                                                                                                                                                                                                                                                                                                                                                                                                                                                                                                          4.2.;.^.^.S.B.C.C.D.N.f A +.+ 4 x l.z.v.M.v.v.b.v.b.k.i U 5X-.w Y l.a.d.p.s.j.s.! ! ^ a o.1.A o 2 Q n m ! ! ^ s./ r.a.l.l u X.wX5.i W D.v.v.M.v.k.k.l.l.c.c.l.%.eXZXMXAXAXMXMXHX                  ",
"                    CXVXVXDXVXVXhX).`.P.P.E..XQ.Q.Q.!.XXXXXX X[.w X.4.iXT y -.:.&.&.%.%.%.&.;.Z.V.V.Y u o e _.P R ;.l.d.n p.r.v r.t.r.d.I a 5.wX6.w _ S.V. . . ...~ Q Q ~ z q . Z O.J p Q n m r.r.a.d.z.z.c. .$X                                                                                                                                                                                                                                                                                                                                                                                                                                                                                                                                                                                                          4.2.;.^.^.V.V.C.C.D.N.d A +.+ 4 z  .c.k.n.g.b.z.z.b.z.i Y 5X;.u Q z.d.d.d.s.l.s.! ! ^ d o.1.A o 2 W M Q Q Q ~ ^ W M ! ..z w +.wX5.s b H.v.v.M.b.v.k.c.l.c.c.l.N.eXZXbXAXVXMXMXHX                  ",
"                    CXAXnXDXnXSXlX(.`.[.E.E.E.Q.Q.Q.Q.XXXXXXXX[.w O.4.wX[ g p p p p p p p f A A a k z s o q OXP R &.l.p.p.d.j.r.t.r.r.s.I i -.wX6.f ;.(.;.>.;.&.| | ~  .^ z > . Z O.J p W n n r.r.a.z.z.z.C.%.OX                                                                                                                                                                                                                                                                                                                                                                                                                                                                                                                                                                                                          4.2.;.Z.Z.Z.V.C.G.D.N.p H @.$ + z %.l.z.z.B.N.l.s.d.^ s U 5X/.a k z.a.p.p.s.l.s.! ! ^ d X.1.A o 2 ~ b R T } { { R Y Y R T w X.pX5.u I H.v.v.M.M.k.z.z.c.c.l.j. .sXVXxXVXVXZXZXHX                  ",
"                    CXAXVXDXnXVXhX`.G.[.E.E.E.Q.Q.Q.Q.XXXXXX=X[.w #.@.{.G G } X.G G G G H A Z f s i a u o q $XP R &.l.p.p.d.a.r.e.r.p.d.I a ;.wX7.A R R R { :.$.&.&.;.;.&.U > . Z O.F p Q Q m r.r.a.a.z.z.C.%.$X                                                                                                                                                                                                                                                                                                                                                                                                                                                                                                                                                                                                          6.;.;.;.Z.Z.N.V.G.D.N.A F @.$ + P %.&.N.V.%.%.$.~ ^ ~ d } 6X*.u x z.r.p.p.^ l.s.! ! ^ d o.1.B o 9 Y i 8 q y y t y w u w p e O.wX_.s I D.v.f.v.v.k.z.z.c.c.l.j. .sXVXxXVXAXSXZXJX                  ",
"                    xXAXVXVXnXVXlX`.`.P.P.E.E.Q.Q.Q.Q.!.XXXXXXP.0 -.>.o.o.+.+.+.+.+.+.+.+.#.+.+.U z d y o q $XU R &.l.p.p.p.a.r.e.r.r.l.x s 5.2X6.G T P S S S f d d a a i s & . Z O.K p Q ! m r.t.a.a.d.z.C. .$X                                                                                                                                                                                                                                                                                                                                                                                                                                                                                                                                                                                                          6.2.;.;.Z.V.N.V.A.C.N.S A 1.$ + P z d i a a C B s a s p } wX>.3 a j.j.p.! ! s.s.! ! ^ d o.1.B o 9 x 5 w g Z A A A S S A D H X.OX5.a x z.f.f.v.v.k.z.z.l.l.l.s.%.sXZXMXVXAXZXCX                    ",
"                    xXAXVXVXVXSXlX[.`.P.F.F.R.R.Q.Q.!.XXXX!. XP.5 -._.*.5.*.o.-.*.*.+.+.+.+.+.+.o.R S w o q {.P R &.l.r.m r.a.u.e.r.v s.I s 5.4.6.4.5./.5.>.5.>.>.>.-.R Y a & 1 Z O.J C Q Q m r.t.a.a.z.z.c. .$X                                                                                                                                                                                                                                                                                                                                                                                                                                                                                                                                                                                                          4.2.Z.S.Z.V.N.V.G.G.N.A A 1.$ + d u 8 w y t B B B a a f H {.>.w z ! j.p.p.! s.s.! ! ^ a o.1.B o 9 x 0 f S G T T T T } T T ( E ) ;.a x n.f.f.v.v.k.z.z.l.l.l.j.%.sXZXMXAXVXMXZX                    ",
"                    CXAXVXVXVXVXvX'.[.P.F.I.E.E.Q.Q.!.XX!.Q. XP.5 :.).;.2.=.=.^.2.2.2.2.1.-.-.*.{ { P w o r $XP U  .j.r.r.r.a.r.e.v n s.x s 5.+.@.@.*.;.;.-.5.5.>.5.;.:.~ P : . B O.' S Q n n r.r.p.a.z.z.c. .$X                                                                                                                                                                                                                                                                                                                                                                                                                                                                                                                                                                                                          4.;.;.=.Z.V.N.C.L.G.V.A A ,.O O d u f S S G J J G T T } G S +.w R ..p.! ! ! s.s.p.p.^ a o.1.B o $ Y z P U R ) R T R { R R *.) E ;.i j n.f.f.v.v.k.z.z.l.c.l.l.%.sXZXMXAXVXMXCX                    ",
"                    CXZXVXVXnXVXlX`.[.P.E.E.R.E.R.Q.!.XX!.Q. XP.7 *._.;.=.^.;.2.*.*.;.2.2.;.=.:.$.R S q o r $XY P | p.r.r.r.a.r.v v r.! z s _.4.7.7.;.;.2.2.-.-.-.;.-.$.Y a & 1 g #.O.S Q n n r.r.a.a.z.z.c. .OX                                                                                                                                                                                                                                                                                                                                                                                                                                                                                                                                                                                                          4.;.;.=.Z.Z.N.C.L.G.S.f H @.O O A f U U } } X.X.X.R R } #.T ;.8 z ..d.! ! s.s.s.s.p.! a X.1.B o $ I Y Y { $.$.$.$.{ | $.$.=.*.R ^.i j b.f.i.v.v.a.z.c.l.l.l.l.%.sXZXMXAXAXMXCX                    ",
"                    xXZXVXDXnXDXhX`.[.P.E.E.E.R.E.Q.Q.XXXXQ. XP.3 -.5.-.*.-.*.o.*.*.*.*.$.o.{ R R U p w X e _.Y P | ! r.r.r.y.r.v v p.! z a _.5.4.4.=.;.=.2.*.*.o.*.-.;.| d & 1 B #.X.C W / n r.r.a.d.z.z.c. .+X                                                                                                                                                                                                                                                                                                                                                                                                                                                                                                                                                                                                          4.;.;.=.Z.Z.N.C.I.G.V.p F +.O # t p S } { o.o.+.+.$.$.R :.$.;.u I s.p.! ! s.! s.s.p.! i X.,.B X $ z x Y R R R R R R R { T ) ) R Z.i c v.f.i.f.v.k.z.z.l.l.l.l.N.sXZXMXVXAXZXCX                    ",
"                    xXVXDXDXnXVXhX`.`.P.P.F.E.R.E.R.W.!.XXQ. XP.3 @.4.X.X.T T o.X.T T T U U T T T U P T r B {.R P ~ ! r.r.u.t.u.v N ! W z a _.-.,.1.1.2.*.*.+.-.-.+.o.o.P p $ . Z O.J p W ! ! r.a.a.a.d.z.V. .+X                                                                                                                                                                                                                                                                                                                                                                                                                                                                                                                                                                                                          4.;.;.=.Z.A.V.C.L.G.%.p G O.X X e t A T T o.X.X.X.) ) o.} o.$.u x ! d.! ! s.s.s.s.s.^ s o.@.B X & z k Y Y R R R R R T o.T R R ) ;.0 j z.f.i.v.v.k.z.z.l.l.l.l.%.sXMXMXVXVXMXCXJX                  ",
"                    xXMXbXVXnXnXkX`.`.L.P.F.F.F.R.W.Q.XXXXQ. X[.7 O.,.X.X.+.X.X.o.o.o.o.o.X.o.o.R ) ( ( ( T T o.z | ! n n r.t.t.v n / Q Y a 5.( ' ' J ( J J J J J F F H H B r : F #.O.p R ! / a.a.a.d.d.c.C.V.+X                                                                                                                                                                                                                                                                                                                                                                                                                                                                                                                                                                                                          4.;.S.Z.Z.Z.V.C.`.G.%.p Z #.& & r Z A G G G J J J X.X.' J X.-.8 x ^ m ! ! j.d.s.s.! ^ i U { T D T ) R R R $.$.$.*.*.*.o.o.+.-.-.2.u k z.i.y.f.b.k.z.z.l.s.l.l. .tXnXnXMXAXMXCXHX                  ",
"                    MXAXDXDXnXnXkX`.`.L.P.F.F.R.W.Q.Q.=X XW. X[.7 +.4.@.+.X.( X.T G D G D D E T T T T T G D S S i Q Q n n n r.r.r.r./ ^ P a 6.G ' ' ' ' ] ] O.] ] ] ] ] O.O.] ' F F A p ~ ^ / r.p.a.d.d.z.A.V.+X                                                                                                                                                                                                                                                                                                                                                                                                                                                                                                                                                                                                          4.;.;.S.Z.Z.A.A.|.G.%.A t ] Z K J ' O.O.O.+.@.@.,.,.,.6.4.4.5.u z Q Q ! ! s.p.s.! ! ~ i z U U T o.:.$.*.:.-.;.;.;.;.-.;.>.2.2.-.-.w k z.y.y.k.v.k.d.b.z.l.l.l. .eXnXbXMXVXCXCXHX                  ",
"                    MXMXDXVXnXVXkX`.`.L.H.H.F.R.R.Q. X=X XR.Q.[.a X.1.-.X.( ( X.( T T T T T T T T P S D D D S P k ~ ! n n n t.r.v r.n Q k u _.D A A A t B A Z Z Z Z A A A A A A A t t a ~ ! p.r.r.d.a.z.C.A.%.+X                                                                                                                                                                                                                                                                                                                                                                                                                                                                                                                                                                                                          4.;.;.S.Z.Z.A.A.G.A.%.s y F ' ,.@.@.@.,.,.1.,.,.,.,.@.#.@.@.-.0 z Q ^ ! s.j.j.d.s.^ ^ i d U T R o.~ R R R R R R R R R R R R R R R w k k.~.y.k.b.a.a.D.z.l.l. .%.eXnXnXnXVXCXCX                    ",
"                    xXMXVXVXnXnXlX`.A.C.D.H.F.F.Q. XXX=XQ.R.W.P.&.*.*.*.o.o.o.o.) R R R R R R Y R R T T T R o.| Y ..! n v n t.r.r.r.n ! k s -.S S S S S D D D D S D S S A f A A D f S Y Q m r.t.r.p.d.z.C.A.%.#X                                                                                                                                                                                                                                                                                                                                                                                                                                                                                                                                                                                                          4.;.;.S.S.Z.Z.C.G.A.%.A G G ' ( ( ( G G G G D D D D A A D D T 0 z W ..! ! s.d.d.s.^ ^ z z U U Y Y Y P P z z z z z x I P P P z z P s x k.y.y.a.v.k.k.b.z.j.l. .~ eXnXbXbXVXZXCXJX                  ",
"                    CXZXVXVXnXnXvX(.A.C.H.F.F.F.Q. X X XQ.R. X[.(.;.-.-.*.:.-.$.R R R Y Y Y Y I P P P P P P P x Q ! ! m v v t.r.r.r.p.! W k U T U U U U U U T T U Y Y Y Y P U U U U R | Q n t.t.t.d.a.z.C.A.S.#X                                                                                                                                                                                                                                                                                                                                                                                                                                                                                                                                                                                                          4.;.;.S.S.Z.V.B.G.A.V.P o.T T D E T D D D D S S S S D S D E R a I W Q Q ! ! ! s.! ! Q I P U Y Y I I Y I I x x x x I I x x x x z x k Q k.y.y.k.v.v.k.z.z.l.s...~ eXnXbXbXVXZXCXJX                  ",
"                    CXZXVXAXnXnXvX(.A.C.G.F.F.F.W.Q.Q. XE.E. X.X(.;.;.;.&.:.:.| | R Y I Y Y I Y Y I Y P P P z x x M m p.r.r.a.r.u.r.p.! Q z s P a i i i s i s i i k k k k k k d z z z Q M p.t.u.a.d.d.z.C.A.S.#X                                                                                                                                                                                                                                                                                                                                                                                                                                                                                                                                                                                                          1.;.;.S.S.Z.V.S.A.A.S.| { T T R R o.T R R R R R R R R R R R R I Y Y b M M n n / / ! Q W Y Y Y I I I I x x x j h h h h h h h j j j c j.v.y.y.k.n.b.k.k.z.l.s...~ eXnXnXnXVXZXCXJX                  ",
"                    GXZXVXAXnXnXlX(.A.C.D.H.P.E.R.Q. X XE.E. X.XA.;.;.;.&.| | ~ ~ Y I I I x x x I z k k k k k k j M m p.r.t.d.u.e.r.n m Q l i i z z k k h k k k x j j j j k k k i i h b M r.u.t.d.d.d.c.C.A.S.#X                                                                                                                                                                                                                                                                                                                                                                                                                                                                                                                                                                                                          1.;.;.S.Z.Z.V.S.A.G.S.K.:.o.o.$.R R U T T U U P I Y Y E R P R Y ~ x b Q n n / ! ! ! Q Q Q W Y I x x x x c x j j j j j j j N N j j N p.v.i.y.v.n.b.k.z.z.j.s. .%.eXnXnXbXVXZXCXHX                  ",
"                    CXAXVXAXnXnXlX(.A.C.B.D.F.E.E. X X XE.F..X.X(.Z.&.$.$.| ~ ~ ~ Y Y Y Q I I x x x z z x z k h c M n t.r.r.a.r.e.r.n s.Q x x h k h h h h j j j c j j j j j h h h h h M M n v t.d.l.l.z.C.A.=.#X                                                                                                                                                                                                                                                                                                                                                                                                                                                                                                                                                                                                          1.;.;.%.S.K.Z.C.G.G.S.V.:.;.R ~ ~ ~ R R R R Y Y Q Q ~ ~ ~ Y Y Y W x W Q Q ! / / ! ! / Q Q W W W b b b c c c c b b N b N N M v v v m k.k.~.f.v.n.b.k.z.z.d.l. .%.tXVXVXVXMXZXCXHX                  ",
"                    MXAXVXVXnXVXjXJ.A.B.B.H.E.E.E.Q. XQ.E.E.E..X(.;.:.:.:.| R $.~ ~ ~ R Y I I x x c x x z z z h N n r.r.r.r.r.t.e.n n n ! x j h h h h h j j j j j j j j j j j j h h h l n m r.p.d.z.z.c.C.A.Z.#X                                                                                                                                                                                                                                                                                                                                                                                                                                                                                                                                                                                                          1.;.&.=.=.Z.Z.C.C.G.C.%.&.&.%.%.^ | | { { ~ ~ Q Q Q Q Q ~ W I Q Q W W Q ! ! ! n n ! ! ! ! Q M M M M M b b b M M M n n n n v v n n r.a.f.v.y.v.H.b.k.z.z.p.l. .%.eXSXMXVXVXZXCXHX                  ",
"                    MXMXVXDXnXSXjXJ.A.C.D.H.P.E.Q. X X XE.E.E.[.(.;.$.$.$.R R R R R R Y I I x z x x x x x x x j N n r.r.r.r.r.r.r.r.r.n ! c h h j j j j j j j j j j j j j j j j h h j c m m m p.l.l.z.C.C.A.^.#X                                                                                                                                                                                                                                                                                                                                                                                                                                                                                                                                                                                                          1.;.%.=.S.Z.Z.V.C.A.A.%.&.&.%.%. .| | | | ~ ~ ~ ! ! ! ~ ~ Q I Q ~ W Q ! ! ! ! ! ! ! ! ! ! ! m M M M M M b M M M b n n n n n n r.r.t.a.f.v.a.v.H.b.k.z.z.s.l. . .eXVXnXVXAXZXCXHX                  ",
"                    MXMXVXDXnXSXlX(.A.C.D.H.F.R.Q. X X XR.E.E.[.A.;.$.$.$.R R R R R R Y Y P ` k x x x x x x x j j M r.t.t.r.r.r.r.n m n ! c h h j j j j j j j j j j j j j h j j h h l x ! ! m ! l.l.z.C.V.A.^.2X                                                                                                                                                                                                                                                                                                                                                                                                                                                                                                                                                                                                          1.;.;.S.S.Z.Z.S.B.C.A.%.&.%.%. . .| | | | ~ ~ Q ! ^ ^ ! ~ Q W Q Q Q Q ! ! ! ! ! ! m m p.p.p.! ! m m m / / n n n n n n n r.r.r.r.r.t.a.f.v.a.v.H.b.k.k.z.p.s. .%.rXVXnXVXAXZXCXHX                  ",
"                    MXMXVXDXnXVXNX`.A.A.H.H.F.F.R.Q.Q.Q.R.E.E.[.J.;.$.$.$.) R R R R R Y Y P P k x x x x x z x j j M m r.r.r.r.r.r.n ! n ! c h h j j j j j j j j j j j h h h j j h h j x Q ! ! j.l.l.c.B.V.Z.Z.2X                                                                                                                                                                                                                                                                                                                                                                                                                                                                                                                                                                                                          1.;.;.S.S.K.K.V.N.C.C.%.%.%.%.^ ~ | | ~ ~ Q Q Q ! ! ^ Q ! Q x W Q Q M ! ! ! ! ! ! ! m n m p.m n n n n n n v v M v v v n r.r.r.r.r.r.a.f.v.f.v.F.n.k.k.z.d.s.N.%.eXSXnXVXAXZXCXHX                  ",
"                    MXMXVXDXnXVXNX`.A.C.G.H.F.T.R.W.Q.Q.R.R.E.P.Z.;.*.$.$.o.R R R R Y P P P P z x x z P I x x j j M n r.r.t.p.p.r.m ! M ! l h h j j j j j j j l j j j j h h j j j j j x Q Q ! l.l.l.c.V.N.Z.;.2X                                                                                                                                                                                                                                                                                                                                                                                                                                                                                                                                                                                                          1.;.S.S.S.K.K.V.N.C.C.%.%.$.| ~ ~ ~ Y ~ Q Q b M M Q Q Q Q W x W Q W M m n m m ! ! m m r.p.a.p.m n n n n n v v v v v v n r.n n r.r.r.y.a.v.f.v.F.n.k.k.z.d.! N.%.rXSXnXVXAXZXCXJX                  ",
"                    CXAXVXDXnXVXNX(.A.C.H.F.F.R.R.Q.Q.Q.R.R.E.E.J.;.*.$.*.$.o.o.R R P P Y I I I z z z z z x x x c M n r.r.a.a.p.m m ! M ! l h h j j j h h h h h h j j j h h h h j j j c W M ! l.c.c.c.V.V.Z.Z.2X                                                                                                                                                                                                                                                                                                                                                                                                                                                                                                                                                                                                          1.;.S.Z.S.K.K.V.N.V.V.%. .| ~ ~ ~ Y Y ~ ~ Q W Q M Q Q Q ~ W x Q Q M n m m m ! ! ! p.p.p.d.d.d.p.p.p.p.p.r.r.m n n m n n r.n n r.r.r.y.a.v.f.v.F.n.k.z.z.d.! l.^ 7XSXnXVXAXCXCXHX                  ",
"                    CXZXVXDXnXnXlX`.A.C.D.H.F.R.W.W.Q.Q.R.E.R.P.J.;.:.:.*.$.$.| R Y P P I I Y I z z z z z z x x b M m r.p.a.p.p.p.m ! b Q l l x h h h j x z k k h j j h h h h h j j j b m M M j.c.l.l.V.V.Z.;.#X                                                                                                                                                                                                                                                                                                                                                                                                                                                                                                                                                                                                          1.;.S.Z.S.Z.K.V.N.V.V.%.%.| ~ ~ ~ | { ~ ~ ~ ~ ! ! Q Q Q ~ Q W Q ! n n m m m m m m m p.r.r.a.p.r.n n n n n v v v v v v v v v v v v v y.y.~.f.v.F.H.k.z.z.l.! l.~ 7XSXMXnXAXZXCXHX                  ",
"                    CXVXVXVXnXnXlX[.G.C.H.H.F.F.R.R.R.R.R.R.R.P.Z.;.:.$.$.$.{ R R P P z P P P P P z z z P x x x M n m t.a.a.p.! p.m ! b Q l k x h h j j j j h h h h h h h h h h j j j M ! m m j.c.l.l.N.Z.Z.;.#X                                                                                                                                                                                                                                                                                                                                                                                                                                                                                                                                                                                                          1.;.;.Z.;.;.Z.N.l.V.V.V.%.$.|  .| | | ~ ~ ~ ^ ! ! Q ! Q ~ W b M Q M n n n M M M M n n n r.r.r.r.n n n v v v v v v v v v v v v v v e.y.y.v.f.v.F.H.k.z.z.z.! N.~ 5XSXVXMXAXZXCXHX                  ",
"                    CXVXVXDXnXnXlX].C.D.D.F.F.F.R.R.Q.Q.E.E.E.P.Z.;.$.$.$.$.{ R P P P P P P P d d z z P x I x x N M v u.y.a.p.n n ! M Q Q x h h h h j j j j j j h h h h j h h h h h h Q M M ! l.c.l.l.C.V.S.=.<X                                                                                                                                                                                                                                                                                                                                                                                                                                                                                                                                                                                                          1.;.;.;.;.Z.Z.V.N.V.V.&.%.&.$.| | | | ~ ! ! ! ! ! Q Q ! ! Q Q Q W Q M M M M M M n ! ! n p.a.p.r.r.r.v n n n v n v v v v v v v v v v y.y.v.v.m.F.n.k.b.z.d...N.| 7XVXVXAXAXZXCX                    ",
"                    CXVXVXbXnXnXlX].C.D.D.F.F.F.R.R.Q.Q.P.I.I.L.J.;.:.$.$.$.R R U P P P P P P P d d z P x x x x M N r.u.y.t.p.m n m M Q W l h h j h j j j j j j j h h h j h h h h h h W M M ! l.z.s.l.V.V.Z.;.#X                                                                                                                                                                                                                                                                                                                                                                                                                                                                                                                                                                                                          1.;.Z.;.&.Z.Z.V.%.V.V.%.&.&.$.$.| | ~ ~ ^ ! ! ! ! Q ! ! ! Q Q Q W W W M M M M M M n m n n p.p.n r.v v n v n v v v v N v v v v v v v a.f.v.v.n.F.n.k.b.z.d.! N.| 7XVXVXVXAXZXCX                    ",
"                    CXVXVXDXnXnXNX].A.C.H.H.F.F.R.E.Q.Q.E.F.F.L.J.;.;.:.$.$.R R Y Y P P Y U P P d d z z I x x x M n r.y.a.t.p.m n m M W W l h h j h j j j j j j j h h h j h h h h h h W M M ! l.z.s.l.V.V.Z.;.<X                                                                                                                                                                                                                                                                                                                                                                                                                                                                                                                                                                                                          4.;.Z.Z.&.S.Z.V.%.V.Z.%.&.%.%.%. .| ~ ~ ~ ~ ~ ! ! Q Q ! Q ! Q Q Q Q Q Q ! M M M M n n n n m r.m r.n n v n n M n M N N N v N N v v n a.v.v.v.n.F.n.v.b.z.d.! N. .7XSXVXVXAXZXCX                    ",
"                    CXVXAXVXnXnXNX].C.C.D.H.F.F.E.R.R.Q.E.F.I.P.J.;.&.:.:.$.| R Y P P P Y Y Y P P d P P I I x x M m r.a.a.a.p.! n ! M W W l h h j h h j j j j h h h h h h h h h h h h M M M m j.z.^ s.l.V.Z.;.#X                                                                                                                                                                                                                                                                                                                                                                                                                                                                                                                                                                                                          4.2.Z.K.&.V.Z.V.%.V.J.V.%.%.%.%. .....| | | ~ ~ ~ Q Q Q W Q Q Q Q Q Q ! ! M M M M n n n n m m m n n n n v M M N N N N N N N N N N n a.v.v.v.b.F.n.b.b.z.d.! N. .7XVXVXAXAXZXCX                    ",
"                    CXVXAXVXnXnXlX].C.C.n.H.F.T.R.R.R.R.R.F.E..XZ.;.;.-.&.$.| ~ Y P I I Y Y I P P P P Y Y I x z x M r.p.a.d.! ! m p.n W W l k z j j h h j j h h h h h h h h h h h k h Q M n n d.z.s.s.l.N.Z.;.#X                                                                                                                                                                                                                                                                                                                                                                                                                                                                                                                                                                                                          4././.Z.&.V.Z.V.N.V.J.Z.V.%.%.%.%. ...| | | | ~ Q W Q W M W W M M M n / / / n n n n n n n n n n n v v v v M N v N N N N N N N N N n p.a.y.f.b.F.H.b.b.z.d.j.l.~ 7XVXVXAXAXZXCX                    ",
"                    CXnXAXVXnXnXkX[.C.C.D.F.F.T.R.E.R.R.F.F.R.[.(.;.;.-.:.$.~ R R Y Y Y Y Y P P P P U Y Y I x c c M m a.p.p.! ! r.p.n ! Q x x x x h h h j h h h h h h h h h h h k k h W M n n d.l.s.l.l.N.Z.;.<X                                                                                                                                                                                                                                                                                                                                                                                                                                                                                                                                                                                                          4.2.Z./.V.S.Z.V.N.V.A.Z.V.%.%.%.%.l. .| | | | ~ W W W b M W W M M n M / / / W n n n n n n n n n N v v v v v N N N N N N N N N N N M p.y.y.a.v.F.H.b.b.z.j.l.l.~ 7XVXVXAXAXZXCX                    ",
"                    CXnXVXVXnXnXkX[.C.C.H.F.F.T.R.R.W.R.F.R.E.P.(.;.-.-.:.$.R R R R Y Y I I z z d P Y Y Y P z x x M m a.p.p.! m r.p.n ! Q x x z z h h h h h h k h h h h h h h h k z h Q W v r.p.s.s.l.V.%.S.;.<X                                                                                                                                                                                                                                                                                                                                                                                                                                                                                                                                                                                                          1.;.;./.S.Z.Z.N.N.A.A.Z.V.%.%.N.N.l. . ...| | ~ ~ Q W W W Q Q M M M M W M W W M M M M m M M n n n v v v v v v N N N N N N N N N N M p.k.y.y.v.F.H.b.z.z.l.l.l.~ 7XVXVXAXAXMXCX                    ",
"                    CXVXVXVXnXnXkX[.C.C.H.F.E.T.R.W.Q.R.R.R.W.P.J.;.:.:.:.$.R R ~ R Y Y I I z k a z P Y P z z z W Q p.p.d.p.! m m r.n ! Q x z z k h h k k k z k h h h h k k k k k l k Q W v r.d.s.s.l.V.%.Z.;.<X                                                                                                                                                                                                                                                                                                                                                                                                                                                                                                                                                                                                          1.;.;.K.S.Z.V.N.S.A.J.Z.V.%.%.%.%. ... . ...| | ~ Q W W W Q Q Q M M M W M Q Q b M M M M M M M M M v v n v v v v N N N N N N N N N M p.v.f.y.v.H.n.b.z.z.j.! l.~ rXSXVXVXAXMXMX                    ",
"                    xXVXDXVXnXnXkX`.C.C.H.F.E.R.R.R.W.W.R.Y.W.P.J.;.;.:.;.o.R R R R Y Y Y I I z d P P I k k I x W ! d.a.a.p.m ! n r.m m ^ x k z z z k k k k k k i k k k k i i i k z k ~ ! m r.p.s.l.s.V.Z.Z.Z.<X                                                                                                                                                                                                                                                                                                                                                                                                                                                                                                                                                                                                          @.;.;.Z.V.S.V.N.N.A.`.V.Z.%.%.%.%. .%. ... .^ ~ ~ Q Q W W W x ~ Q M M x W Q W x b M M M M M N M M M M N v v v v v N N N N N N N N v d.v.y.a.v.n.n.b.k.k.d.l. .| rXVXAXVXAXZXxX                    ",
"                    MXVXVXDXnXnXkX`.C.C.H.F.T.R.R.R.W.W.R.Y.W.P.(.;.*.$.-.*.$.R R R R Y Y Y I P P z P Y I k z z W ! p.a.a.a.m m n r.m m ~ k a i z z d z k k k k k k k k k d z z a z k ~ M M n a.s.l...V.Z.Z.;.<X                                                                                                                                                                                                                                                                                                                                                                                                                                                                                                                                                                                                          1.;.Z.Z.S.V.V.N.N.A.(.S.S.$.$.&.%.%.%. . .^ ^ ~ ~ ~ ~ Y ~ ~ Q W c b b W W W W W b b b M M b M M M b b n n v v n n n n M M M M N N c p.k.y.a.v.n.b.b.z.z.d.l. . .rXSXVXVXAXZXMX                    ",
"                    xXVXVXVXnXnXkX`.C.D.H.F.T.R.R.W.R.W.R.R.R.I.Z.-.-.*.*.o.o.R R R R R Y Y R Y Y P Y Y Y P k z ~ ^ d.a.d.d.! m n r.n / Q k U P a a a z z z a a z z a a d d d d d z z ~ Q M n p.s.l...N.V.Z.;.<X                                                                                                                                                                                                                                                                                                                                                                                                                                                                                                                                                                                                          1.;.S.Z.S.Z.V.N.S.A.(.S.&.$.$.:.:.%.|  .~ ~ ~ R R R R Y Y I Q I Q Q Q Q x c b W b x b Q x x W b b W W M M M n M M M M M M M b b M M d.a.y.v.b.b.v.b.b.z.d.j... .eXSXVXAXAXZXMX                    ",
"                    xXVXVXVXnXnXkX[.C.H.F.T.T.Y.R.W.R.W.R.R.R.H.I R ;.-.-.o.*.*.*.*.$.$.$.$.*.$.$.$.&.~ $.&.~ | | ..s.d.a.a.! ! r.r.n M Q i $.R $.$.$.| $.$.| { $.$.:.:.;.-.;.;.;.:.$.V.^ M n r.s.l...N.V.Z.;.<X                                                                                                                                                                                                                                                                                                                                                                                                                                                                                                                                                                                                          1.;.;.S.Z.Z.V.N.V.J.(.)././._././././.Z.Z.;.=.*.*.*.:.=.$.~ | x W b c M M c b b x x W ~ W Q Q Q Q ~ ~ Q ! ^ ^ ^ Q Q Q Q Q ~ Q Q l.Q ! a.a.v.b.b.v.b.b.z.d.j... .eXSXVXAXCXZXMX                    ",
"                    MXVXDXbXnXmXkX[.G.F.F.E.T.Y.R.R.R.W.R.R.E.D.7 S -.o.R P T T T T T T T T T T S P P P E R U Y I ~ s.s.a.p.m m r.p.n b x u :.T S S S d S S S A a d A d d d A S T P P Y Q M ! p.s.l...N.V.Z.;.<X                                                                                                                                                                                                                                                                                                                                                                                                                                                                                                                                                                                                          1.;.Z.S.Z.A.V.N.V.J.Z.)./._.{._.5._./._././.5.5.5.5.5.2.5.Z.K.z W Q ! m m M m M b W ~ &.&.;.Z.;.K././.(.(.).).(.(.K.K.(.(.(.K.Z.(.Q b a.f.v.v.b.v.b.z.z.d.j... .eXSXZXAXAXZXMX                    ",
"                    MXnXDXbXnXnXkX[.G.P.E.E.Y.Y.R.R.R.W.R.R.E.D.3 C o.T P A S S S S S A A A A A S d A T P a P z i I ! p.p.p.m m n p.n Q x 7 ;.T T T T U U T T T T T T T T T T T T T P P Q M m ! ! l...N.V.Z.;.4X                                                                                                                                                                                                                                                                                                                                                                                                                                                                                                                                                                                                          @.;.Z.Z.A.A.V.N.Z.Z.&.E T X.X.( T X.T T T D D D G T T E P P %.0 x ! ! m ! ! ! ! Q ^  .0 i a a P P S S S d d a a a a a a a a a P ;.z h a.v.v.v.v.v.b.k.k.d.j.l. .eXSXZXAXAXZXMXHX                  ",
"                    xXnXDXbXnXnXkX[.G.P.E.R.T.Y.R.W.R.R.E.R.R.D.3 A X.T T T o.T T T T T T T T T S S A T a a o.U a x Q ! p.p.! m n r.n ! I 3 /.T o.o.T T } X.X.X.T T T T } } T G D T S a ~ Q m ! s.l.l.l.&.Z.2.4X                                                                                                                                                                                                                                                                                                                                                                                                                                                                                                                                                                                                          @.;.;.Z.J.A.V.V.Z.Z.$.s S D A A A A A H H H H H H D D T S P %.0 Q ^ ! n r.p.m ! ! ....s P S p A A p A A A A A f A A A S S S a d -.S z a.f.v.v.k.z.z.k.z.d.j.l.%.eXSXZXZXAXZXMXHX                  ",
"                    xXnXDXbXmXmXkX[.G.P.E.R.R.R.R.W.R.W.W.W.R.D.3 S o.T P S P P S S S S S S S S d T d a w D _.{ d I b M m ! ! m m p.n Q x 3 /.R $.$.$.$.o.$.$.$.-.o.o.R T d w 4 G *.R P  .Q m ! s.l...N.N.Z.;.4X                                                                                                                                                                                                                                                                                                                                                                                                                                                                                                                                                                                                          -.;.;.S.Z.Z.V.V.A.Z.$.S X.( D G T G G G G G G H H D D D S P &.0 W ! / r.a.t.n m j.l.^ k R S w t A t p p p p f d A f f p p A d d -.d k p.a.v.v.k.k.z.z.z.s.s. .%.eXSXAXSXAXZXCXHX                  ",
"                    xXnXbXzXmXmXhX`.C.P.E.T.T.E.R.W.W.!.Q.W.E.C.8 S :.;.:.;.;.&.&.&.&.&.%.%.%.%.%.~ Y u X q {.{ P Y M n n ! m m r.t.n Q I 5 |.^.(.(.Z.(.(.^.`.`.(./.K.&.~ x w o a ;.R P ^ M ! ^ ! ....N.V.Z.;.2X                                                                                                                                                                                                                                                                                                                                                                                                                                                                                                                                                                                                          1.;.;.Z.Z.S.V.V.A.A.%.P X.X.$ $ P S U R R T T T R R _ ~ $.$.&.i x / s.p.r.r.n t.p.d.^ a o.1.y # y s k k z z z a a d a z k a a d ;.i z p.y.v.v.a.a.z.z.z.p.s.l.N.eXSXVXSXSXZXMXHX                  ",
"                    xXnXbXzXmXmXjX`.A.P.F.F.T.R.E.W.W.!.Q.W.E.C.i d :.;.;.;.S.Z.S.Z.Z.V.V.V.%.N.N.^ Y u X q {.{ S Y n n ! ! m m u.t.n b I 0 |.A.V.S.S.S.;.&.Z.S.;.;.&.| M x u O A ;.R Y ^ n ! ! ! .. .N.V.Z.S.2X                                                                                                                                                                                                                                                                                                                                                                                                                                                                                                                                                                                                          1.;.;.Z.Z.V.V.S.A.J.%.d T X.$ 4 S P R $.| { o.o.$.$.$.$.=.$.;.i x / p.p.r.r.r.t.a.d.^ a o.1.q X q k W ~ ......| .. . . . .%.V.&.(.z h p.a.v.v.a.a.z.j.j.! s.s.N.eXSXVXZXSXSXCXHX                  ",
"                    xXnXbXzXmXvXjX(.A.G.F.F.R.R.R.!.W.!.Q.W.E.C.s a ;.=.^.S.S.S.Z.Z.Z.S.S.S.S.%.%.~ Y u o : {.{ A Y n n ! ! m n u.y.n b x s Z.S.:.;.;.-.-.-.;.;.1.1.-.| W Y y X S 2.R I s.n / ! ! .. .N.S.Z.V.#X                                                                                                                                                                                                                                                                                                                                                                                                                                                                                                                                                                                                          1.;.;.^.Z.S.V.B.A.(.%.a G X.# + p S { o.o.} X.o.) ) ) *.:.{ &.s b ! p.n r.r.t.y.a.a.^ a o.1.q . q k W ! ! ! ^ ! ^ ^ s.B.B.N.B.s.A.b N a.~.v.v.d.a.k.j.j.! s.s.l.tXSXVXAXZXSXCXKX                  ",
"                    xXnXDXbXmXmXjX(.A.G.F.F.R.R.R.!.!.!.Q.W.E.C.4 a :.$.=.=.;.$.=.;.;.=.=.*.*._ Q Y P y . : {.{ a I n n p.p.r.r.u.y.n M z 8 &.;.5.-.4.@.@.4.4.4.4.1.-.{ Y Y p X S ^.~ I s.r.p.p.! ..l.N.S.Z.V.#X                                                                                                                                                                                                                                                                                                                                                                                                                                                                                                                                                                                                          -.;.;.^.^.V.N.B.A.J.%.p S X.# + w p T X.X.X.O.X.X.) ) ) o.{ :.0 x ! p.n r.t.t.a.a.a.^ a X.1.q . q k W ~ ~ ^ ~ ~ ~ ^ ^ ^ ^ N.l.^ C.j j a.a.v.v.d.a.k.j.j.p.s.s.s.rXSXVXSXAXZXCX                    ",
"                    xXbXDXbXmXvXjX`.A.G.F.T.R.R.R.W.!.!.Q.W.E.C.9 H X.6.X.X.+.X.X.o.X.O.X.O.X.T a z z w . : {.} A Y n v p.p.r.r.u.t.n M z 8 ;.)._.} O.[ ' ' G X.O.X.T d z P B O S 2.~ I d.r.p.a.s.l.l.l.V.Z.S.2X                                                                                                                                                                                                                                                                                                                                                                                                                                                                                                                                                                                                          1.;.;.^.^.V.N.B.G.J.%.a S O.# $ w p S D J X.O.X.X.( X.( ( +.:.0 c ! p.p.r.t.t.a.k.a.^ a T -.q o q k I ) o.*.+.o.+.o.o.$.o.:.$.| K.k j a.a.v.v.d.k.k.j.j.s.d.s.^ rXSXVXAXAXZXCX                    ",
"                    xXnXbXzXmXvXjX`.C.I.F.F.R.F.R.W.!.!.W.R.E.V.9 F #.qX,.G G ( G G G G F F K H a k d w . : {.} S Y n v r.r.r.r.u.e.v M z 8 Z.5XOXA X.T X.} T o.X.( R Y Y Y p X S 5.) I s.r.a.p.s.l.l.N.S.Z.V.2X                                                                                                                                                                                                                                                                                                                                                                                                                                                                                                                                                                                                          -.;.=.Z.A.V.N.B.G.`.%.p S O.@ $ y f S D D J ' J G G T T X.{.>.0 x ! a.a.t.t.t.a.k.a.^ a T 1.e o 9 k k D J J ( X.X.X.X.o.T ( o.;.;.a l k.f.f.f.a.k.k.j.d.d.d.s.l.rXSXAXCXCXZXGX                    ",
"                    xXbXbXzXmXmXhX`.C.F.F.F.F.F.R.!.W.W.W.R.E.C.2 G #.iX4.A ( X.T T T T T G J T Y Y P w o : {.} S Y n v r.r.r.e.e.r.n M z 0 ^.5X2XS ;.;.;.;.S.Z.;.=.S.Z.V. .C O S 5.) I ! n m ! ! l.l.N.V.Z.V.2X                                                                                                                                                                                                                                                                                                                                                                                                                                                                                                                                                                                                          1.;.;.Z.A.V.N.B.G.`.&.s H O.X $ s S } ) ( X.X.X.T T T G X.2X5.s x p.a.a.a.t.t.a.k.a.! a X.4.t X q k k E J J J J ( ' J J X.G OX2X2.a h k.f.f.f.f.a.k.k.d.d.d.d.l.tXSXAXAXAXZXGX                    ",
"                    xXnXzXzXmXnXhX`.C.H.H.F.F.F.R.Q.W.W.W.R.E.C.2 [ +.pX+.t -.;.;.;.;.&.$.:.:.:.V.%.Y w o : {.} d I n v r.r.r.e.v t.m M z s ;.5X+Xu ~ ^ ^ ^ s.^ h.~ ! ! ! Q u O S 5.o.P ^ m m ! ! j.c.S.V.Z.V.2X                                                                                                                                                                                                                                                                                                                                                                                                                                                                                                                                                                                                          1.2.;.Z.A.V.N.B.G.`.$.p G O.o $ a R $.:.o.o.o.o.o.o.o.A G 3X5.s x p.a.a.t.t.t.a.k.a.! a T 4.y o w Q ^ $.o.o.o.o.X.o.X.X.o.f OX6X-.a k k.v.f.f.a.a.k.j.d.d.d.s.l.tXSXVXSXAXZXCX                    ",
"                    xXnXzXzXmXnXjX(.G.H.F.H.F.R.Q.W.W.!.W.R.E.C.3 D -.eX*.u R S.V.N.c.c.l.^  .%. .l.~ 8 o r 6.} A Y M v n n r.e.r.r.v M x s ^.5X$Xi ^ / ! s.a.p.d.s.p.r.t.m s + U ;.o.Y Q M n m ! j.l.N.V.Z.V.2X                                                                                                                                                                                                                                                                                                                                                                                                                                                                                                                                                                                                          1.2.;.Z.Z.Z.V.C.L.(.$.p G X.X $ a $.%.%.~ ~ | | R R R p G 3X>.s W s.a.a.t.t.y.a.k.a.! a T 4.w X w I / W ~ ~ .. . . .| %.U s $X5X;.i x k.v.f.f.f.a.k.k.z.d.d.s.N.tXSXAXZXZXZXCX                    ",
"                    xXnXzXzXmXnXjXJ.G.H.F.F.R.R.W.W.W.!.W.R.P.C.3 T -.eX*.u Y V.c.z.z.k.d.p.s.l.l.l.~ 8 o r _.} S Y M v n n r.r.r.r.n M x s ^.5X$Xi ! n n t.t.u.t.a.t.t.y.m s O U ;.o.Y ^ m ! ! ! j.l.N.V.V.N.#X                                                                                                                                                                                                                                                                                                                                                                                                                                                                                                                                                                                                          1.2.;.;.Z.V.V.V.L.`.$.p G X.O 4 k %.%.l. .^ ~ Q Q ~ R p T wX5.s W d.a.a.t.t.y.a.k.d.! a T 1.w X w I ! n m m m p.j...Q ..z 0 $X5X;.k x v.v.f.f.f.a.a.k.j.s.s.s.N.tXSXAXAXZXZXCX                    ",
"                    xXnXzXzXmXnXhXL.G.I.E.T.R.R.E.T.W.Q.W.E.P.C.2 J +.wX+.w Y %.l.z.k.k.j.t.! s.z.z.^ 0 X r _.} d Y M v n n r.r.r.t.r./ x s ;.5X$Xi Q n v r.r.r.t.t.u.e.u.n s O P ;.$.Y ! m ! ! p.s.l.c.V.Z.N.#X                                                                                                                                                                                                                                                                                                                                                                                                                                                                                                                                                                                                          1.2.;.;.Z.&.V.C.G.`.&.C G ' X 4 ` %.N.l.l.! ! ! M Q ~ u E 6X4.u I s.d.a.t.t.y.a.k.d.^ a T 1.w X 8 W p.m t.t.t.p.p.j.! Q z 0 ).5XK.z x v.v.f.f.f.a.a.j.j.s.d.s.N.eXSXSXAXZXZXCX                    ",
"                    xXnXzXzXvXmXhX`.G.I.E.Y.F.Y.R.T.W.Q.W.E.E.C.2 ' #.wX+.w U  .l.k.a.a.a.t.t.p.k.z.! 0 X q _.R d Y M v n n r.r.r.t.r./ x s ;.2X$Xs Q m n m v e.e.t.t.u.u.n s O P ;.R I s.p.r.r.p.p.s.c.V.Z.N.#X                                                                                                                                                                                                                                                                                                                                                                                                                                                                                                                                                                                                          1.2.;.;.Z.Z.V.C.G.`.%.p H J X 4 ` %.^ l.s.! m m m ! ~ u E 6X>.s I s.d.a.t.t.y.y.k.d.^ a T 1.q X 8 Q p.t.t.y.y.a.d.a.s...x s ).5X/.P l v.v.f.f.f.y.p.j.j.d.d.s.N.tXSXSXAXZXZXCX                    ",
"                    xXnXbXbXmXmXhX`.L.I.E.T.Y.Y.R.T.W.!.W.E.E.A.2 O.#.wX-.w Y  .c.k.a.a.a.p.p.j.k.z.! 0 X q 6.T C Y n v r.n r.r.e.u.r./ x s ;.2XOXu W n n n n v r.t.y.u.y.n u O P ;.) Y ! a.p.r.p.p.s.l.V.Z.V.#X                                                                                                                                                                                                                                                                                                                                                                                                                                                                                                                                                                                                          1.2.;.Z.Z.Z.V.C.G.`.$.p A J X 4 P %. .l...! M n m ! ~ s T 6X1.s W d.a.a.t.t.t.y.k.g.^ a T 1.w X 8 Q d.a.t.a.a.g.g.d.d.s.x s ).5X).` l v.v.f.v.a.a.p.j.j.p.d.s.N.tXSXSXAXAXZXCX                    ",
"                    xXnXbXbXmXmXjX`.P.I.E.Y.R.R.R.R.W.!.W.E.E.A.2 +.@.wX-.8 Y %.c.d.a.a.a.d.s.j.k.k.! 0 X q 6.R S R n r.r.r.t.t.e.t.r./ x u ;.2XOXu W n n n v e.t.y.y.y.y.m u O E ;.o.Y s.a.a.r.t.s.j.c.V.Z.N.#X                                                                                                                                                                                                                                                                                                                                                                                                                                                                                                                                                                                                          1.2.;.S.Z.Z.C.A.[.[.=.p F ' X 4 E %. .%. .~ M M M Q Q s T 6X-.s W p.a.a.t.t.t.y.k.g.^ a T 2.w X 8 ! d.a.r.u.a.a.g.d.d.s.x 0 ).6X/.E I v.~.v.f.a.a.p.j.j.p.s.s. .eXSXAXAXAXZXCX                    ",
"                    xXnXbXDXnXnXjX`.P.F.E.T.R.R.R.R.W.Q.R.E.E.A.2 ,.,.wX-.9 U %.N.d.d.d.d.s. .l.z.k.! 0 X q 5.T S R n r.u.u.t.u.e.t.u./ x s ;.2XOXs W / r.r.r.u.t.a.a.y.y.m u O S -.o.Y ..p.t.r.m j.l.c.V.Z.V.2X                                                                                                                                                                                                                                                                                                                                                                                                                                                                                                                                                                                                          1.2.;.Z.A.A.A.G.[.[.S.p F ' X 4 E %.%.&.%.~ b M M Q Q u T 6X>.s b p.y.a.t.t.t.y.k.d.^ a T 2.w O 0 ! d.p.r.r.a.a.a.a.d.! x 0 $X5X;.d I v.~.f.f.a.a.p.j.j.s.s.^  .eXSXAXAXAXZXCX                    ",
"                    xXnXbXDXnXnXjX`.L.I.F.F.R.R.R.R.W.W.R.R.E.A.3 4.4.wX>.2 U V.N.l.d.z.z.l.l.l.z.k.! 0 X q 6.T S Y n u.u.u.t.u.t.t.t.n x s 2.2XOXs ! p.u.t.u.y.t.a.a.a.y.m u O S -.) Y ..m t.t.m p.l.z.C.Z.V.2X                                                                                                                                                                                                                                                                                                                                                                                                                                                                                                                                                                                                          1.;.;.Z.A.A.A.H.[.[.=.p F ' X $ P  .%.%.$.~ Y x Q Q ~ u T wX4.s b a.y.y.y.t.t.t.a.d.^ i T 2.w O 0 m a.t.n m t.a.a.a.p.j.c i $X5X:.i x v.~.v.f.a.y.p.j.l.s.s.^  .eXSXAXAXZXZXGX                    ",
"                    CXnXbXzXMXnXjX[.G.I.F.F.R.R.R.W.Q.!.R.E.E.C.3 1.4.pX#.2 P N.l.l.z.z.z.d.d.z.k.z.^ 0 o q 6.X.d Y n r.t.u.y.u.t.t.r.n x s 2.2XOXs / r.t.t.u.y.y.y.a.y.y.m u O D >.o.z l.r.r.p.p.j.z.C.A.Z.V.#X                                                                                                                                                                                                                                                                                                                                                                                                                                                                                                                                                                                                          1.;.;.Z.A.A.D.D.L.[.;.C G O.# $ a  .l.%. .~ Y x W W Y s T 6X1.s W t.y.t.t.y.t.y.a.k.! d T 1.6 X u n a.r.r.p.a.a.a.y.p.p.x i $X5Xo.0 b v.~.v.v.a.p.p.t.p.! ! ^ ~ sXSXAXAXAXZXGX                    ",
"                    CXMXbXbXMXnXjX[.G.I.F.F.R.I.R.W.W.Q.R.R.E.C.3 4.4.pX#.w Y N.l.l.z.z.z.j.a.k.k.k.! 0 o : 6.X.d ~ m r.t.u.y.u.t.t.r.n z u 2.2X$Xu Q r.t.u.t.y.y.y.a.y.y.m u O T 5.o.x l.r.r.p.p.j.z.C.A.A.V.2X                                                                                                                                                                                                                                                                                                                                                                                                                                                                                                                                                                                                          1.;.Z.Z.A.G.G.D.L.'.;.C G O.X $ S  ... ...~ Y I I W Y s T 6X1.s W t.y.y.t.a.t.y.y.v.p.d T 4.e X u b a.t.r.r.p.a.a.y.t.p.b s $X6X-.s b v.i.v.k.a.p.p.r.p.! ! ^ | sXSXAXAXAXZXGX                    ",
"                    CXMXbXbXmXnXjX`.A.H.H.F.E.I.R.W.Q.Q.R.R.E.C.3 4.4.wX#.w R %.l.z.z.z.z.l.z.k.k.k.! 0 X : 6.o.d ~ p.u.t.t.y.u.u.t.r.n x s 2.2XOXu / t.t.y.y.y.y.y.a.y.y.! s O T ;.) I l.r.a.p.p.l.z.C.A.A.V.2X                                                                                                                                                                                                                                                                                                                                                                                                                                                                                                                                                                                                          1.;.S.Z.A.G.L.D.P.'.;.C G ' X $ P  ... ...Q I x I W Y s T 6X1.s W t.y.y.t.y.u.y.y.v.p.d T 5.y X u b t.t.r.n n r.a.y.t.p.b s ).5X2.s c k.i.f.k.a.p.p.m d.s.! ^  .sXSXAXAXAXZXGX                    ",
"                    CXMXbXbXmXmXjX`.A.H.F.F.T.I.R.W.W.Q.W.E.E.C.3 4.4.pX#.w Y N.N.z.z.z.z.z.k.b.v.z.! 0 X : 6.o.d ~ ! t.t.t.y.u.u.t.r.n x s 2.2XOXs ! t.y.y.y.a.f.i.a.a.y.m u O E -.R I l.a.a.d.d.z.z.C.A.A.V.2X                                                                                                                                                                                                                                                                                                                                                                                                                                                                                                                                                                                                          1.;.S.Z.A.G.L.D.P.'.;.C G ' X $ P %... ...~ I x I W Y s T 6X1.s W t.y.y.t.y.u.y.y.f.p.d T 5.y X u b u.r.n n n r.t.t.t.r.b s ).6X/.i l v.i.y.a.a.t.a.m d.s.! ^  .sXSXZXAXAXZXCX                    ",
"                    GXnXbXbXMXnXhX[.A.I.F.F.R.I.R.W.W.Q.W.E..XA.3 -.@.pX@.9 P V.N.z.z.z.z.z.z.b.n.v.! 0 o : 6.o.S ~ p.t.t.t.y.u.u.u.r.n c s 2.2X$Xs ! t.y.~.y.a.f.f.f.y.y.m u O E -.R Y l.p.a.d.a.z.z.C.A.A.V.2X                                                                                                                                                                                                                                                                                                                                                                                                                                                                                                                                                                                                          -.;.Z.Z.A.G.G.D.L.[.&.p G ' X $ P %... ...~ I x I W Y s T 5X-.u W t.y.y.t.a.u.y.y.d.p.i T 4.e X u M r.r.n v v r.t.t.t.m b s ).5X/.k l v.i.i.y.t.t.p.r.a.d.s.^  .sXSXZXAXSXZXCX                    ",
"                    CXnXbXbXMXMXhX[.G.I.F.F.R.I.R.W.Q.Q.W.R..XC.3 -.@.pX@.2 P V.N.z.z.x.x.z.z.b.m.n.! 3 o e 6.o.S ~ p.y.t.y.y.u.u.u.r.n c s 2.2X$Xs ! t.y.~.y.a.f.f.a.y.y.! u O T -.o.Y l.a.a.a.k.k.z.C.A.A.V.2X                                                                                                                                                                                                                                                                                                                                                                                                                                                                                                                                                                                                          -.;.S.Z.A.G.G.D.L.[.&.p G O.X $ P %.......~ Y I I W ~ u T 5X-.u W t.y.y.u.y.u.y.y.v.! i T 4.e o w M r.n n M M n r.t.t.m b s ).2X/.k c v.i.f.y.t.t.p.t.a.d.s.^ %.sXSXSXAXAXZXCX                    ",
"                    CXbXbXbXMXMXjX[.G.F.F.T.R.I.W.Q. XXXR.E.E.C.3 1.4.pX#.q P N.N.z.z.z.z.z.z.b.n.n.! 3 o r 7.o.d ~ p.y.y.y.y.u.u.u.u.m c s 2.2X$Xi ! t.y.i.f.f.f.i.y.y.y.m u O T -.o.Y l.a.a.a.z.z.z.D.G.A.Z.2X                                                                                                                                                                                                                                                                                                                                                                                                                                                                                                                                                                                                          -.;.&.Z.Z.G.G.D.L.[.;.p G O.o $ S  .^ ..| ~ Y I I W Y s T 5X-.s W t.y.y.y.a.t.y.i.f.! i T 4.q o w b n n n M n n m t.t.! b u $X2X/.z b v.i.f.a.y.a.p.r.d.d.d.s.^ sXSXSXAXAXZXGX                    ",
"                    MXmXbXbXMXnXjX[.G.P.F.T.E.R.R.W.Q.Q.R.E..XJ.3 4.4.wXO.w Y %.B.z.z.x.z.z.z.b.v.b.! 3 o r {.X.d ~ p.y.y.y.y.u.u.t.u.m x s 5.2X{.s ! t.y.i.f.f.f.i.y.y.y.! u O T -.o.~ l.a.k.a.k.z.z.D.G.J.Z.2X                                                                                                                                                                                                                                                                                                                                                                                                                                                                                                                                                                                                          -.;.V.Z.A.G.G.D.L.[.&.C G X.o $ P  .~ ..| ~ Y I I Y Y s T 6X1.s W t.y.y.y.a.t.y.f.f.p.a T 4.q o w c n n n M M n m r.t.! x 0 +X5X_.x b v.f.f.k.a.a.p.r.d.d.d.^ ^ tXSXZXSXVXZXGX                    ",
"                    MXnXbXbXMXMXjX[.G.I.F.F.F.R.W.Q.Q.XXQ.R.E.L.3 4.4.wX#.9 Y V.C.z.C.D.z.z.z.k.k.k.! 0 X r {.X.d ~ p.y.y.y.y.u.u.u.u.n x s 2.5X{.i s.a.f.~.i.i.v.f.a.a.y.! u O S -.R ~ l.a.a.a.a.k.D.C.L.A.A.2X                                                                                                                                                                                                                                                                                                                                                                                                                                                                                                                                                                                                          ;.;.V.J.A.A.G.D.P.[.%.p T ' o $ a  . . .~ ~ ~ I I W ~ u R 2X1.u Q a.i.y.y.a.t.y.v.v.! a T 6.e X 9 b m n n M / m m r.r.! x 3 ).5X/.k b v.f.f.a.a.a.k.a.d.d.l.^ ^ sXSXZXAXSXZXCX                    ",
"                    MXnXbXbXbXnXjX[.G.I.F.F.F.E.Q. XXXXXW.E.E.L.3 4.4.wX#.9 Y V.C.z.C.D.z.z.z.k.v.v.! 0 o q 7.X.d ~ p.y.y.y.f.u.u.u.t.n x s 2.5X{.s s.a.f.~.f.i.v.v.f.a.y.m u O E -.o.~ l.k.a.a.k.k.D.C.L.A.A.2X                                                                                                                                                                                                                                                                                                                                                                                                                                                                                                                                                                                                          2.;.V.Z.Z.A.G.D.P.[.%.p T ' o $ a  . . .~ ~ ~ I x W Y s R 2X1.u Q a.i.y.y.a.y.y.v.v.! i G 6.e X 9 b m n M n ! m m r.t.! x 3 ).5X/.i b b.f.f.d.a.a.a.a.p.d.d.^ ^ sXSXSXAXSXZXCX                    ",
"                    MXnXbXbXMXmXdX[.G.I.F.F.F.E.Q.Q. XXXW.P.P.J.3 4.4.wXO.2 Y V.B.z.x.D.z.z.z.k.v.b.! 0 o q 7.( d | d.a.a.y.f.y.u.y.a.m x u 2.6X$Xi s.a.f.v.f.f.v.v.v.k.a.! u O E -.o.~ l.a.a.a.k.z.D.D.L.A.A.2X                                                                                                                                                                                                                                                                                                                                                                                                                                                                                                                                                                                                          2.S.Z.Z.Z.A.G.G.[.[.%.p ( X.o $ a  .^ ..~ ~ ~ I I W Y u T 2X1.u Q k.v.y.y.y.y.y.v.k.! i } 6.e X 9 b r.m n M M m n r.t.! x 7 ).5X/.i b v.f.a.k.a.p.a.a.a.p.d.! ^ sXSXSXAXSXZXCX                    ",
"                    xXbXbXbXMXmXdX[.G.F.F.T.R.R.R.Q.Q.Q.E.P.P.J.3 4.,.wX#.9 Y V.B.z.z.z.z.z.k.k.v.z.! 0 o q {.o.d | a.a.v.f.f.y.u.t.y.m x s 2.6X$Xs s.a.f.~.f.f.v.v.v.k.a.! u O E -.R ~ l.a.a.a.d.k.D.D.L.J.J.2X                                                                                                                                                                                                                                                                                                                                                                                                                                                                                                                                                                                                          2.S.Z.Z.Z.C.D.D.[.[.%.p ( X.o $ a  .^ ..~ ~ ~ I I W Y u T 2X1.u Q k.i.y.y.a.y.y.v.v.! i G 6.e X 8 M p.m n M W n m m m ! b 0 ).2X5.i b b.i.a.k.a.a.p.a.a.p.d.!  .sXSXSXSXSXZXGX                    ",
"                    xXbXzXbXMXnXdX`.H.F.F.T.E.R.R.Q.Q.Q.W.E.[.J.3 4.4.wXO.2 P V.N.z.z.z.z.l.z.k.k.z.! 0 o q {.X.d | a.f.v.f.f.y.y.t.t.m x s 2.6X$Xs ! y.y.~.f.f.v.f.f.k.a.! u O T -.R ~ l.p.a.a.d.k.n.D.`.L.J.5X                                                                                                                                                                                                                                                                                                                                                                                                                                                                                                                                                                                                          2.S.Z.A.Z.A.G.D.P.[.%.a ( X.o $ a $.^ ..~ ~ ~ I W ~ Y u R 2X1.u Q k.y.y.y.a.y.y.v.k.! i G 4.q X 8 Q p.p.n M M n m m m ..b 0 ).2X5.i b v.y.a.k.a.p.p.d.p.p.l.^  .sXSXAXSXZXGXGX                    ",
"                    MXnXbXbXbXnXdX`.D.F.F.F.E.R.R.Q.XXQ.W.E.P.J.3 4.4.wXO.2 Y V.B.z.z.z.z.z.z.k.v.z.! 0 o q {.o.d ..a.f.v.f.f.y.y.t.t.m x s 2.5X$Xs ! y.y.~.f.f.f.f.f.v.a.! s O T -.R ~ l.p.a.a.a.k.n.D.`.L.J.5X                                                                                                                                                                                                                                                                                                                                                                                                                                                                                                                                                                                                          2.Z.A.A.Z.A.G.D.P.[.%.a ( X.o $ a $.^  .~ ~ ~ I Q ~ ~ u ) 2X1.u Q k.y.y.y.a.y.y.v.k.! i G 4.q X 9 Q j.p.m M M n m n m ..b 8 ).2X/.a b k.y.y.k.p.p.d.p.d.p.l.^  .sXSXAXSXZXGXGX                    ",
"                    xXnXbXbXbXnXdX[.D.H.H.F.R.R.E.Q.XXQ.W.E.P.A.3 4.,.wXX.2 P V.B.z.z.z.z.z.z.k.v.v.! 0 o q 7.( d ~ a.f.f.f.f.i.y.t.a.! z u -.5XOXs ! a.a.~.f.f.i.i.f.k.a.! u O T -.R ~ l.p.a.a.d.k.b.D.`.G.A.5X                                                                                                                                                                                                                                                                                                                                                                                                                                                                                                                                                                                                          ;.A.J.Z.Z.A.G.D.P.[.%.a ( X.o $ d $.|  .| ~ Y I W ~ Q s R 2X-.u Q k.~.y.y.a.a.y.v.k.! i G 4.6 X 9 M j.p.n M / ! m m m m c 3 {.5X/.k b a.y.y.t.p.p.d.p.d.p.l.!  .sXSXAXSXZXGXGX                    ",
"                    xXnXbXbXbXnXdX[.H.D.m.F.R.E.I.Q. X XE.E.P.A.3 4.@.wXX.2 P V.B.z.z.z.z.z.k.k.b.v.! 0 o : 7.( d ~ a.f.f.f.f.y.u.t.a.p.z 0 -.5XOXs ! a.k.v.v.v.i.i.f.a.a.! u O T -.R ~ l.t.a.a.d.d.b.D.L.A.A.5X                                                                                                                                                                                                                                                                                                                                                                                                                                                                                                                                                                                                          ;.Z.A.A.Z.A.G.D.P.[.%.a ( X.o $ d $.|  .| ~ Y I W Q Y u R 2X-.u ! k.v.y.y.a.a.y.a.k.s.a G 4.6 o 9 M p.r.n M / ! m m m M x 3 {.5X/.a c a.y.y.y.t.p.j.r.a.p.d.!  .sXSXSXSXZXGXGX                    ",
"                    xXnXbXbXmXnXjXL.H.Y.b.T.F.F.I.P.P..XE.E.P.J.3 4.,.wXX.9 P N.B.z.c.x.z.d.k.n.b.n.! u X e 7.( d ~ a.f.a.y.k.a.u.a.a.p.z u ;.2XOXs ! a.k.v.f.f.f.f.a.a.y.! u O T -.o.~ l.a.a.a.d.v.b.x.G.J.S.2X                                                                                                                                                                                                                                                                                                                                                                                                                                                                                                                                                                                                          2.A.A.A.V.C.G.G.P.[.%.S G ' o $ a | |  .| ~ Y I Y W Y u R 6X2.s ! k.f.y.y.a.a.y.k.k.! d G 4.: o 3 M t.n n n n n m m m ! k 3 $X2X/.k c a.u.f.y.y.t.j.t.k.t.a.s.^ sXSXSXSXSXZXGX                    ",
"                    xXMXzXbXmXnXdX[.D.F.E.F.D..X[.L.L.P..XF.P.A.w 4.,.wXO.q R V.z.z.c.x.b.b.b.n.M.n.^ u o e 7.( d ..a.a.a.y.a.a.u.a.a.p.x u -.#XOXu ! p.a.v.f.f.f.f.f.a.a.m u O T -.o.~ z.a.a.a.k.b.b.x.L.J.Z.2X                                                                                                                                                                                                                                                                                                                                                                                                                                                                                                                                                                                                          2.A.A.A.S.A.J.G.[.[.%.A G X.o $ a o.|  .| ~ Y I I W Y u R 5X2.u ! k.i.y.y.a.a.y.k.k.! a G 6.q o 3 M r.n n n n n m ! ! ! k 3 {.2X/.k b d.a.u.e.v.t.v x.a.t.a.d.^ sXSXAXSXSXZXGX                    ",
"                    xXMXzXbXmXnXdX[.F.H.F.F.P.C.^ ..`.].I.H..XV.w 1.,.wXO.q R N.z.z.z.x.b.b.b.n.M.n.^ u o e 7.( d ..a.a.a.y.a.a.u.a.a.p.x u -.#XOXu ! p.y.f.i.f.i.i.f.v.a.m u O T -.o.~ z.k.d.d.b.b.b.x.L.J.Z.2X                                                                                                                                                                                                                                                                                                                                                                                                                                                                                                                                                                                                          1.A.A.A.C.A.L.G.[.[.%.a G X.o $ A o.|  ...~ Y I Y ~ Y u R 3X1.u W a.i.y.y.a.a.y.k.d.! a G 6.e o 3 M r.n n n n n m m m ^ k 3 $X2X/.k b r.r.f.f.v l.c...a.a.a.z. .sXSXSXSXSXZXGX                    ",
"                    xXnXzXbXmXnXdX[.n.D.P.B.l.^ x :XlX-XG.[.D.(.6 4.,.wXO.9 Y N.z.z.z.x.n.b.b.b.M.b.! u o e {.( P ..a.a.a.y.a.a.t.a.a.p.x s -.#XOXu ^ p.y.a.i.f.f.f.v.v.y.n u O D -.R ~ l.y.a.a.b.b.v.C.D.A.Z.2X                                                                                                                                                                                                                                                                                                                                                                                                                                                                                                                                                                                                          ;.A.A.A.A.A.J.G.[.[.%.A G O.X $ A o.|  ...~ Y I W ~ Y u R 2X1.u ! a.i.y.y.a.a.y.k.k.! a G 6.: o 3 Q p.n n n n n ! ! m ^ k 3 $X2X/.k b k.y.r.a.D.l.c c.j.a.a.d.l.sXSXSXSXSXZXGX                    ",
"                    xXnXzXbXmXnXjXL.I.H.D.C. .5 tXjXsXkX].`.C.V.w 4.,.wX' > P N.z.z.x.b.n.n.b.b.M.v.^ u o e 7.( P ..a.a.a.y.a.a.t.a.a.p.x s -.#XOXu ! p.y.y.f.f.f.v.v.v.y.M u O G -.R ~ j.t.a.a.b.v.z.x.C.A.Z.                                                                                                                                                                                                                                                                                                                                                                                                                                                                                                                                                                                                            -.A.A.G.A.A.A.D.[.[.%.A } O.X $ a o.|  ...~ Q I W ~ Y u R 2X1.u ! k.i.y.y.a.a.a.k.k.s.d G 4.: o 3 ! p.r.n n M / ! m ! ^ k 3 $X2X/.a b j.t.a.P.dX7X:.Y ! a.p.a.l.sXSXZXSXSXZXGX                    ",
"                    xXnXzXbXmXmXjXL.P.H.A.Z.Y u wX#XpX6X'.V.L.Z.2 1.,.wXO.9 U N.z.z.z.b.n.M.b.v.v.v.! u o e 7.( P ..a.f.a.t.a.a.t.a.a.p.x s -.#XOXs ^ p.y.y.y.f.v.v.v.v.y.M w O T -.R Y j.t.a.a.b.v.k.x.C.Z.Z.                                                                                                                                                                                                                                                                                                                                                                                                                                                                                                                                                                                                            -.A.A.`.A.A.A.C.P.[.%.A [ X.o $ a o.$. ...~ Q I Q ~ Y u R 2X1.s ! k.i.y.y.a.a.y.a.k.s.d G 4.& o 3 ! j.r.n n M / ! m ! Q k 3 $X2X5.i x j.k.B.dXfXmX2X3 Q z.a.a.l.sXSXAXSXZXGXGX                    ",
"                    xXnXzXzXmXnXBX[.z.B.[.%.u ;.5X5XwX#X5XK.Z.;.q 4.,.wXO.9 Y N.z.b.k.v.M.M.b.v.b.v.! 0 o e 7.( z ~ a.v.k.t.y.p.t.a.a.p.x u ;.#XOXs ^ p.y.y.y.f.f.v.v.v.a.M w O T -.R ~ j.y.a.a.b.b.z.x.C.A.Z.                                                                                                                                                                                                                                                                                                                                                                                                                                                                                                                                                                                                            -.A.A.`.A.A.A.C.L.[.$.A G X.o $ a | |  ...~ Q I W ~ Y u R 5X2.s ^ k.y.y.y.a.a.t.a.a.s.d G 6.: o 3 Q p.m m n M / ! ! ! Q k 3 OX2X5.i x z.m C.5XeX2XOX$ z c.a.k.l.sXSXZXAXZXGXGX                    ",
"                    xXnXzXzXmXnXBXC.[.C.x ;.1.4.{.2XpX2X_./.7XZ.w 4.@.wXO.9 I l.k.k.k.k.b.M.b.v.M.v.! 0 o e {.( z ~ a.v.k.t.p.p.r.a.p.! x u ;.#XOXs ^ p.y.y.y.f.f.a.v.v.k.M u O T -.R Q j.y.a.d.b.v.z.C.G.A.Z.2X                                                                                                                                                                                                                                                                                                                                                                                                                                                                                                                                                                                                          -.A.A.G.A.A.A.C.L.[.%.p G ' o $ S | |  ...~ Q I Q ~ Y u R 5X2.s ^ k.y.y.y.a.y.t.t.a.! d [ 6.: o 3 M t.m m n M / ! ! ! ~ k w OX5X/.a I l.C.J.#X6X4X3XD s  .k.k.s.uXSXZXAXZXGXGX                    ",
"                    xXbXzXzXzXnXdXL.B.l.s wXgX,.{.pXpXwXwX6XtX/.w 4.1.wXO.9 Y l.k.k.k.k.v.v.b.b.b.v.! 7 o e {.o.z ~ a.v.k.r.t.p.r.t.a.p.x s ;.#XOXi ^ p.y.y.a.f.y.f.v.k.a.M w O D -.R Y l.a.d.g.b.k.z.z.L.A.Z.2X                                                                                                                                                                                                                                                                                                                                                                                                                                                                                                                                                                                                          -.A.A.G.A.A.J.C.L.[.&.A ' J X $ a { | %.~ ~ ~ x W ~ Y u o.5X1.s ! k.~.y.k.a.a.t.t.a.! a J 6.& o 3 b t.r.n n W M ! ! ! ~ z w OX2X/.u x &X:X/.2X1X1X1X,.{ Y s.d.s.tXSXAXAXZXGXGXHX                  ",
"                    xXmXcXzXzXmXBXC.B.B.4 OXiXOXpXpX<X4X3X5XsX+Xq 1.,.wXO.9 Y l.z.k.k.k.v.v.b.b.b.v.! 7 o e {.X.z ~ a.v.k.r.p.p.r.r.a.p.x u ;.#X{.s ^ p.y.y.v.f.a.v.v.k.a.M u O T -.) ~ z.a.d.g.b.v.b.c.L.A.Z.2X                                                                                                                                                                                                                                                                                                                                                                                                                                                                                                                                                                                                          -.A.A.G.A.A.A.C.L.[.%.p ' J X $ a | | %.^ ^ ~ I W ~ Y u o.6X1.u Q a.f.y.k.a.a.t.p.a.! a J 6.: o 3 M r.r.n n W M m ! Q Q z 3 OX2X5.s x :X7X5X6XpX1X3.3.sXR 0 s.l.tXSXSXAXZXGXGXHX                  ",
"                    xXmXcXzXzXnXdXL.B.W 4 2XgX<XgXpX7.7.iXwXsX#Xq ,.,.wXO.9 Y l.z.k.z.k.k.k.b.v.b.v.! 0 o e 7.X.z ~ a.v.k.r.p.m r.r.t.p.x s ;.#X{.s ! p.y.y.v.v.a.v.v.k.k.M w X T -.o.~ l.a.d.d.b.v.n.x.L.A.Z.2X                                                                                                                                                                                                                                                                                                                                                                                                                                                                                                                                                                                                          -.A.A.G.A.C.C.C.G.`.$.p G J X $ a | | %... .~ I Q | Y u o.6X1.u W a.a.y.k.a.a.t.p.k.! a X.6.: o 3 Q p.m m M W M m ! Q W k 3 OX2X5.s ~ 7X#X2XOX1XpXiX4XwXR 0 / l.sXSXAXZXSXGXGXHX                  ",
"                    xXmXzXzXmXmXjX[.d.x 2 <XcXcXgX<X9.9.3XgXsX}.6 ,.,.wXO.9 Y N.z.k.z.k.k.a.k.v.b.v.! 0 o q 7.o.z ~ a.v.k.r.p.n p.r.r.p.x s ;.#X{.s Q p.y.y.v.f.f.v.k.k.a.M w X T -.R R l.a.d.d.b.b.n.C.L.A.^.                                                                                                                                                                                                                                                                                                                                                                                                                                                                                                                                                                                                            *.A.A.G.A.C.C.C.`.`._ t F F X $ a | | %... .~ I Q | ~ u o.6X1.u W a.a.y.a.a.a.t.a.k.! a X.6.: o 3 Q p.m m M W M W ! Q W a 2 OX2X5.a | eXeXiX6.OXgXpXOXwXU 5 W N.dXSXSXZXZXGXGXKX                  ",
"                    xXmXzXzXzXvXdX`.l.^ 8 #.1XiXgX{.<.9.9.cXgX/.6 ,.@.wXO.9 Y N.z.k.k.j.a.a.z.k.v.v.! 0 o e {.T z ~ a.d.a.r.! n r.n r.p.x s ;.#X{.s Q p.y.y.a.a.k.v.k.k.a.M w X T -.R R j.a.d.d.b.b.n.C.I.J.(.                                                                                                                                                                                                                                                                                                                                                                                                                                                                                                                                                                                                            *.A.A.A.C.V.C.C.`.`._ B J F X + a | | %... .~ I Q | ~ 0 { 6X1.u Q a.a.y.a.a.a.a.a.k.! a J 6.: o 8 Q p.m n M W b M ! M ~ k 2 OX2X5.a | eXgXOX6.OX3XpXwXiXf 4 ~ ~ sXSXAXAXSXZXGXKX                  ",
"                    zXmXzXbXmXnXjX].s.x 9 #.OXwXcX2XOX3X1XgXfX/.q ,.@.wXO.9 I N.z.z.l.j.p.a.z.k.v.v.! 0 o e {.T z ..a.a.p.m ! m n n n ! x s ;.#X{.s Q p.y.y.a.d.k.k.a.a.a.M w O T -.R R j.a.d.b.b.v.n.C.L.J.(.                                                                                                                                                                                                                                                                                                                                                                                                                                                                                                                                                                                                            -.A.A.A.C.C.C.C.[.[._ S ' J X + a | | N... .~ W Q | ~ u o.2X1.u Q a.a.y.a.a.a.a.a.k.! a J 6.& o 3 Q ! m n m W b b ! M ~ a 2 OX2X5.a $.iXiX6.OX,.1XiXwXOXy 8 | %.jXSXVXAXAXZXGXKX                  ",
"                    cXzXzXzXMXnXjX[.B.Q $ [ 4.1XiXeXpXqXOXpX2XOXq @.@.wX#.9 Y N.d.a.j.j.d.a.z.k.k.z.! 0 o e {.R z ..d.a.t.m p.m n v v ! x s ;.+X{.u M p.y.y.a.d.k.a.a.a.a.M w O T -.R R j.a.d.b.v.b.n.C.L.J.(.                                                                                                                                                                                                                                                                                                                                                                                                                                                                                                                                                                                                            -.A.A.A.A.C.C.B.`.[._ D ' J X + a | | V. . .^ W Q | ~ u o.2X-.u ^ k.a.y.a.a.a.p.k.z.! a J 4.& o 3 b ! m n / W b b m M W a 2 OX2X5.a :.pXiX7.1X7.2XhXOXOXg 2 R Z.hXVXSXAXAXZXGXKX                  ",
"                    zXvXhXhXvXvXjX`.B.Q 9 7.wXpX6XfXcXiX0.OXcX5Xq @.,.pX#.9 Y N.d.d.j.j.d.j.z.d.k.z.Q 0 o e {.R z ..d.y.t.m ! m n N v ! x s -.+X{.u M p.a.y.a.v.a.a.y.a.p.M w O G -.T Y j.a.a.d.n.b.D.C.L.J.(.                                                                                                                                                                                                                                                                                                                                                                                                                                                                                                                                                                                                            -.A.A.G.A.C.B.B.L.`._ A J K o + d |  .V. . . .Q ~  .~ s o.5X-.s ! a.y.a.a.a.a.d.k.k.! a J 4.& o 2 b ! n n / W b b m M W a 2 OX2X2.s o.pX4X4XwX2XwXiX4.7.q 8 R ~ jXSXCXAXCXGXGXKX                  ",
"                    gXeXfXsXeXjXsX].z.M w O.2XpXwXpXcXwX7.7.wX$X6 1.@.pXO.q P  .d.d.j.j.p.d.d.d.k.z.Q 3 X e 7.T z ..k.y.r.n n ! n v n m x s *.#XOXu M t.y.y.a.y.a.y.y.t.p.b w O G *.R I l.a.d.d.b.H.D.D.`.(./.                                                                                                                                                                                                                                                                                                                                                                                                                                                                                                                                                                                                            -.A.G.A.A.C.C.C.L.`.$.p F F X + a $.%.V.%. ...Q ~ | | u *.5X;.0 ! a.a.a.a.a.a.a.d.d.^ a G 6.& o 8 I ! m n n / b b ! ! Q a 2 OX2X-.d _.gX6.OXiXgXpXpXwX9.t 3 I N.jXJXGXGXGXFXUXIX                  ",
"                    fXeXnXbXkXlXuXL.v.! w 3.pXiX4X1XpX<X9.OXhXOX6 ,.@.pXO.9 P  .s.d.j.j.p.a.d.d.a.z.W 3 o : 7.( z ^ a.y.t.m n m n v n m x s -.#X{.u W a.y.y.a.a.a.y.y.t.p.M w O G *.R Y l.d.k.b.b.H.D.D.`.(./.                                                                                                                                                                                                                                                                                                                                                                                                                                                                                                                                                                                                            -.A.A.A.A.C.C.C.L.`.$.t F F X + a $.%.V.%. .^ Q ~ | R u o.5X;.0 ! a.a.a.a.a.a.p.d.d.^ a G 4.& o w W ! m n n / b b / ! ! a 2 OX2X-.u -.2X6.3XpXiX3XwXpX7.p s ! s.sXGXJXJXJXJXUXIX                  ",
"                    fXsXDXnXNXNXdXL.F.c.w 6.gXiX9.1X3XOX7.wXzX_.6 ,.@.pX' 9 P  .d.d...j.p.p.d.a.a.z.W 3 o : 7.( d ~ a.y.t.r.M n n v n m x s -.#X{.u ! d.y.y.a.a.a.y.y.t.p.W w O D *.o.Y l.d.b.b.b.H.D.D.`.(.(.                                                                                                                                                                                                                                                                                                                                                                                                                                                                                                                                                                                                            1.^.A.G.G.C.C.C.L.`.| t F F X + a $.%.%.%. .^ Q ~ | R w o.5X;.0 ! d.a.a.a.a.a.p.d.d.^ a G 4.& o w W ! m M n ! W M / n Q s 2 OX2X1.u o.iXOX3XqX<X2X2XwX,.q 0 ~ N.sXIXPXPXLXLXHXKX                  ",
"                    fXsXDXvXnXNXdX`.P.c.w 7.gXgX7.<.9.<XOX5XhX_.6 ,.+.pX' 9 P  .d.d.! p.p.a.d.d.a.d.b 3 o : 7.( d ~ a.y.a.r.M M n v n m x s -.#X_.u / d.y.y.a.a.y.y.t.y.p.Q u # D -.{ Y c.d.z.b.b.H.D.L.`.(.(.                                                                                                                                                                                                                                                                                                                                                                                                                                                                                                                                                                                                            2.^.G.G.A.C.C.C.L.(.~ t F F X + a $.%.%. . .^ Q ~ | R u o.5X;.0 ! a.a.a.a.a.a.p.j.d.^ a G 4.& o w W ! m M n ! Q M / n Q s 2 OX2X5.s :.gX2XwX<XOX6.4XiX<XG a ^ N.eXLXPXIXLXPXHXHX                  ",
"                    iXsXDXvXnXvXdXL.F.l.u 6.gXgXO.] 4XpXpX2XmX/.6 ,.+.pX' > P ^ d.d.! p.p.p.d.d.a.d.x 3 o : 7.( d ~ a.y.y.r.v v n v n m x u -.#X{.s W a.y.y.a.a.t.y.t.t.p.W u O G *.R Y N.d.z.z.z.D.H.L.`.(.(.                                                                                                                                                                                                                                                                                                                                                                                                                                                                                                                                                                                                            1.^.A.A.A.C.C.C.L.`.| p F F X + a $.%.%.%. .^ Q ~ | R w o.5X;.0 ! d.a.a.a.a.a.p.d.l.^ a G 4.& o w W ! m n n ! W M / / Q a 2 OX2X1.u *.fX2X3X<XOX,.4XaX<XF u ~ %.iXLXPXIXIXPXHXKX                  ",
"                    iXsXDXzXbXlXdXL.F.l.C 6.gXiXZ OX6.6.<X#XhX_.6 ,.@.pX' 9 P ^ d.d.j.p.p.p.a.p.a.d.x 2 o : 6.( d ~ a.t.y.r.n v n N v m x u *.#X{.s W a.y.y.a.a.t.y.y.t.a.W w O G +.T Y B.d.z.k.z.D.H.L.[.`./.                                                                                                                                                                                                                                                                                                                                                                                                                                                                                                                                                                                                            -.Z.A.A.A.V.C.C.L.`.| A F F X $ S $.%.%.%.N.^ ~ ~ | R w o.5X;.0 ! d.a.a.a.a.a.p.j.d.^ a G 4.& o 8 W ! m n / ! Q M ! ! Q a q #X2X2.s *.gX2XpXpXOXO.<XgX<XJ u | %.iXLXPXPXLXPXHX                    ",
"                    gXfXDXvXNXlXkX`.P.c.S {.gXwX@.OXA 7.2X6XeX/.6 ,.@.pX' > P  .d.d.j.j.p.a.a.p.a.s.x 2 o : 6.( a ~ a.y.a.r.n n n v v m x u -.2X{.s W a.t.y.a.a.t.y.y.a.a.Q w O G +.R Y N.d.k.k.b.H.D.L.[.`./.                                                                                                                                                                                                                                                                                                                                                                                                                                                                                                                                                                                                            -.S.A.A.A.V.C.C.`.`.| A F F X $ S :.%.%.%.l...~ ~ | R w o.5X;.0 Q p.p.p.a.a.a.p.j.d.^ a G 4.& o w W ! m n n ! Q Q ! ! Q a q #X2X5.a :.fXwXpX7.<XJ ,.iX9.J u | %.fXLXPXPXLXPXHX                    ",
"                    fXfXDXnXNXkXkXG.P.l.a OXgX6XOX9.OXpXwXpXeX/.6 ,.#.wX' > P  .l.d.j.j.a.a.a.p.d.s.x 2 . : 6.( a Q a.a.a.r.n n n v n m x u -.2X_.u W a.t.t.a.a.y.y.y.k.k.Q w O G -.R Y N.d.k.z.D.H.D.L.`.(./.                                                                                                                                                                                                                                                                                                                                                                                                                                                                                                                                                                                                            -.S.A.A.A.C.C.C.`.(.~ A F F o $ S :.&.%.%.%. .~ ~ | R w o.5X;.0 ! d.a.p.p.d.a.p.j.d.^ a G 6.& o 8 W ! m n n ! W Q ! ! ^ k 2 OX2X;.s $.sXgXgX@.+.@.4.iX9.' u ~ %.gXIXPXPXPXPXUX                    ",
"                    gXsXSXnXnXNXjX[.n.C.P 2XgXwX1X2XiXiXiXhXhX/.6 #.,.wX' & P  .d.d.j.j.a.a.a.a.p.s.x 2 . : 6.( z Q a.a.a.p.n N v v v m x u -.6X{.u W a.y.t.y.p.a.y.y.y.a.b 8 O G +.R Y c.a.k.k.n.H.H.L.[.`./.                                                                                                                                                                                                                                                                                                                                                                                                                                                                                                                                                                                                            +.Z.A.A.A.V.C.C.L.`.R p ' F o $ a :.&.%.N. . .^ ~ | R u o.5X:.s ! j.k.p.p.a.r.p.s.z.^ a G 3.& o 8 W ! m n n ! ! M n ! M i 9 #X2X5.u $.sXsXgXpX1.OX7.iXOX[ s | V.fXLXPXPXPXPXUX                    ",
"                    fXsXVXnXnXNXhX[.D.n.E 5XhXwX2X<XwXpXcXnXhX).q @.,.wX' & P  .d.d.j.j.p.a.a.a.d.l.I 2 . : 6.X.z Q a.a.a.r.n v n r.v m z u *.5XOXs W p.y.t.t.a.a.y.y.k.a.b 8 O D *.R Y N.d.k.k.n.H.H.L.[.`.(.                                                                                                                                                                                                                                                                                                                                                                                                                                                                                                                                                                                                            +.Z.A.A.A.C.C.B.`.(.R t J F o $ a :.%.&.V.%.l.^ ^ %.R w o.5X:.s Q p.j.p.p.a.r.p.s.z.^ a G 4.& o 8 W ! m m n ! Q b n ! ^ i 2 #X2X5.s K.jXjXgXcXiX5X{.pXOXG s | V.gXLXPXPXPXPXUX                    ",
"                    gXfXnXnXnXkXkX[.F.x.~ 6XcX6XOX7.3.pXiXcXhX/.w ,.,.wX' 9 P %.d.d.j.j.p.p.d.d.d.l.Q 8 . ; 6.X.d Q a.a.t.r.n M r.r.n m k u *.2XOXs Q p.a.t.t.a.a.a.k.k.a.M 8 X D *.R Y B.d.k.k.H.F.H.L.[.'.(.                                                                                                                                                                                                                                                                                                                                                                                                                                                                                                                                                                                                            o.Z.A.A.A.C.C.C.`.(.R t G F o $ a :.%.&.V.%. .^  .%.R w o.5X:.s Q p.p.p.p.a.r.p.s.z.^ d G 4.& o w W ! m m ! ! W M n ! ..i 2 #X2X;.i (.lX6XeXcXeX5XOXpXOXG s | V.jXLXPXPXPXPXUX                    ",
"                    gXfXVXVXnXlXhX].I.k.~ eXvXwXG 9.Z OXiXhXjXK.w ,.,.wX' 9 P N.z.d.j.j.p.a.d.d.a.l.W 3 . : 7.o.a W a.a.t.r.n M r.r.n m k u *.2X{.s W d.k.y.a.a.a.a.k.k.a.M 8 X D +.{ Y N.d.k.k.H.F.G.L.[.'.(.                                                                                                                                                                                                                                                                                                                                                                                                                                                                                                                                                                                                            X.Z.A.A.A.A.A.C.`.(.R y F F o $ a :.&.&.&.%. .^ ^ %.R w o.5X:.s Q p.p.p.p.a.r.p.s.l.^ S G 4.& o w W ! m m ! / b b n ! ^ i 2 #X2X;.s K.hX5XiXiX5.OXOXpXOXH s ..N.jXLXPXPXLXPXHX                    ",
"                    iXsXVXAXbXmXjX[.R.j.~ eXmXeXG O.#.J <XpXhX).6 +.,.wXO.9 P N.l.z.j.j.a.a.a.a.z.z.I 2 . : 7.X.a W a.a.t.m n n r.r.n m z i -.#X{.u W d.k.t.a.a.a.a.k.y.a.M 8 X D +.R Y c.d.z.z.H.F.I.I.[.`.(.                                                                                                                                                                                                                                                                                                                                                                                                                                                                                                                                                                                                            X.Z.A.A.A.A.A.A.`.(.R y F F . $ S :.&.&.%. . .^ ^ %.R w o.5X:.s ~ p.p.p.p.a.n ! s.l.^ S G 4.& o 8 W ! n m / / b b n ! ^ k 9 OX2X5.s :.fXeXwX6.X.6.6.iXOXA s | %.gXIXLXLXLXPXHX                    ",
"                    iXiXxXCXxXzXdX].R.j.| pXnXgXO.t 6.<X4X5XvX/.6 +.,.wXO.9 P N.l.l.l.j.k.a.d.a.z.z.x 2 o : 6.( a W a.a.t.r.n M m n n m k i -.OX{.u W p.y.y.t.t.y.a.k.y.a.M u O D +.T Y c.d.z.b.H.P.P.L.[.'.(.                                                                                                                                                                                                                                                                                                                                                                                                                                                                                                                                                                                                            +.Z.A.A.A.A.A.A.`.(.R y F F o $ C :.&.&.%. . .^  .%.R w o.5X:.s ~ ..p.p.p.a.n ! s.l.^ d G 4.& o 8 W m M n n M b b n ! ^ z 2 OX#X/.s :.jXwX7.B @.G 6.gX9.g u ~  .gXIXLXLXIXLXHX                    ",
"                    xXZXKXKXKXKXfX].I.k.$.pXmXlX2X6.O.3XwX2XhX}.6 @.,.wXO.9 P N.l.l.l.j.k.k.d.d.k.z.x 2 o : 6.T a W a.a.p.m m M m r.r.! k i -.OXOXu W p.t.r.r.t.a.a.y.y.a.M u O D +.T Y c.d.z.b.H.I.P.L.].'.).                                                                                                                                                                                                                                                                                                                                                                                                                                                                                                                                                                                                            +.^.A.A.A.A.A.A.`.`.{ y F F . $ C :.$.&.%. . .^  .%.R w o.5X:.0 ~ j.p.t.r.a.r.! s.l.~ d G 4.& o 8 W m n m / M b M n ! ! k 2 OX#X5.s &.hX2X7.,.,.e 6.cX9.t u | %.gXIXLXLXIXLXHX                    ",
"                    HXPXLXLXPXLXfX-XI.k.%.eXvXzXcXgXgXcXgXwXhX_.w @.,.wXO.q U %.l.l.j.j.j.k.j.j.z.l.x 2 o : 6.T a W d.a.a.p.m M m r.a.! i s -.OX{.u M r.y.r.t.t.y.a.a.t.a.M u O D +.R Y c.z.z.z.D.I.P.[.].'.(.                                                                                                                                                                                                                                                                                                                                                                                                                                                                                                                                                                                                            +.^.A.A.C.V.A.A.`.(.o.y F F o $ a *.$.%.%. ...^  .%.~ 8 o.5X*.0 Q j.p.p.t.d.m ! ! l.~ d G 4.& o 8 W m m m m n M M m ! ^ k 2 OX2X;.s ;.hX#X7.6.] ] <XcX9.t s ~ %.jXLXLXLXIXPXHX                    ",
"                    HXPXPXLXLXLXgX@XP.z._ eXmXgXwXgXgXcXpXwXhX/.w 1.@.wXG w S Z.N.l.j.j.l.z.l.l.d.l.P 4 o : 6.T s Q p.a.t.r.! n n r.r.n k s ;.#X_.u W r.r.r.t.t.d.v.a.y.a.b 3 O ( *.R I c.l.z.z.H.P.[.].].'.(.                                                                                                                                                                                                                                                                                                                                                                                                                                                                                                                                                                                                            +.;.A.A.V.V.V.A.J.'.R y F Z o $ d :.&.%. .%. .~  . .~ w -.2X;.0 Q j.j.p.p.d.! ! ! z.^ d G 4.& X 8 b m M m n M M M n s.V.k 3 +X2X/.i >.hX2X<X7.7.,.3XcXOXy s Q %.gXIXLXLXLXPXHX                    ",
"                  HXKXLXPXPXPXLXsX'.E.z.~ eXbXgXOX9.9.<X4X2XcX$Xq O.4.wXX.y T $.%.l.l.j.l.l.l.l.z.l.P 4 o : 6.G a Q s.p.t.r.p.n n p.n M i s -.OX{.u M r.t.t.t.y.a.a.a.y.a.M 3 O T o.R Y c.z.z.x.H.P.[.].].[.(.                                                                                                                                                                                                                                                                                                                                                                                                                                                                                                                                                                                                            +.S.A.Z.V.Z.V.A.J.'.R y F Z . $ d :.&.%. .%. .~  . .~ w +.2X;.0 Q ..j.! j.d.! ! ! z.^ d G 4.& o 8 W m M m m n n v / ^ ~ P 3 #X2X/.s >.zXwXfXgXiXpXwXcXOXw i Q &.gXIXLXLXLXPXHX                    ",
"        aXw.8.1XgXHXLXPXPXPXPXPXsX'.E.k.Y pXzXgX3.<.<.4.1XwXcX5.D ,.OXpXpX5.T &.%.l.l.j.l.l.l.l.z.c.P 4 o : 6.G a ~ j.p.y.r.! n n p.n M i s -.OX_.u M r.t.t.y.y.a.a.y.y.a.M 8 O D o.R Y C.z.z.C.H.P.[.].].[.`.                                                                                                                                                                                                                                                                                                                                                                                                                                                                                                                                                                                                            +.;.A.A.V.Z.V.A.A.'.R y F F . # a :.&.V.%.%. .~  . .R w +.2X-.0 Q ! ! ! j.d.! ! ! z.! d G 4.& X 8 Q ! M m m n v M / ^ $.E p #X#X5.s 5.gXwXpX3XqXgXiXgX1Xy i ^ %.jXIXPXLXLXLXHXHX      UX          ",
"      aXK Z K K 1XKXPXKXaXpXaXKXgX(.P.p.I eXgXiXK ' OX6.OX2XfX4.H G #.9.pX2X-.;.%.l.l.l.l.l.l.l.z.c.z $ o : 6.G a ~ j.a.a.t.p.m n p.n m k p ;.OX_.u M r.t.t.y.y.a.a.y.y.a.M 8 O D o.R Y C.z.B.C.I.P.[.].].].`.                                                                                                                                                                                                                                                                                                                                                                                                                                                                                                                                                                                                            +.;.A.A.Z.V.V.A.A.'.R y F F . # p :.&.S.%.%. .~ ^  .R w +.2X*.0 W ! ! ! p.s.! ! ! c.^ d G 4.& o w Q m M ! ! n M M Q  .:.5XfXwXOX{.S 5.gX2X6.+.,.' 2XcX4Xt h ^ %.gXLXPXLXPXLXJXGX  xXcX3X<XaX      ",
"      gXqXOXJ J 3.KXPXHX<.: ] JXgXK.D.m P 6XiX2XZ r 9.pX6.wX6X+.' ] 6.,.3XgX2X;.%.N.l.l.z.l.l.c.z.N.P $ o : 6.G a ~ s.a.a.p.p.m m p.n m k s -.OX_.u M r.t.t.y.y.a.y.y.t.a.M 8 O T o.R Y C.z.B.D.P.P.].oX].].'.                                                                                                                                                                                                                                                                                                                                                                                                                                                                                                                                                                                                            +.;.Z.A.Z.V.S.A.A.'.R y F F . $ C :.&.S.N.%. .^  . .R w +.2X*.5 Q ^ ! ! p.s.! s.! c.Q d G 4.& o w Q n M m m M N b Q &.#XwXpX4.A +.T {.gX<X1.<X3XF 6.iX2Xy i ^  .jXIXKXKXIXLXJXiXwXOX3.' K q.      ",
"      KXJXgX2X@.6.KXPXKX0.: [ JXfXV.n.m P 5XiXOXF : Z B J 1.2XwXiX3X<X9.wXiX2X).&.N.l.z.z.l.z.c.C.C.P $ o : 6.G a ~ s.d.a.p.s.m n p.m m i u -.OX_.u m t.t.t.a.y.a.a.y.t.k.M 8 O ( +.R Y C.z.B.D.P.[.].oX&X].}.                                                                                                                                                                                                                                                                                                                                                                                                                                                                                                                                                                                                            +.;.Z.A.S.V.S.A.A.`.R y F F o $ C -.&.S.%.%. .^  .%.~ w @.2X*.u Q ....! ! s.! s.! l.Q a G 4.& o u Q n M m n M N c  ._.iXiXOX3.J G G 5.gX9.wXxX9.: 3.pX2Xw i ! N.jXKXFXcXqXgXJX2X( G ( 7.2XgXHX    ",
"    IXIXKXVXgXOX<XKXPXKX3.& J KXsXJ.D.! S 2XpX7.Z ; V V B 4.zXJXJXaX3XpXgX2XOX$XV.N.z.z.z.z.z.z.D.C.P $ o : 6.G a ~ s.d.k.p.! n n p.m m i u -.OX6.u m t.y.t.y.y.a.a.t.t.j.Q 8 O ( +.R Y C.z.B.D.L.[.].oX&X].}.                                                                                                                                                                                                                                                                                                                                                                                                                                                                                                                                                                                                            +.;.S.Z.V.V.S.V.A.`.R t F Z . $ A ;.&.S.N.N.%.^  .%.~ w @.2X*.u Q ....! ! s.! s.! l.Q a G 4.& o w Q n b n n n b x &.#XwXiX9.9.3XpXpX<XOX3.3.] : : ' wX1Xq h ^ N.gXHXxXgX] <XGX2XC T $XeXxXHXLX    ",
"    IXIXKXAXiXOX2XKXLXIX7.: J GXeXJ.I.! a 4XwX,.: ] K 9.pXiXCXKXJXaXqXgXpX6.6X5XV.N.B.z.z.z.z.z.C.C.P $ . r 6.G a ~ s.d.k.d.! M n p.p.! a u -.OX6.u m t.y.y.y.y.a.a.t.t.j.Q 8 O ( o.R Y C.z.B.G.L.[.].oX-X].}.                                                                                                                                                                                                                                                                                                                                                                                                                                                                                                                                                                                                            O.;.S.Z.V.%.V.V.A.(.R t F Z . $ A ;.&.V.N.V.N. .N.V.$.w #.2X*.7 Q ..! ! ! s.! s.! l.Q d G 4.& o w Q n n n n n M x K.2XOXiXpX3XgXGXKXzX9.Z : : , ; K 3XOXq k l. .fXKXFXaX<.4XJXiX-.-.2XgXSXKXIX    ",
"    KXIXKXbXeXOX<XKXPXHX0., ] JXeXZ.D.m a OXwXO.& ] F 6.4X3XxXKXGXqX3XpXwXOXwX#XV.N.B.z.z.z.z.z.B.C.I 2 o : 6.J a ~ l.z.d.p.m ! n j.m ^ i s -.OX_.u ! t.y.y.y.a.d.a.y.y.p.b 3 O D o.R Y V.B.C.G.P.[.].oX].@X}.                                                                                                                                                                                                                                                                                                                                                                                                                                                                                                                                                                                                            +.;.S.Z.Z.S.V.Z.A.(.R t K Z o # A -.&.V.S.V. . .N.N.$.w #.2Xo.5 Q ....! s.! ! ! ! l.~ a G 4.& X u Q n n n m m b W _.wXOX3XcX3XgXGXKXJXpX4X7.[ Z & r 3X9.y z ^ N.jXJXUXaX[ 4XJXSX2X_.#XsXMXJXIX    ",
"      JXxXiX#X4.OXKXPXLXcXaXcXKXeXZ.D.M u OXwXO.V 3.3.V A #.pXJXcXqX9.4XqXOXOX/.V.N.c.z.z.z.z.z.z.V.P 2 o : 6.J a ~ l.z.p.! ! M ! j.m ! s p -.OX6.u m y.y.t.y.a.f.y.t.y.p.b 3 O T +.R Y C.B.C.L.[.[.].oX].@X}.                                                                                                                                                                                                                                                                                                                                                                                                                                                                                                                                                                                                            O.;.S.Z.Z.S.V.Z.A.(.R t K Z o # C ;.&.S.V.V. . .N.N.| w #.#XR 5 Q ....! j.s.s.! ! l.~ a G 3.& o u Q n / n M M M Y >.#X6.3XaX3XpXCXJXxXpX3X7.[ < % : <X7.q k ^ N.jXKXHXxXqXgXJXxX5.o.{.wXzXJXIX    ",
"      qX2X2X6.J <.JXPXLXPXPXPXPXeXJ.I.M w OXwX6.Z <.6.J H X.@.2X3X9.<.<XpXOX{._.%.N.z.z.z.z.c.c.z.N.P 2 o : 6.J a ~ s.z.s.! ! Q n s.m ! s p -.OX6.u m t.y.t.y.k.a.y.t.t.p.b 2 X T +.R R C.B.G.L.[.].oX@X].@X}.                                                                                                                                                                                                                                                                                                                                                                                                                                                                                                                                                                                                            O.;.%.S.S.S.S.Z.Z.(.R B [ Z . # C *.&.S.V.V. . .N.%.| w #.2XP 5 Q ....! j.l.s.! ^ l.~ a G ,.& o w Q n ! / M M b Y $._.4.pXpX9.3XcXJXgX6.[ V Z L Z V 9.3.q k ^ V.hXIXLXLXLXPXGX4Xt G 1.#XpXcXHX    ",
"      9.,.4.4.J Z 0.HXPXPXPXPXPXeXJ.L.M y 9.iX2X: K <.O.6.2XOX' ,.6.6.3.1XwX2X$.%.N.B.z.z.z.c.c.c.N.P 2 o r 6.G a ~ s.z.s.! ! Q M ! m ! s p -.OX6.u m t.t.t.a.k.a.y.y.r.p.b 2 X G +.R Y C.B.G.[.[..X].-X@X@X}.                                                                                                                                                                                                                                                                                                                                                                                                                                                                                                                                                                                                            #.;.%.S.Z.S.V.Z.Z.(.R B [ Z . # C *.&.S.V.V. . .N.%.~ w +.2XS 5 Q l.! m j.l.l.^ ! l.~ a H ,.& o w W n M ! m M M W $./.4.3XOX3.9.2X3X4.' V : ] <.[ F 3X3.q z ^ N.hXLXPXPXLXLXKXOXr Z X.6.9.1XpX    ",
"        <.K K Z Z w.HXPXIXLXPXLXwXZ.G.Q w 7.iXwXZ V F O.2XwXiXO.F F #.,.7.6.5./.%.c.z.z.z.z.c.c.c.N.P 2 o r 6.T a ~ s.z.s.! ! Q M m m ! s p -.#X6.u M t.t.t.y.v.a.y.t.r.p.b 2 X D X.T Y V.B.G.[.[..XoX-X@X@X+X                                                                                                                                                                                                                                                                                                                                                                                                                                                                                                                                                                                                            O.-.%.S.S.;.&.Z.Z.(.) t K Z o $ S *.&.V.V.V. . .N.%.| w -.2XS 7 ^ l...m j.l.l.^ ! l.~ d A ,.& o w W n M ! ! M b b | 5.#XOX<.,.7.,.O.@.2X3.K <.] Z ] qX3.& k ^ &.hXLXPXPXPXLXHX9.: : F 3.8.] q.    ",
"                  cXKXPXPXPXPXLXwXS.C.Q y 7.iXpX3.J <.4XwXwXgX6.A H V G 6.1.) ;.N.N.B.x.z.z.c.c.c.N.z 2 o e 6.T a ~ s.z.s.s.! Q M m ! Q s p +.OX6.u M t.t.t.y.v.a.y.t.t.p.b 2 X J +.R R A.B.G.[.[..XoX-X-X@X+X                                                                                                                                                                                                                                                                                                                                                                                                                                                                                                                                                                                                            O.-.&.S.;.&.&.V.Z.(.) t K V o $ C -.&.%.%.%. . .N.N.~ w +.#XS 7 ^ l.l.! l.l.l.^ ^ l.~ d A ,.& o w Q ! M ! M M M W ~ $.5.4.#.#.,.G B 6.iX9.J Z V V 6.pX3.& k ^ &.hXLXPXPXPXPXUXpXL % V L L 8.      ",
"                    FXKXKXHXKXJXeXZ.C.b y 9.iXpX7.9.{.3XOXwXgX6.q ,.#.OXJ t P Z.N.B.B.z.z.z.c.B.z.N.z 2 o e 6.T a ~ s.z.s.! Q M M n ! ^ s p o.OX6.u M t.t.y.y.v.d.y.y.t.p.b 2 X J +.R R A.B.G.].[.].oX-X@X@X+X                                                                                                                                                                                                                                                                                                                                                                                                                                                                                                                                                                                                            O.-.&.Z.;.;.&.Z.A.(.) t K Z o $ C -.&.%.%.%. . .N.%.~ w -.#XP 7 ^ ..l.! l.l.l.! ..c.~ S F ,.& o w Q ! ! ! M M M b Q | -.4.X.J A H w 6.pXOX,.K V r OXiX3.& k ^ &.hXLXPXPXPXPXUX        8.          ",
"                    gXgXCXxXxXcXeX(.C.l w OXgXiX4X3XpX6XOX3XiX6.q @.O.wX( 2 R %.N.B.B.z.z.z.c.c.z.N.z 2 o e 6.T a ~ s.z.s.! M b b n p.^ s p o.#X6.u M t.y.y.y.a.d.a.y.t.p.M 2 O D ) R R A.B.A.].].].oX-X@X@X}.                                                                                                                                                                                                                                                                                                                                                                                                                                                                                                                                                                                                            O.-.&.;.;.;.;.Z.A.(.R B ' Z o $ S -.:.&.%.&. . .N.%.R w >.#XP 7  .^ l...l.l.s.^ ..l.~ S F ,.& o w Q ! ! ^ ! m M b W %.:.T t 4.6.@.q 6.iX9.3.3.O.J 2XiX3.& k ^ &.hXLXPXPXPXPXUX                    ",
"                    gXsXzXcXnXlXsX`.s.x u OXpXqXwXgXcXiXOXOXfX#X6 1.@.wXG 2 R S.N.C.z.z.c.l.l.c.c.l.z 4 o r 7.( a  ...l.s.s.! M b m p.s.s a $.#X_.u m r.t.y.t.a.v.y.a.t.z.x 2 X T o.R R C.C.J.[.].].-X-X@X@X}.                                                                                                                                                                                                                                                                                                                                                                                                                                                                                                                                                                                                            O.*.;.Z.;.;.;.Z.Z.(.) B [ Z o # S *.o.&.&.%.|  .N.%.R w -.#X*.0 ~ l.l.! j.l.s.^  .l.~ p H 3.& o q Q ^ Q ! ^ ! Q M M ..&.p & 4X2X5.u _.pX9.6.OXOX6.3XgX7.$ a  .V.hXLXLXPXLXPXUX                    ",
"                    gXjXnXnXnXNXtXG.! h p 4XpXiX2XgXcXpX3XOXwX^.6 1.@.wXG 2 R S.N.C.z.z.c.l.l.z.z.N.P 4 o e 6.( a | ^ j.! s.! ! b m r.s.s a $.#X_.u Q t.t.a.a.a.v.t.a.p.j.x 2 O T $.R R C.C.J.[.].].-X-X@X@X}.                                                                                                                                                                                                                                                                                                                                                                                                                                                                                                                                                                                                            O.-.;.;.;.;.;.Z.S.(.) A ' Z o $ S -.o.-.&.%. . .&.&.R w -.OXo.0 ~ ..l.! j.s.^ ^  .l.~ f F 3.& o q W ! Q ^ ^ ^ Q b m .. .d q <XOX-.s /.pX3.1XpXpX6X3XpX3.$ a ..N.jXLXPXIXIXPXUX                    ",
"                    fXfXvXnXnXNX7X[.S.i 2 @.3.OXpXpXpX4X9.2X5X/.6 4.,.wX[ q R V.N.c.z.z.c.l.l.z.z.N.I 2 o e 6.G a | ^ s.! p.! ! M m r.s.s d *.#X_.u Q m y.a.a.a.k.t.a.t.s.l 2 X T o.R R C.C.A.[.].].-X-X@X#X}.                                                                                                                                                                                                                                                                                                                                                                                                                                                                                                                                                                                                            O.-.;.;.;.;.;.Z.S.(.R A ] Z o $ S -.:.:.&.%. . .&.&.R w -.OXo.8 ~ ..l.! ! s.^ ! .. .~ A F ,.& o w Q Q Q ^ ^ ^ ~ b m j. .d q OXOX5.s :.<X3.qXiXcX6X6XpX7.> 0 ..A.hXIXIXHXIXPXJX                    ",
"                    iXeXeXeXeXrX7XJ.Q 0 9 4.9.wXzX6X3X9.3.iXwX).6 4.@.qXG 9 R V.l.c.z.z.c.c.l.z.z.V.I 2 o : 6.G a | ^ p.r.a.p.! n m r.p.s d *.+X6.u ..t.y.y.a.k.k.t.j.m s.k $ X T o.R ~ A.C.G.[.].].-X-X;X#X}.                                                                                                                                                                                                                                                                                                                                                                                                                                                                                                                                                                                                            O.-.;.;.&.;.;.Z.S.(.R A ' Z o # A -.:.:.&.%. . .%.&.R w -.OXo.0 ~  .l.! j.s.^ ! ^ ^ ~ f A <.# o w Q ! Q ! ! ! ^ M m j.%.a $ <X#X5.0 :.2X9.3XpXiX6X1X<XO.$ 8 ~ C.hXLXPXIXLXLXGX                    ",
"                    cXhXhXhXhXhXsX`.^ z y #.<XwXpX{.1X7.q.pXrX&.6 4.@.3XF 2 Y N.l.c.z.z.c.z.z.z.z.N.Y 2 o : 6.G p | ^ p.p.a.a.p.m m r.! s f :.#X5.u ..t.t.y.y.a.k.t.j.! ..z $ X G o.T ~ L.C.G.[.].@X-X-X;X#X#X                                                                                                                                                                                                                                                                                                                                                                                                                                                                                                                                                                                                            O.-.;.;.&.&.&.Z.S./.T A [ V o # S -.-.:.&.%. . .%.&.R w -.#Xo.8 ~ ..l.s.l.l.^ ^ ..^ ~ A H <.# o w Q ! M ! ! ! ^ M ! l.%.a q OXOX*.8 ;.iXOX3.OX<XpX3X<.] $ 8 Y N.hXKXIXIXIXKXGX                    ",
"                    cXlXhXhXhXkXuXJ.~ s $ 7.iXiXpX{.7.6.pX2XeX/.6 4.@.3XF 2 R V. .c.z.z.C.c.l.z.z.N.I 4 o : 6.G p | ^ p.t.a.a.a.n ! r.j.s f :.#X6.u ..t.y.y.y.k.k.t.j.j...z $ X G o.T ~ L.C.G.[.].-X-X-X;X#X#X                                                                                                                                                                                                                                                                                                                                                                                                                                                                                                                                                                                                            O.-.;.;.&.&.&.Z.S./.T A ' Z o $ S -.:.:.&.&.%. .%.&.{ w -.#Xo.8 ~ ..l.l.l.l.^ ^ .. .~ A F <.& X w Q ! M m / ! ^ Q ! l. .d q OXOX-.0 &.2X1X,.6.<XwXaX9.3.> 8 Q V.hXGXFXFXxXxXxX                    ",
"                    xXhXhXhXkXkXsXJ.^ 0 9 qXpX7.iX3X7.OXqXOX7XJ.6 4.@.3XF q R V. .c.z.z.C.z.l.z.z.c.z 4 o : 6.G p | ! p.t.a.a.a.n p.t.j.i f :.#X_.u ..t.y.f.f.a.a.y.k.j.j.k $ X G X.T | L.D.G.[.].-X-X-X;X#X#X                                                                                                                                                                                                                                                                                                                                                                                                                                                                                                                                                                                                            #.-.;.;.;.&.&.Z.S./.T A [ V o $ C o.*.:.&.%.$.| %.$.R w -.OXo.8 ~  .l.l.l.l.^ ~  .^ ~ f A <.& o w Q ! ! ! ! ! ^ ! ! l.%.d & OXOX;.0 :.#XpXOX<.9.4XpXqX6.$ 0 | V.hXZXGXxXzXxXxX                    ",
"                    xXhXzXlXvXvXdXA.Q s 8 wXqX<.7.pXqXpX5.5X,XV.6 4.,.qXG q ~ V.l.N.B.z.C.z.l.z.z.c.z 4 o e 6.G p | ! a.u.a.a.a.n a.a.j.i f :.#X{.u Q t.y.f.f.f.f.a.k.p.j.z $ o G } T | L.G.L.[.].-X-X-X;X#X#X                                                                                                                                                                                                                                                                                                                                                                                                                                                                                                                                                                                                            @.-.;.;.&.&.&.V.S./.T A [ V o $ C o.o.-.;.&.%.| %.:.R w -.OXo.0 ~  .c.l.l.l.^ ~ .. .~ p Z <.# o w ~ j.! ! ! ! ^ Q ! l.V.a & OXOX*.0 /.#X#XOX6.9.gX<XqXwXy 0 ~ V.hXZXGXCXzXzXxX                    ",
"                    zXvXlXlXkXkXdXC.^ k 3 OXOXF 3.wXgXiX-.`..XC.3 ,.@.qXF q R S.N.N.B.B.C.c.c.z.z.c.I 2 o r 3.G a | s.r.y.a.f.a.a.a.a.d.i d *.#X{.s ..p.a.b.g.f.f.f.a.p.j.x $ X G T T $.L.L.`.[.].@X@X-X;X@X#X                                                                                                                                                                                                                                                                                                                                                                                                                                                                                                                                                                                                            @.-.;.;.;.&.&.V.V./.T A K Z X $ S +.o.-.;.&.%.| | &.o.w -.OXo.3 ~  .l.....l.^ ^  .^ R p A O.& o w Q ! m s.s.! ! ! p.l. .a & OXOX5.s | 5X#XOX1X2X2X,.3XiXw i | &.dXGXZXDXzXbXxX                    ",
"                    cXlXhXhXhXhXsXV.l.N.Y S g 0.<X3XwX#X'.[.I.C.w 4.@.3XF q R Z.N.N.B.B.V.c.c.c.z.c.I 2 o r 4.G d | s.r.y.y.f.a.a.a.a.a.i d *.#X_.u Q r.a.g.g.g.g.b.d.d.l.x $ o G T T | L.L.`.[.@X@X-X-X;X#X#X                                                                                                                                                                                                                                                                                                                                                                                                                                                                                                                                                                                                            @.-.;.;.;.&.&.V.V./.T A ' Z . $ S +.o.*.;.&.%. .%.;.o.9 -.OXo.3 Y  .l.....s.^ ^  .^ Y p H ] & o w Q ! m ! s.! ! ! p.l.N.a 2 OXOX5.0 ~ #X;.+XiXgX9.' OXwX0 0 ~ V.jXGXZXVXvXmXxX                    ",
"                    cXhXhXlXkXhXsXJ.N.^ %.R $ #.qXwXeX7XoXP.F.C.w 4.@.3XF q R S.N.V.B.B.V.l.N.c.z.l.P 2 o r 6.G d  .s.r.y.y.f.a.a.a.a.a.h d $.#X{.p ~ p.a.d.d.d.d.d.d.s.s.x $ X G T T | L.L.`.[.@X@X-X-X;X#X#X                                                                                                                                                                                                                                                                                                                                                                                                                                                                                                                                                                                                            @.-.;.;.;.;.&.V.V.^.T A ] Z . $ S -.:.*.=.&.%. .| :.R w -.OXX.3 R  .l.....l.^ ^  .^ Y f F #.& o w ~ ! m ! s.! ! ! p.j.N.a 2 OXOX2.0 ~ V.`.).5XwX4.2X-.K.k x N.Z.jXZXAXnXvXmXxX                    ",
"                    cXhXhXlXlXhXsXV.N.N.N.%.8 g iXgXrXtX*XF.T.D.3 1.@.3XF q Y N.N.N.B.z.N.l.l.c.c.l.P 4 o r 6.T d  .j.r.y.y.a.a.r.r.y.k.h z $.#X6.6 Y ! d.d.d.z.z.z.z.s.! x $ X G T T | L.L.`.'.].@X-X-X;X#X#X                                                                                                                                                                                                                                                                                                                                                                                                                                                                                                                                                                                                            +.-.;.;.;.;.&.V.V.^.T A ] Z o $ S +.:.*.;.&.&. .%.&.R w 4.#Xo.3 ~  .l.....^ ^ ~  . .Y f F #.& o w ~ ! M ! ! ! ! ! p.j.l.k 2 OXOX^.0 ~ L.L.].5XeX$XwXs k ..V.A.V.jXZXMXnXvXzXxX                    ",
"                    cXhXhXhXlXkXsX&. .A.l.^ Q d | tXtX[.E.n.Q.D.3 1.@.3XF q Y N.V.N.B.B.c. .l.l.l. .z 4 o r 6.X.a ..j.t.t.y.a.a.r.r.y.k.k P :.#X{.y ~ ^ s.l...l.s.^  .^ ^ P 6 X G T T | L.L.[.'.].@X@X-X#X#X#X                                                                                                                                                                                                                                                                                                                                                                                                                                                                                                                                                                                                            @.-.:.;.;.;.&.V.V.^.T A ] Z o $ S o.-.*.;.&.%. .| &.R w 1.#Xo.w ~  .l.....^ ^ ~  . .Y f F ] & o w ~ ! M ! ! / Q ! ! j.N.k q OXOX^.0 ^ k.E.&X7X6XjX$X4 l C.C.N.%.hXSXbXbXvXmXxX                    ",
"                    zXlXhXlXvXvXfX;.~ N.l.C.C.^ c V.[.H. XY.m.z.7 4.@.2XA q R S.S.N.B.B.l. .l.l.l. .z 2 o r 6.( a ..j.t.t.t.a.a.r.n t.j.k P :.2X7.w P x W Q ~ ..%. .&.%. .P & o G T R ~ L.L.[.'.].@X@X-X@X@X#X                                                                                                                                                                                                                                                                                                                                                                                                                                                                                                                                                                                                            @.-.;.;.;.;.&.V.S.^.T A ] Z o $ D -.;.;.;.=.%.%.| :.T w -.OXX.3 ~  .l..... .^ ~  . .~ f F ] & o w Q ! M ! ! M M ! p.j.N.k q OX{.^.0 ! F.m..X:XkXsX~ 0 s.D.B.N.Z.hXZXMXmXvXmXxX                    ",
"                    zXhXhXlXvXvXfX>.| N.B.d.d.I.H.D..XE.n.T.m.x.3 1.+.2XF q ~ S.V.N.B.c. . . .N.l. .z 2 o r 6.( a  .l.r.t.t.a.p.p.n t.j.k S *.2X7.y { ~ ~  .&.&.;.&.&.| Y d & o D T R ~ L.L.[.'.'.@X@X@X@X@X#X                                                                                                                                                                                                                                                                                                                                                                                                                                                                                                                                                                                                            @.-.;.;.;.;.&.Z.S./.T B ' V o $ C T o.-.;.&.%.%.%.:.R w 1.OXX.3 ~  .l..... .^ ^  . .~ p A ] & o w Q ! M ! M b M m p.j.N.k 2 OX}.Z.0 m M.R.F.L.:XQ h l.k.b.n.C.Z.gXMXMXmXvXmXMX                    ",
"                    cXhXhXlXvXvXfX;.| ^ N.D.d.n.F.I.F.F.R.Y.m.z.3 1.@.2XG w ~ V.V.S.B.N.%. .%.N. . .z 2 o r 6.T a  .l.p.r.t.a.p.m n r.j.k S *.2X{.B o.R P P d a a u s s u u & @ G T R | L.L.[.'.'.@X@X-X@X#X#X                                                                                                                                                                                                                                                                                                                                                                                                                                                                                                                                                                                                            @.*.;.;.;.&.&.S.S./.T t J V o $ q p p S P P R R o.o.T p 4.OXX.3 R %. . . .l.^ ^  .%.~ t A ] $ o w ~ ! M Q M b b M ! l.l.a 2 OX).;.0 ! b.Y.F.F.L.C.V.C.D.b.n.N.S.gXAXMXvXlXmXMX                    ",
"                    cXhXhXhXkXvXsX&.| %.l.z.z.D.m.m.Y.Y.F.F.n.l.7 +.1.6XD w R S.V.S.S.N.N. . . .....z 4 o V 6.( a  .l.d.t.a.a.p.m m r.d.z a -.OX-.B t A A A S T R $.*.o.T t $ o G T T $.(.(.[.[.].@X-X-X@X#X+X                                                                                                                                                                                                                                                                                                                                                                                                                                                                                                                                                                                                            @.-.;.;.Z.;.&.V.;./.T B J r X # q w w w y t p B B A A V 6.OXo.8 I %.%. .%.^ s... .%.R A Z ] & o y R  .W W W c c M ! l.%.i 4 OX$X>.0 ^ v.m.Y.F.F.D.z.z.z.D.B.B.Z.jXnXMXvXzXvXMX                    ",
"                    zXvXhXhXkXvXsX&.|  .l.c.z.b.b.m.R.Y.F.H.b.s.2 +.@.2XD w R ;.%.V.V.N.%. .%.%.l. .P 2 o t 6.X.a ..s.p.t.a.a.r.n n p.z.x a T T -.( #.@.@.4.4.4.5.5.2.o.G e # o G T T | (.(.[.[.@X@X-X@X#X#X+X                                                                                                                                                                                                                                                                                                                                                                                                                                                                                                                                                                                                            @.-.;.;.Z.S.V.S.;./.T B J r . # q t S D A A A B V V r t @.6.o.u Y  . .%.%.^ s... .%.R A Z O.& o y R | ~ ~ Y x x x ! ^ %.k w $X{./.s Q b.m.U.m.F.n.z.x.z.x.z.B.Z.fXMXbXzXzXvXMX                    ",
"                    xXvXlXlXlXNXsX&.|  .l.B.z.b.b.m.R.Y.m.n.b.^ 6 ,.,.2XG 9 T :.:.%.%.%.%.| $.&. .| Y w o e 4.T i ..s.p.t.t.t.r.n m a.l.h d >.5.2.1.6.6.1._._.2.5.5.1.+.H q @ o G T T $.`.`.[.[.-X@X-X@X#X#X#X                                                                                                                                                                                                                                                                                                                                                                                                                                                                                                                                                                                                            #.*.:.;.Z.S.&.S.;./.T t ' V . @ q p } X.G G J J J J F Z G X.{ 8 Y  .%. . .s.s.^  .%.R Z Z #.& o y R | Y Y I x x I ^ N.%.s w OX+XK.7 ^ D.m.U.m.m.n.v.n.D.z.z.B.A.fXnXbXcXhXvXbX                    ",
"                    xXvXlXlXlXNXsX&.|  . .C.z.b.n.m.F.m.n.b.D.N.2 ,.@.3XG q X.:.-.:.$.| R U U U k k a w o r 6.X.i ..p.a.t.a.t.r.v n a.B.i z 5.;.-.*.1.5.2.2.;.2.5.4.,.J B : @ o J T T $.`.[.[.oX-X@X-X@X#X#X#X                                                                                                                                                                                                                                                                                                                                                                                                                                                                                                                                                                                                            @.-.:.;.Z.;.&.S.;./.T t ' r 1 @ > y G o.X.X.X.X.X.O.' G G G o.3 Y %.%. . .^ s.^  .%.R t F #.& o y S P R R R R Y Y ~ %.%.a 2 #X+X;.5 s.D.m.m.m.m.n.z.x.x.z.z.B.A.fXbXzXlXhXvXzX                    ",
"                    xXvXzXlXlXlXsXS. . . .B.z.z.n.m.m.n.v.D.C. .4 #.,.wXG q S S a a a p p p p s i s u q o r 6.X.a ..s.p.t.y.t.r.n v a.D.c U >.{ *.X.@.4.2.-.$.*.+.O.' F Z Z V e J G E $.`.`.[.oX-X-X-X@X#X#X#X                                                                                                                                                                                                                                                                                                                                                                                                                                                                                                                                                                                                            @.-.;.;.Z.;.&.S.;./.T B ' V @ # > r S X.[ X.X.J X.O.O.#.X.} :.3 ~ %.%. .%.^ s.^ ..%.R A F #.& o q p u w w p f S U R $.R T $ OX$X:.0 ^ H.m.m.m.n.v.z.z.z.z.z.B.A.sXvXbXhXhXvXbX                    ",
"                    zXvXvXvXvXNXsXS. . . .N.z.z.n.m.m.n.b.D.B. .w @.,.2XG t A p S S P T R o.o.{ U d p q o e 4.T a  .l.d.t.a.t.r.r.v a.z.k U >.+.+.X.O.' ( ( T ( J K ' ] ] ] ] ' F D S ) `.`.].oX-X-X-X@X#X#X#X                                                                                                                                                                                                                                                                                                                                                                                                                                                                                                                                                                                                            #.*.&.;.Z.;.&.S.;.5.T e F Z V Z H A F H H G G F G ' ' X.X.} *.3 ~ %. . . .^ s.^ ..%.~ f F O.$ o q w w y y y t y y w y p A > OXOX-.0 ^ H.m.m.n.n.v.z.z.z.l.z.N.S.sXmXbXcXhXvXbX                    ",
"                    cXvXvXvXNXNXsXS.%.%. .N.B.z.b.n.F.n.b.C.B. .3 @.+.6.( ( X.o.*.*.*.*.+.o.o.o.T D t & . r 4.o.a %.l.z.a.k.t.t.v r.b.B.i d #.G G G [ Z F ' ' O.' ] ] ] ] ] [ F F H D $.).`.].oX-X-X-X@X#X#X+X                                                                                                                                                                                                                                                                                                                                                                                                                                                                                                                                                                                                            @.-.;.;.S.V.&.Z.;./.T y H J ] #.O.' ' G G G G H A H A F H G o.3 ~ %.%. . .^ s.^ ..%.R t H ' $ o q p p A A A A A f f t t t r 7.OX-.u ^ H.m.n.M.n.v.z.z.z.l.z.l.S.sXmXbXcXhXlXzX                    ",
"                    zXvXvXzXlXvXsXZ.V.N. .N.B.z.b.n.F.n.z.x.C.N.3 4.+.( o.+.X.+.+.o.o.o.X.X.( T D A V & . e ,.O.p %.N.c.d.k.a.t.r.a.d.l.i U >.[ ' ' ] ] #.#.' O.O.] ' K K K [ J J G G :.'.`.].&X-X-X-X@X#X#X}.                                                                                                                                                                                                                                                                                                                                                                                                                                                                                                                                                                                                            @.-.;.S.Z.V.V.Z.Z./.T S G J O.O.' O.O.#.O.#.#.O.' X.J G G T X.w R &.V.%.%.s.s.^ ^  .R p H ' # o q p S ( ( } G G G S A A A F [ +.$.0 ! H.m.M.b.n.v.z.z.c.l.d.l.B.dXmXmXlXhXlXzX                    ",
"                    zXhXlXlXvXvXsXZ.%.%.l.l.B.z.b.n.n.n.D.C.z.^ 3 -.@.X.+.+.+.+.+.+.+.+.+.X.J G A B V & @ V #.X.C ;.%.l.z.p.k.a.p.d.d.B.s S 4.#.O.' [ [ F F F F G G G G ' O.#.@.+.-.;._.(.`.[.-X-X@X-X@X#X#X}.                                                                                                                                                                                                                                                                                                                                                                                                                                                                                                                                                                                                            @.-.;.S.Z.V.S.Z.Z.;.*.*.+.@.@.,.@.#.#.X.O.O.#.+.@.#.#.@.@.#.X.3 R &.%.%. .s.l... . .R p H X.$ o q t T ) *.*.o.T R R R R X.G S P $.5 s.H.M.n.M.b.b.z.l.l.j.z.s.C.dXnXmXzXhXlXzX                    ",
"                    zXhXlXlXvXvXsXZ.%.%. .N.B.z.z.n.n.n.H.D.z. .3 -.@.O.O.O.X.X.+.X.( ( J G G F H Z Z V r F #.O.p ;.V.l.l.p.z.k.! s.d.B.i f #.G S A B B A G T X.*.*.-.;.;.-.+.o.:.:.&.(.`.[.[.-X-X-X-X@X#X#X}.                                                                                                                                                                                                                                                                                                                                                                                                                                                                                                                                                                                                            @.*.;.Z.A.A.V.Z.Z.Z.;.$.o.+.+.@.+.+.+.@.,.,.@.@.#.O.O.X.O.+.X.w R &.S.%.%.s.l..... .Y p G X.6 X q w S ) _ _ ) R R R R R o.X.} R &.5 d.n.M.M.b.b.z.z.l.z.z.z.s.C.dXnXbXzXzXvXxX                    ",
"                    zXhXlXlXvXNXsXS. .%. .N.z.z.z.n.n.n.H.D.z. .2 #.O.' J J G G J G H H H H F F G F J J F K J G s &.V.N.l.d.z.k.! s.d.l.k d $.{ R R o.-.;.;.=.=.%. . . .$.$.~ R $.%.N.`.`.[.[.%X-X-X-X-X#X#X#X                                                                                                                                                                                                                                                                                                                                                                                                                                                                                                                                                                                                            @.-.;.Z.A.A.S.Z.Z.Z.Z.=.*.*.*.*.*.+.+.O.O.+.+.@.@.@.@.X.o.+.o.w R $.=.%.%... ..... .Y y D ( B e t p A E E R T T R R R T X.o.o.{ &.0 s.n.b.b.b.b.k.z.j.l.z.z.l.C.sXNXbXzXvXvXzX                    ",
"                    xXlXlXlXvXNXsXS. .%.l.N.z.z.z.n.m.n.n.H.z. .9 @.O.J F F F J J J J ' ' ' ' ' J J J J J F A S a $.V.l.l.j.k.p.! ! d.s.x U $.| ~ ~ R R ~ Q ^ ^ ^ ! W W W W Q Q ^  .N.L.L.[.[.:X-X;X-X-X#X#X#X                                                                                                                                                                                                                                                                                                                                                                                                                                                                                                                                                                                                            @.*.;.Z.A.Z.S.V.Z.Z.Z.Z.;.;.;.;.-.-.-.+.+.+.+.+.+.X.X.+.o.o.R u E $.%.%.%.^  ...|  .R q B D G G G T S P P E S S S P S T T G G U | 5 ..v.v.b.v.b.k.l.j.l.z.z.z.C.sXNXvXzXvXvXzX                    ",
"                    xXlXlXlXvXNXsXZ.%.N.N.c.B.z.v.n.m.n.n.H.z.l.w @.#.' ' ' ] O.' ' X.O.' ' [ J G J G G T ( T T R %.N.l.s.j.k.t.m ! z.B.^ x Y x b b x b W n / s./ ! ! ! W W W Q ^  .N.L.L.[.oX:X:X;X;X-X#X#X#X                                                                                                                                                                                                                                                                                                                                                                                                                                                                                                                                                                                                            #.*.=.Z.S.Z.V.V.V.S.Z.S.;.;.;.2.;.;.-.;.;.;.-.*.*.o.o.o.o.R { z ~ %.%.%.%.^  ...|  .R w t A G J G T T T T T G G G T D G G F H G o.0 ..z.v.v.v.k.k.l.j.l.l.z.d.C.dXNXvXzXzXvXxX                    ",
"                    xXlXzXlXvXNXsXZ.%.N.l.c.C.z.v.m.m.n.n.H.b.l.3 @.#.O.X.O.' X.J J J J G G G G T X.( T X.*.o.$.;.S.N.! p.p.k.t.! ! d.d.! c x j j j M m m n n n M W ! Q W W Q Q  . .V.`.`.[.].:X:X;X-X-X#X#X#X                                                                                                                                                                                                                                                                                                                                                                                                                                                                                                                                                                                                            #.*.=.Z.Z.Z.S.V.V.S.Z.=.S.;.;.;.;.;.;.-.;.;.;.;.;.;.;.-.:.$.&.| %.N.^ %.%.~  .| |  .R A G D G A A S T G G ' [ X.X.X.X.X.X.' [ } :.0 ^ k.v.v.v.k.z.j.j.z.l.z.d.C.dXNXvXzXzXvXzX                    ",
"                    zXlXlXlXlXvXsXZ. .N.l.c.z.z.v.n.m.m.n.H.b.s.3 +.+.X.J X.J J ( ( ( X.X.X.o.o.X.o.o.o.o.$.R R Z.V.l.s.p.y.y.t.j.p.a.a.! c c b M M M M M N v m m Q b b b Y |  .| %.V.(.(.[.].:X:X:X-X@X#X#X#X                                                                                                                                                                                                                                                                                                                                                                                                                                                                                                                                                                                                            #.*.=.S.Z.Z.Z.V.&.Z.Z.S.Z.Z.;.;.;.;.&.;.S.S.;.;.;.;.;.;.>.&.K.V.V.S. .%.%.^  .~ ~  .R o.X.( ( G G G } A A A F G G ( ( +.X.X.O.o.-.5 Q a.f.f.v.b.z.l.j.l.l.z.z.C.dXNXlXlXvXvXzX                    ",
"                    zXhXlXhXkXkXsXZ. .N.l.c.z.k.k.m.m.m.m.H.z.! 3 *.o.( ( X.X.o.o.*.*.*.*.:.:.:.*.| | | R Y I x V. .l.s.p.a.y.t.p.p.a.a.j.M j N j N M M M N N M b b b b b Y | | |  .%.(.(.`.].:X7X:X-X-X;X#X#X                                                                                                                                                                                                                                                                                                                                                                                                                                                                                                                                                                                                            +.*.:.=.S.Z.S.V.&.V.Z.Z.Z.Z.Z.Z././.;.Z.Z.Z.S.S.S.Z.Z.;.Z.%.K.V.N.V.N.%.%.^  .| ~  .~ o.T ) ) o.o.{ o.X.T G G G T E E S E G T T *.5 ! a.a.v.v.b.k.l.j.l.l.z.z.C.dXNXvXlXvXvXzX                    ",
"                    cXhXlXhXkXkXuXA.N.N. .l.z.z.b.m.m.m.m.F.x.l.h R $.:.:.;.;.;.;.%.%. .~ ~ ~ ~ ~ ~ Q W Y x x x V.l.^ s.d.p.y.t.p.r.a.r.! M b j j j j x N N M b M M W W Q ~ | | ~ ~ %.(.`.[.oX:X:X;X-X-X;X;X#X                                                                                                                                                                                                                                                                                                                                                                                                                                                                                                                                                                                                            +.*.:.V.V.Z.V.V.Z.Z.Z.Z.Z.Z.Z.Z.Z.^.Z./.Z.^.Z.Z.Z.Z.Z.&.&.&.V.V.%.N.%.V.%. . . .| ~ ~ R Y I I I P z z Y Y R R R R ~ $.R R P R Y ~ 5 ! k.v.v.b.b.k.z.d.d.z.z.B.S.dXlXlXlXvXvXxX                    ",
"                    zXhXhXhXkXkXtXA.N.N.l.N.B.z.b.m.m.m.m.n.n.z.~ %.V.%.%.%.%. . .^ ~ ~ ~ ^ ^ ~ ~ ~ Q Q W b b b V. .^ ! d.p.y.y.p.r.a.n ! j j j j j x x c b b Q M b W W Q ~ | | | | %.`.`.[.oX:X:X;X;X-X;X;X#X                                                                                                                                                                                                                                                                                                                                                                                                                                                                                                                                                                                                            +.*.&.&.V.Z.V.S.Z.Z.Z.Z.Z.Z.Z.Z.^.^.^.Z.Z.Z.Z.Z.Z.Z.Z.S.S.V.V.V.%.%.%.N.%. . . .^ ~ ~ ~ I x x x x x x z z x I x x I Q  . .~  .~ ~ 0 ^ b.v.v.v.k.k.a.d.a.z.z.B.V.dXNXvXlXlXmXxX                    ",
"                    zXhXhXhXkXkXtXA.N.N.N.V.B.z.b.m.m.m.n.n.n.C.V.%.%.%.V.%. .^ ^ ~ ~ ^ ^ ^ ....~ ~ ^ ^ Q Q W b N. .! s.d.a.a.y.a.r.a.n m j j j j j z x c b W Q Q b W ~ ~ ~ | $.&.%.V.`.`.[.oX:X:X:X:X;X;X;X#X                                                                                                                                                                                                                                                                                                                                                                                                                                                                                                                                                                                                            +.*.&.%.V.Z.V.S.S.Z.Z.S.Z.Z.Z.Z.Z.^.^.Z.;.;.Z.Z.Z.Z.Z.S.S.S.S.V.%.%.%.N.%. . . . .^ ~ Q I x x x x x x z h k x x x x x x W W ~ ! ^ W z.v.v.v.v.k.k.a.a.a.j.l.c.Z.dXNXvXlXvXmXMX                    ",
"                    zXjXhXhXkXkXuXA.%.N.N.N.z.z.b.m.U.m.n.n.D.D.V.%.%.%.V.%. . . . . . .........^ ^ ^ ^ Q Q Q b N.l...s.d.a.a.y.t.r.a.n m j j j j j z z l b W Q W b ~  .| ~ | :.&.&.;.`.(.[.oX:X:X:X:X:X;X;X#X                                                                                                                                                                                                                                                                                                                                                                                                                                                                                                                                                                                                            +.*.:.%.V.Z.V.V.S.S.Z.S.Z.Z.;.Z.Z.Z.Z.Z.Z.Z.Z.Z.Z.Z.S.S.Z.S.S.V.V.V.%.N.N. . . . . .^ ~ Q x x x x x x x j j j c j c M b M M M M M ! z.v.v.v.k.k.k.k.a.z.z.l.c.A.dXNXvXvXvXmXMX                    ",
"                    zXhXhXhXkXkXuXA.%.%.N.N.z.z.b.m.U.m.m.m.F.D.C.%.%.%.V.%. . . . ...^ ^ ^ ^ ^ ^ ^ ! ! Q Q W b V.N.l.l.j.j.a.a.t.r.a.r.m j j c l x z z x x W Q W ~ | %. .| $.&.:.&.;.`.(.[.oX:X:X:X:X:X;X;X#X                                                                                                                                                                                                                                                                                                                                                                                                                                                                                                                                                                                                            +.*.:.%.V.Z.V.%.%.S.Z.;.Z.Z.Z.;.;.Z.;.Z.Z.Z.Z.Z.Z.S.S.S.S.S.V.V.V.V.V.N.N.%. . . . . .~ Q I I I x x x c j j j j j b M m ! m n v N p.j.v.v.v.k.k.z.a.a.z.z.l.c.Z.dXNXvXvXmXmXxX                    ",
"                    cXhXhXjXkXkXuXZ.%.%.N.N.z.z.b.m.Y.U.m.F.F.D.V.N.%.%.%.%. . . . ...^ ^ ^ ^ ^ ^ ! ! Q Q Q b x V.N.l.l.j.k.a.a.p.r.a.r.! j l c l k z z l W Q ~ Q ~ | %.$.| $.&.:.&.;.`.`.[.].:X:X;X:X:X;X;X#X                                                                                                                                                                                                                                                                                                                                                                                                                                                                                                                                                                                                            +.*.:.&.V.Z.V.%.%.S.S.;.Z.Z.Z.;.;.;.;.Z.;.Z.Z.S.S.S.S.V.S.V.V.V.V.V.V.N.%.%. . . . . .~ ~ Q W I I x x c j j j N N M n M n n m n v t.k.v.v.v.z.k.z.a.d.z.l.l.c.V.dXNXvXvXmXmXxX                    ",
"                    zXhXhXjXkXkXtXZ.%.%.N.N.B.z.n.F.Y.F.F.F.D.D.N.%. . .%.%. . .......^ ^ ^ ! ^ ^ ! ! ! ! W W x N.N.l.l.j.j.k.a.t.r.t.r.! j c c l k k k l I Y Y ~ ~ ~ | | $.$.:.:.:.Z.'.(.[.].:X:X;X:X:X;X;X#X                                                                                                                                                                                                                                                                                                                                                                                                                                                                                                                                                                                                            +.*.:.&.Z.Z.V.%.%.&.Z.;.Z.Z.;.;.Z.;.;.;.;.;.;.S.;.;.;.%.%.%.V.&.&.%.%.%.%.%.%.%. . . . .~ Q Q W I I x c b M M N N N n n n n r.v v v t.v.v.b.v.k.z.d.d.k.l.l.l.V.dXNXmXvXmXmXMX                    ",
"                    cXjXhXjXkXkXtXZ.%.%.%.N.z.z.b.H.F.F.H.F.H.C.V.V.%. . .%.%. .....^ ^ ^ ^ ^ ! ^ ! ! ! ! Q W b %.%. ...s.j.k.a.t.n r.r.! c c x x k z k l x I Y ~ Y Y Y { $.:.$.:.:.Z.'.`.[.].:X:X;X:X:X;X;X#X                                                                                                                                                                                                                                                                                                                                                                                                                                                                                                                                                                                                            +.*.:.&.Z.Z.V.%.%.&.S.%.;.;.;.;.Z.Z.;.;.;.;.;.S.;.;.&.%.%.%.&.&.%.%.%.%.%.%.%.%.%. . . .^ ~ Q Q I I x c b M M N N N n n n n r.r.u.v v.v.v.v.v.k.z.z.z.z.l.l.l.N.sXNXvXvXmXmXMX                    ",
"                    zXhXhXjXkXkXuXZ.%.%.%.N.B.z.b.n.m.F.H.H.D.C.V.V.%.%.%. . . .l. . ...^ ^ ! ! ^ ^ ! ! ! Q b x %. .^ ^ l.j.d.p.t.r.a.p.! j c c l h a z I I I Y Y Y R R $.:.:.$.:.;./.`.'.[.&X:X:X;X:X-X:X;X#X                                                                                                                                                                                                                                                                                                                                                                                                                                                                                                                                                                                                            +.*.:.&.V.Z.Z.%. .&.Z.%.;.;.Z.;.;.;.;.;.Z.Z.;.;.;.&.&.&.&.%.%.%.%.%.%.%.%.%.%.%.%. . .^ ~ ~ ~ ~ W x x b c c j j N M n n n n r.t.r.t.b.v.v.b.n.b.z.d.z.z.z.c...V.sXNXNXvXvXnXbX                    ",
"                    cXhXhXhXkXjXtXZ.%.%.%.N.c.z.b.n.n.H.H.H.D.C.V.V.%.%.%. . . .l. . ...^ ! ! ^ ^ ^ ^ ! Q W b x  . .^ ^ l.l.z.p.t.t.a.p.^ j c l x z z z I I Y R ~ ~ R { $.:.*.$.;.^.K.(.'.[.oX:X:X;X:X-X:X;X#X                                                                                                                                                                                                                                                                                                                                                                                                                                                                                                                                                                                                            +.*.:.%.V.Z.Z.%.%.&.Z.&.;.;.;.;.;.;.;.Z.Z.Z.;.%.%.&.%.&.&.%.%.%.%.%.%.%.%. .%.%.%. . ...^ ~ ~ ~ W b x b x c c c b M n m n n a.a.t.a.n.v.v.b.n.b.k.z.z.z.z.c.l.Z.dXNXNXmXmXnXxX                    ",
"                    cXhXhXjXjXdXtXV.%.%.%. .l.z.z.v.n.m.H.D.B.C.V.%.%.%.%.%. .%.%.%.l...^ ^ ^ ^ ^ ^ ^ Q Q b b x  .^ ~ ^ s.j.j.d.p.! p.p.! h l l l x z z x x I Y ~ ~ R R o.*.*.*.;./.K.(.].].-X:X:X;X:X-X:X;X#X                                                                                                                                                                                                                                                                                                                                                                                                                                                                                                                                                                                                            +.*.:.&.V.V.V.V.%.%.S.;.;.;.;.;.;.;.Z.Z.Z.Z.;.%.%.&.%.&.&.%.%.&.&.&.&.%. . . .%.%. . ...^ ~ ~ ~ W W b I x x x b b M m n n n p.a.r.a.n.v.v.b.b.b.z.z.z.z.z.z.l.A.dXNXNXvXmXnXbX                    ",
"                    cXhXhXjXjXdXtXV.%.%.%.%.l.z.k.b.b.n.n.B.C.C.V.%.%.%.%.%. .%.%.%. . ...^ ^ ^ ^ ! Q Q b x x x  . .^ ^ ! s.d.p.! ! p.! ^ h l h l x z z k z z Y ~ ~ R R R $.*.*.;././.'.].].-X:X:X;X:X-X:X:X#X                                                                                                                                                                                                                                                                                                                                                                                                                                                                                                                                                                                                            +.*.&.%.V.Z.V.V.%.V.S.;.;.;.;.;.;.;.Z.Z.Z.S.&.&.&.&.&.&.&.%.%.&.%.&.&.%.%. . . . . . .^ ~ ~ ~ ~ ~ W b I x x x b b M m n n n r.a.r.a.n.b.v.b.v.b.z.k.k.z.z.l.l.A.dXNXmXlXmXnXMX                    ",
"                    zXhXhXjXhXjXtXV.%.%.%.%.N.z.k.b.b.n.B.C.C.V.V.%.%.%.%.%.%.%.%.%. . . .^ ^ ^ ~ ~ Q b b b x x  . .~ ~ ^ s.p.p.! m ! ! ~ h l l l I P z k l z P ~ ~ R R R *.-.-.;././.'.@X].-X;X:X-X;X-X:X;X#X                                                                                                                                                                                                                                                                                                                                                                                                                                                                                                                                                                                                            +.-.;.%.V.Z.Z.V.V.S.Z.S.S.;.;.;.;.;.Z.Z.Z.S.;.;.&.&.&.&.&.%.%.&.%.&.&.%.%. .| | | | ~ ~ ~ ~ ~ ~ ~ W b x x x b b b M M m m ! p.p.p.a.n.b.v.b.v.k.k.k.z.z.z.z.l.A.dXNXvXvXmXnXMX                    ",
"                    cXhXjXjXhXkXuXZ.%.%.%.N.N.C.z.b.b.b.C.C.V.V.V.%.%.%.%.%.%.%. . . . . .^ ^ ^ ~ ~ Q W b b b x  .| ~ ~ ^ s.p.p.m m ! ! Q h x l x I Y P l x I I ~ ~ R R o.:.-.;.;././.'.@X].].;X;X-X;X-X:X;X#X                                                                                                                                                                                                                                                                                                                                                                                                                                                                                                                                                                                                            +.-.;.%.V.Z.Z.S.S.Z.Z.Z.S.;.;.Z.^.Z.Z./.Z.Z.Z.Z.;.&.&.&.%.&.&.%.&.&.&.%.%.%. .| | ~ ~ ~ ~ ~ ~ ~ ~ W b W b b b b b M M m ! ! p.p.n a.b.v.v.b.v.k.k.k.z.k.z.l.l.A.dXNXvXvXmXmXMX                    ",
"                    cXhXjXjXjXkXsXJ.%.%. .%.N.c.z.z.b.z.C.c.V.V.N.%.%.%.%.%. . . . . . . .^ ~ Q W Q W W W b b x |  .~ ~ ^ ! d.p.m ! ! ! ~ h x x x I P z x I I I ~ ~ _ $.:.;.;.2./././.'.@X].-X-X;X-X;X-X:X;X#X                                                                                                                                                                                                                                                                                                                                                                                                                                                                                                                                                                                                            @.*.&.&.Z.Z.Z.S.Z.Z.Z.Z.Z.S.S.Z.^./.K./.Z.Z.Z.Z.Z.S.S.;.&.%.%.=.=.&.$.%.%.%.$.| | | ~ ~ ~ ~ ~ ~ ~ W W W b b b b M M M n m m r.r.r.r.k.v.v.b.b.k.k.k.k.k.z.l.s.A.dXNXvXNXmXmXMX                    ",
"                    cXhXhXjXkXkXdXJ.%.%.%.%.l.c.z.b.D.B.B.N.c.N.N.%.%.V.V.%. . . . . . . .^ Q Q Y Y W b b b x x  . .~ ~ ^ ! s.! ! ! ! ! Q h x x x I P P I I Y Y R $.:.;.;./././._._./.}.-X@X-X-X;X;X;X-X:X;X+X                                                                                                                                                                                                                                                                                                                                                                                                                                                                                                                                                                                                            @.-.;.S.Z.Z.Z.Z.A.(.Z.;.=.;.;.;.^.^.Z.Z.Z.Z.Z.J.Z.Z.Z.S.&.&.&.&.&.&.%.%.%.%.%.| | | | ~ ~ ~ W Q Q W b W b x b c c M M n m p.p.p.n p.k.v.M.m.b.b.k.k.a.z.d.s.^ A.dXNXvXmXvXvXMX                    ",
"                    cXhXhXjXhXkXtXZ. .%. . .l.c.z.z.z.z.z.c.c.V.V.N.%.%.%.%.%.^ ^ ^ ^ ^ ^ ^ ! Q x Y Q W Y Y x x ..l.^ ~ ^ ^ ^ ! ! ! ! W ^ k k I I P P Y R | R R o.-.-././.5.5.>.5.2.:.(.@X@X-X-X;X;X;X-X;X;X+X                                                                                                                                                                                                                                                                                                                                                                                                                                                                                                                                                                                                            @.-.;.S.V.Z.A.A.A.(.;._.5.5.5.2.-.;.;.S.Z.Z.A.A.Z.Z.Z.Z.&.&.&.Z.%. .%.&.&.%.$.| | | | ~ Y Y Y W W Q Q W W Y x x b b M m ! s.s.p.m p.k.v.v.b.b.v.k.z.z.z.s.s. .Z.jXmXmXmXmXNXMX                    ",
"                    hXhXjXjXhXkXtXZ.%. . . .l.c.z.z.z.z.z.l.c.V.N. .%. .%.%.%. . . .^  . . .! W Y Y Q Q Q x x z  .N.^ ~ ~ ~ ^ s.^ ! ! W ~ x x z P P R | :.;.;.-.-.4.-.-.:.:.>.4.1.*.R (.;X].@X@X;X;X:X-X;X;XOX                                                                                                                                                                                                                                                                                                                                                                                                                                                                                                                                                                                                            @.-.;.S.Z.A.A.C.A.J.$.o.@.1.6.6._._./.&.&.=.;.S.S.Z.Z.&.&.&.&.&.&.%.%.&.&.$.$.| | | ~ | | R Y I x b b W Y Y I x x b b M ! ! ! ! m ! k.v.v.M.b.b.k.z.j.l.s.s. .Z.dXvXmXmXmXmXMX                    ",
"                    hXjXjXdXjXkXuXZ.%. . .l.c.c.z.z.z.z.z.l.c.V.&.%.| | | | | | | | ~ |  . .^ I z z I Q ~ Y Y Y  .N.^ ~ ~ Q ^ ..^ W Q ~ ~ Y &.R :.:.-.-.-.-.:.*.*.-.-.;.;.:.+.X.T C a ^.;X].@X-X;X;X:X-X:X;X+X                                                                                                                                                                                                                                                                                                                                                                                                                                                                                                                                                                                                            +.-.;.S.Z.A.A.A.L.Z.P C D J X.@.-.;.-.4.4.4.-.;.;.;.;.;.;.;.;.;.;.;.:.&.&.&.%.| | | | R R Y Y Y W Q M x I W W x c c c M ! ! ! p.m p.k.v.v.M.b.b.k.z.l.l.l.^ ^ Z.dXmXmXvXmXmXMX                    ",
"                    cXhXjXdXjXkXuXZ.%. . .l.c.z.z.z.z.b.z.z.c.V.%.%.| | | | | | | ~ ~ ~  ...Q Y Y P Y Y R U P Y  .%.~ ^ | ~ ^ ^ ~ ~ ~ ~ s a $.{ { o.:.-.;.;.2.2.-.*.$.:.Z./.>.#.T C a /.;X].@X-X;X;X:X-X:X;X+X                                                                                                                                                                                                                                                                                                                                                                                                                                                                                                                                                                                                            @.-.;.S.Z.A.A.A.`.Z.P S D H H ( T T o.O.O.#.@.-.2.2.2.;.;.;.2.) *.*.=.&.&.%.%.| | | | ~ R R R Y Y x c I W Q W W x x b M ! m m m m p.a.v.v.v.b.k.z.z.z.l.s.^ ^ V.dXNXmXvXmXmXMX                    ",
"                    cXhXjXdXBXkXuXZ.%.%.%.l.N.z.z.z.z.C.z.z.B.C.&.%. . . . .| |  . .~ |  .| ~ ~ R T R R R U U R %.%.~ ~ | ~ ^ ^ ~ ~ | Y 0 s :.*.;.-.-.-.*.*.*.$.2.2.5.2.;.R w # T S S /.;X].@X@X;X;X:X-X:X;X+X                                                                                                                                                                                                                                                                                                                                                                                                                                                                                                                                                                                                            @.-.&.=.Z.A.C.C.`.J.Y p G A B D T T T G G J X.X.+.@.-.*.*.*.*.C _ =.=.$.%.%.~ ~ | | | R R R R Y Y Y I I W W W W x b b M n n n n m t.k.v.v.v.v.v.z.z.z.j.s.^ ^ V.jXmXmXmXmXNXbX                    ",
"                    cXkXhXjXjXkXuXZ.%.%.N.N.N.c.z.z.z.z.z.z.B.C.N.%. . . . . .~  .| | | ~ ~ | | R { ) o.o.o.*.:.&.&.~ ~ | ~  . .~ ~ ~ | s a /.-.*.*.*.*.-.2.2.2.2.2.2.) E a $ # S S C 2.@X].@X-X;X;X:X;X:X;XOX                                                                                                                                                                                                                                                                                                                                                                                                                                                                                                                                                                                                            @.*.&.S.Z.A.C.C.J.K.Y w A t # q G T T X.X.X.T G T T T X.o.o.$.7 R S.Z.%.%.%.%. .| ~ | R R R R Y Y Y Q I I W W I W W b b M M v n r.r.k.v.v.b.v.k.z.z.l.j.l.s.^ V.jXmXmXmXmXNXMX                    ",
"                    cXkXjXdXjXkXuXA.N.N.N.N.c.c.z.z.z.z.z.z.C.C.N.N.N.N.%.%.%.~ ~ | | | | { { { -.-.*.$.o.o.o.T R &.%.| | |  .^ ^ ~ Q  .s i ;.:.;.2.-.2.5./././.5.5._.*.E a $ X T E E /.;X].@X@X;X;X:X;X:X;X#X                                                                                                                                                                                                                                                                                                                                                                                                                                                                                                                                                                                                            @.*.&.S.Z.Z.A.C.J.Z.P y A : o $ A T { o.o.o.o.o.o.o.X.T o.R $.3 ~ Z.A.S.S.V.%.%. .| | ;.-.*.{ R Y Y I Q W Y Q W W W b b b M M m m t.k.v.v.v.k.z.z.k.j.j.l.l.^ S.jXmXvXvXvXmXbX                    ",
"                    cXhXjXdXjXkXuXZ.%.N.N.N.c.c.z.z.z.z.z.z.C.G.N.N.%.%.%.$.$.$.$.$.o.o.o.o.o.o.O.o.) R o.o.} S P $.&.$.$.|  .^ ^ ^ Q %.i a /././.5.5.5./././.2.4.1.1.T S p $ @ A C C /.;X].@X-X;X;X:X;X:X;X#X                                                                                                                                                                                                                                                                                                                                                                                                                                                                                                                                                                                                            +.*.&.S.V.V.A.A.J.Z.P p A & X & t S o.o.$.:.-.-.:.o.o.{ { { :.4 ~ Z.Z.Z.Z.V.V.%.%.| ~ $.*.*.-.;.&.$.| ~ ~ Y ~ ~ ~ Q I W W b M n n m p.k.v.k.k.z.z.z.j.l.j.l.^ V.jXvXzXvXvXmXMX                    ",
"                    zXvXjXjXjXkXuXA.%.N.N.N.c.l.l.z.z.n.z.z.G.C.~ :.$.$.*.$.*.*.*.o.X.X.X.} X.O.o.X.T o.T G A S P :.$.:.| | ^  .^ ! ^  .i i /.2.2.5.1.4.1.1.+.@.@.O.@.o.S C $ X D S p /.;X-X@X-X;X;X;X;X;X#X{.                                                                                                                                                                                                                                                                                                                                                                                                                                                                                                                                                                                                            O.-.&.S.V.A.V.C.A.J.P p A e . & y p U S T R o.:.;.;.;.:.;.&.R 4 | K.V.V.V.V.N.%.%.&.Y s T T o.R o.$.:.;.;.:.$.| R R Y I Q x b ! M ! j.k.v.k.v.b.z.z.z.l.l.l...Z.jXvXzXhXvXmXzX                    ",
"                    zXhXjXjXjXkXuXA.N.N.N.N.N.c.z.z.z.D.z.z.D.V.P o.o.o.o.o.o.} X.X.o.o.o.X.X.X.T T R T A G G T P :.$.:.$.$.^ l.l.^  .%.i a ;.-.@.1.+.@.@.1.@.,.@.O.X.T p p $ @ H S p ^.;X-X-X-X;X;X;X:X:X;XOX                                                                                                                                                                                                                                                                                                                                                                                                                                                                                                                                                                                                            O.;.;.=.V.A.C.C.A.J.P w A r X & w p U S S G T T T T T $.*.:.{ 3 ~ Z.Z.V.V.V.N.N.%.&.Y 3 p A D S T T T R R R { $.$.:.&.&.| Y Y x b Q c.z.k.k.v.b.z.z.z.z.l.l. .V.jXvXvXvXvXvXbX                    ",
"                    cXhXjXjXjXBXsXA.%.%. .N.N.c.z.z.z.H.D.n.D...w X.o.} } X.o.T ) o.) ( R ) ) T U T R a 2 D X.T P :.$.:.$.%. .N.l... .%.i p -.+.,.,.#.,.@.@.O.' ' G G D p t # @ G S C /.;X-X-X-X;X;X;X;X;X#XOX                                                                                                                                                                                                                                                                                                                                                                                                                                                                                                                                                                                                            O.;.;.;.V.A.A.C.J.J.P w B r o $ w p A F F F J J G ( ( T T T R 7 ~ Z.|.S.S.C.N.N.%.&.Y u p D p D T S T T T T T T T T T R R | &.&. .h l.z.k.k.v.z.z.z.z.z.l.l...Z.dXvXvXvXhXlXMX                    ",
"                    cXhXjXjXdXBXsXJ.%.%. .%.l.l.c.z.z.H.D.D.D.^ 3 } o.T T } o.R o.$._ ) ) _ *._ T T T 3 O p o.T ` :.$.&.$.%.N.S.N... .:.s p o.@.#.O.O.' G G H A G G X.o.R p # . G S C /.;X;X-X;X;X;X;X;X;X#XOX                                                                                                                                                                                                                                                                                                                                                                                                                                                                                                                                                                                                            +.;.&.;.V.A.A.A.J.J.U t A e o $ p S f A A H F F F G J G G T T 7 ~ A.A.S.B.C.V.S.%.&.Y s p D $ q A A S S T T T T G S S S S P Y Y  .5 Q z.k.k.k.z.k.z.z.a.j.l.l.Z.dXvXlXzXhXlXMX                    ",
"                    cXhXjXjXdXjXdXA. . . .%.N.l.c.z.z.H.H.D.n.! 0 { *.{ $.| $.$.$.=.S.S.S.^.^.=.R P P 3 O p o.T S &.&.&.%.&.N.V.N. .%.&.s p o.4.G A G G G } o.-.-.5.5./.;.S $ X D S C /.;X;X-X;X:X;X;X;X;X#XOX                                                                                                                                                                                                                                                                                                                                                                                                                                                                                                                                                                                                            +.;.&.;.V.A.A.A.J.J.U p A e o $ G o.T T G G H H Z Z Z F #.+.R 0 ^ A.G.B.B.C.V.S.%.;.R s p G o # w t f f S G G G G G G T P S d z &.5 ~ z.k.d.k.z.z.k.k.k.j.l.l.Z.dXvXlXlXlXvXMX                    ",
"                    cXjXjXjXdXhXsXZ. . .%.V.N.l.l.c.z.D.H.H.n.m 5 $.&.&.Z.&.%.S.V.Z.Z.S.;.^.=.$.R z I 7 + a T T a &.&.&.%.&.N.C.l. . .&.s a o._.A A +.-.-.5./.)._.).).).(.a $ @ D A C /.;X;X@X;X;X;X;X;X;X#XOX                                                                                                                                                                                                                                                                                                                                                                                                                                                                                                                                                                                                            O.-.&.;.V.A.A.A.J.J.R y t r o $ T ;.;.-.-.+.X.X.J G G A >.5.$.5 ^ A.G.B.B.C.V.S.%.;.R s D ( X X q t p S S G G D A D D A A A a z &.5 x z.d.a.k.k.k.k.k.z.j.l.l.Z.dXvXlXlXlXvXMX                    ",
"                    cXjXjXjXdXjXtXS.%.%.%.%.N.N.c.z.B.D.D.H.n.! 5 %.S.&.Z.Z.V.Z.&.&.$.$.o.o.o.T P k Y 5 + a T P a &.%.%.%.&.S.C.V. . .%.s a $.).a a 2./.(.(.(.(.'.}.`.`.(.i $ # D A p /.;X;X@X;X#X#X#X@X;X#XOX                                                                                                                                                                                                                                                                                                                                                                                                                                                                                                                                                                                                            O.-.&.;.V.Z.A.A.J.(.R u p e o $ D ;./.;.;.;.;.;.-.*.R w -./.| 5 ..A.L.B.B.A.B.N.%.;.R p D G X X q t p S G T T G G J ( T D T P P &.0 ~ z.a.a.k.k.k.a.k.k.z.l.s.Z.dXvXlXlXlXlXMX                    ",
"                    cXjXjXjXdXdXtX&. .%. . .%.N.N.B.z.D.b.D.D.! 5 %.Z.%.&.$.{ $.{ { o.o.#.X.} G z z ~ 5 + S T P a &.%.%. .V.S.A.C.l. .V.i P $.).a a Z.^.^.(.(.`.'.].`.`.`.k $ X D S A _.;X;X#X#X;X;X#X;X#X#XOX                                                                                                                                                                                                                                                                                                                                                                                                                                                                                                                                                                                                            +.-.=.;.%.Z.A.A.J.(.R A B e o $ E ;.;.;.Z.Z.Z.Z.Z.=.R u &.K.| 5  .C.C.B.C.A.B.N.%.S.R s S F # X q t A A A G G A H G G ( G o.o.o.$.5 W z.d.a.k.k.k.a.a.z.l.l...Z.dXvXlXhXhXvXMX                    ",
"                    gXjXdXjXdXdXrX%.%.%.%.%.%.N.N.B.B.D.z.n.b.! 7 *.*.o.+.+.+.#.+.O.X.J G G F A a z W 7 O A o.P ` ;.N.N.%.&.S.A.C.N.V.&.a P $.).a i Z.(.A.(.(.'.'.'.'.'.^.a $ @ D C p _.;X;X;X;X:X;X;X;X#X#X+X                                                                                                                                                                                                                                                                                                                                                                                                                                                                                                                                                                                                            +.-.;.;.S.Z.A.A.A.(.R p A q o $ P ;.;.;.;.&.Z.Z.Z.Z.R u $./.R 5  .A.C.C.C.C.V.S.N.V.Q a p J X X e p A F K F F F K F F F F O.T :.&.4 Q z.a.z.z.z.z.l.l.j.l.s...A.dXvXhXhXlXlXxX                    ",
"                    gXjXdXjXdXdXtXS.%.&.%.%. .N.N.B.B.D.n.D.z.! 3 o.o.@.O.O.O.J G F G G G G G G Y Y Q 7 O S R P P &.V.N.%.&.V.A.C.N.V.&.s S o._.a i Z.J.A.(.(.'.'.].'.'./.a $ @ A A C _.;X;X;X;X:X;X;X;X#X#X+X                                                                                                                                                                                                                                                                                                                                                                                                                                                                                                                                                                                                            +.*.=.=.;.Z.A.A.A.(.R p A q o $ P ;.;.;.;.%.S.S.S.;.R u o./.R 7 %.G.C.C.C.A.V.S.N.C.Q s p J @ X q p f A F F F F [ ' ' J J J D o.$.4 Q z.k.k.z.z.z.l.l.s.l.s...Z.dXvXlXhXlXvXxX                    ",
"                    gXjXdXjXdXdXtXS.%.&.%.%.%.N.N.B.B.D.n.D.D.! 0 *.-.5.G G G A G G T T } o.o.*.| ~ ~ u O A R P P &.V.N.%.&.V.A.C.N.V.&.u A o._.a s Z.J.J.`.`.'.'.].'.'./.a $ @ D A C _.;X:X;X;X:X;X;X;X#X#X#X                                                                                                                                                                                                                                                                                                                                                                                                                                                                                                                                                                                                            +.*.=.=.;.Z.A.A.A.(.R p A q o $ T ;.;.;.;.%.S.S.Z.;.R u o./.R 7 %.A.C.C.C.A.V.V.S.C.Q a p J @ X q d P D G A A A G G F F J G T $.| 5 M z.k.k.z.z.l.l.l.s.l.s...V.dXvXlXlXvXvXxX                    ",
"                    gXjXdXdXdXdXtX;.%.%.%.%.N.S.B.B.C.H.D.D.D.! 5 o.5.{.f S } +.o.o.*.:.:.:.;.;.N...~ 0 + A R P z ;.V.%.%.&.V.A.V.N.V.&.u A o./.a i K.(.(.`.`.'.'.].'.'./.a $ @ D A C _.;X:X;X:X:X;X;X;X#X#X#X                                                                                                                                                                                                                                                                                                                                                                                                                                                                                                                                                                                                            +.*.=.=.=.S.A.A.A.(.R y A q o $ T ;.;.;.;.%.Z.S.Z.;.R w o./.R 7 %.A.C.C.C.A.V.V.S.A.Q a p J X o q U | { R T U P P S D D T D -.5.$.5 b k.k.k.z.z.l.s.l.l.l.s...V.sXlXhXkXvXvXxX                    ",
"                    hXjXjXdXdXdXtX=.$.%.%.&.V.S.B.C.C.H.D.D.C.! 4 o.5.$Xy d o.5.:.&.%.%.%.%.%.N.V...^ s + S R P a ;.V.V.&.&.S.A.V.N.V.&.u A R /.s s K.(.(.`.`.'.'.].'.'./.a $ @ A C C ).:X:X;X;X;X;X;X;X@X#X+X                                                                                                                                                                                                                                                                                                                                                                                                                                                                                                                                                                                                            @.*.=.:.&.S.A.A.A.(.E w A q o $ T ;.;.;.;.S.Z.Z.Z.;.R w o./.R 5  .A.G.C.C.A.V.V.S.A.Q a p D X o w R &.%.%. .~ ~ ~ R T T T p 5.).$.4 W z.k.k.z.z.j.s.l.l.l.s.l.V.dXlXhXlXkXvXxX                    ",
"                    gXjXjXdXdXdXtXS.$.%.%.%.V.N.N.B.B.H.D.D.D.! 5 $.5.).w a { :.%.%.N.l.l.l.l.l.V...^ 0 + d T S a ;.V.V.&.;.;.Z.V.N.V.&.s A } 5.s s K.(.(.(.(.'.'.].'.'./.a $ @ A B C ).:X;X;X;X;X;X;X#X@X#X+X                                                                                                                                                                                                                                                                                                                                                                                                                                                                                                                                                                                                            -.;.:.:.&.S.Z.A.A.(.R w A q o $ T ;.;.;.;.S.Z.Z.Z.;.R 7 o./.R 5  .G.G.C.C.A.V.V.V.V.Y s p F @ X 3 ~ N.N.N.l.^  .%.%.$.$.P u /._.| 5 Q z.k.z.z.z.d.s.s.l.l.s.l.A.dXvXhXkXkXNXxX                    ",
"                    gXdXjXdXdXdXtXS.%.%.%.%.N.N.B.z.B.H.D.D.D.! 4 { ;./.u d $.&. . .l.l.l.l.l.z.c...! 5 + f T S a ;.V.V.&.;.=.Z.S.N.V.&.s A } 5.u s K.).(.`.`.'.].@X}.+X^.a $ @ A p C }.5X:X;X;X;X:X;X#X+X#X}.                                                                                                                                                                                                                                                                                                                                                                                                                                                                                                                                                                                                            1.;.:.:.&.=.Z.A.A.(.E w A q o $ T ;.;.Z.;.S.Z.Z.Z.;.R 7 o./.R 5  .G.G.C.C.A.Z.Z.V.V.Y u p F # O 3 Q B.B.z.d.s.l.l.N. .&.P 0 /.(.| 5 Q z.k.v.z.z.d.s.j.l.l.l.l.C.sXlXhXkXlXvXxX                    ",
"                    gXdXjXdXdXdXtXS.$. . .%.N.V.z.B.B.H.z.D.x.! 3 $.K./.u a | %. .l.l.l.z.z.z.z.c.l.s.5 + d R S P ;.S.S.&.;.%.S.N.%.V.&.s A } 5.u s (.`.`.`.'.'.@X@X@X@X^.a $ @ A p C }.5X:X;X;X;X:X:X;X@X#X}.                                                                                                                                                                                                                                                                                                                                                                                                                                                                                                                                                                                                            1.;.:.;.&.S.Z.A.Z.(.P t A q o $ P ;.;.Z.;.V.Z.Z.Z.;.R 7 R 5.Y 5 %.G.A.C.A.A.S.S.V.Z.Y u p H # O 3 ~ C.z.z.d.s.j.c.c. . .z 0 /.).&.5 b z.k.v.v.z.d.s.j.l.l.l.l.N.sXhXhXkXkXkXbX                    ",
"                    gXdXdXdXdXdXtXZ.$.| %.V.N.C.z.C.D.H.z.D.x./ 5 :.;._.u a | %.N.l.l.l.l.l.l.c.c.c.s.5 + d R S a ;.%.S.&.&.&.V.S.N.%.;.u S o.5.s s _.'.[.`.'.].@X@X@X@X).s $ @ A p p }.:X:X:X;X;X;X;X@X+X#X+X                                                                                                                                                                                                                                                                                                                                                                                                                                                                                                                                                                                                            *.;.=.:.&.S.V.Z.Z.(.R w A e o # P ;.;.;.&.S.Z.Z.S.S.R 7 R 5.R 5 %.L.A.D.C.B.Z.V.V.V.Y s t H @ O 3 ^ c.z.z.z.d.p.j.j... .k 0 K.(.%.5 ! k.k.k.z.z.z.j.j.l.j.l.l.A.sXkXkXkXlXkXxX                    ",
"                    gXdXdXdXdXdXtXZ.$. .%.N.l.c.B.B.n.H.n.D.x./ 3 :.;._.u a | %.N.l.l.l.l.l.l.c.z.c.s.5 + d T S a ;.%.Z.;.&.S.Z.C.N.%.;.u S o.>.s s ).'.'.`.].@X@X@X@X@X).s $ @ A p p }.:X:X:X;X;X;X;X@X+X#X+X                                                                                                                                                                                                                                                                                                                                                                                                                                                                                                                                                                                                            @.;.;.;.&.S.Z.Z.Z.(.R w A q o # P ;.;.;.%.Z.Z.Z.S.Z.R 3 T ;.Y 5 %.L.A.C.C.A.Z.V.V.Z.Y s p H O O 3 ! x.z.l.j.p.p.j.j... .k 0 K.(.%.5 ! k.v.v.b.z.l.j.j.l.s.l...A.sXkXkXkXlXkXxX                    ",
"                    gXdXdXdXdXdXtXZ.%. .%.N.l.c.z.z.b.H.H.D.D./ 3 :.;._.s k $.N.N.l.l.l.l.c.l.c.c.l.! 5 + d T S a ;.V.Z.Z.&.V.A.A.S.%.;.u S o.>.u s ).'.'.'.@X@X@X@X@X@X(.s $ @ A p p }.:X:X;X;X@X@X;X#X+X#X+X                                                                                                                                                                                                                                                                                                                                                                                                                                                                                                                                                                                                            @.;.;.;.&.;.V.Z.Z.(.T w B q o # P ;.;.S.S.Z.Z.Z.S.Z.R 3 T ;.Y 3  .A.C.C.C.A.A.V.V.Z.R s p F # O 3 ! x.l.j.l.j.j.l.j... .k 0 Z.(.%.5 ! k.v.v.v.z.l.l.j.l.s.l.^ C.sXhXhXkXkXkXzX                    ",
"                    gXdXdXdXdXdXtXZ.%. .%.N.l.c.x.z.b.H.H.H.D./ 3 *.;./.u k  .N.l.l.l.l.l.l.l.l.c.l.! 5 + f T S a ;.V.Z.Z.&.V.A.C.S.%.;.u A o.-.u s ).'.'.].@X@X@X@X@X@X).u $ @ A t p }.7X;X;X#X@X;X;X;X@X#X+X                                                                                                                                                                                                                                                                                                                                                                                                                                                                                                                                                                                                            +.;.;.;.:.&.V.Z.Z.K.P w B q o # P ;.;.S.=.S.Z.Z.S.Z.R 7 T ;.U 3  .A.B.C.C.A.A.V.V.V.R s p F # O 3 ! x.l.l.l.j.j.l.j... .k 0 Z./.%.5 ! b.v.v.b.z.l.l.l.l.j.l.^ C.sXjXhXkXhXhXzX                    ",
"                    gXdXdXdXyXdXtXZ.%.%.%.N.l.c.x.n.b.H.H.H.D.W 3 o.;./.u k  .N.l.l.l.l.l.l.l.l.l...! 5 + f T A a ;.V.A.Z.V.V.C.C.B.%.;.w A o.-.u s ).'.'.].-X@X@X-X@X@X).u $ @ A t p }.:X;X;X#X@X;X;X;X@X#X+X                                                                                                                                                                                                                                                                                                                                                                                                                                                                                                                                                                                                            @.;.;.;.:.&.V.V.V.K.P w t : o # S ;.;.Z.=.S.S.Z.S.Z.R 7 T ;.U 5  .A.B.C.C.V.V.N.V.V.Y s p F # X 8 ^ C.c.l.l.j.s.l.j... .k 0 Z./.| 5 Q k.v.b.b.z.j.j.l.l.s.l.! A.dXkXhXhXhXhXzX                    ",
"                    gXdXdXdXyXdXtXZ.%.%.N.l.l.z.x.C.b.H.H.H.D.W 3 o.-./.0 i  .N.l.l.l.l.l.l.l.l.l...Q 5 O f T A S Z.S.A.Z.V.C.C.C.C.%.&.w S o.-.u s ).'.'.].@X].@X;X@X@X(.u $ @ A t p +X7X;X;X;X@X;X;X#X+X#X+X                                                                                                                                                                                                                                                                                                                                                                                                                                                                                                                                                                                                            +.;.-.;.;.=.V.V.V.K.P q t & o # P ;.;.S.=.S.S.Z.S.Z.R 3 T -.P 3  .A.C.C.C.N.S.N.V.V.Y s p F @ X 8 ^ C.c.c.c.j.l.l.s... .k 0 Z.K.| 5 ^ k.v.b.b.z.j.j.l.j.p.j.! A.dXkXhXhXhXhXzX                    ",
"                    fXdXuXuXyXdXtXZ.%.%.%.N.l.c.z.n.H.H.H.H.D.W 3 *.:.>.0 i  .N.l.l.z.z.z.z.l.l.l...W 5 O f S a S Z.S.A.Z.V.C.D.D.A.N.%.u S o.-.u s '.'.'.].@X].@X-X#X;X).u $ @ f t p }.:X;X;X;X;X;X;X#X+X#X#X                                                                                                                                                                                                                                                                                                                                                                                                                                                                                                                                                                                                            +.;.;.;.&.;.V.V.V.K.P q t & o $ P ;.S.S.%.S.S.Z.V.Z.R 3 T -.P 3  .A.C.C.C.V.V.N.V.Z.~ s p H X X w | V.N.N.z.l.s.l.^ ^  .k 0 ;./.$.4 ^ k.v.b.v.z.j.j.l.j.s.l.! A.dXkXhXhXjXhXzX                    ",
"                    fXdXuXuXyXdXtXS.%.%.%.N.l.z.z.D.H.F.D.D.x.M 0 +.:.>.8 i  .V.c.z.z.z.z.z.z.l.l.^ W 5 O p S a S ;.S.A.Z.V.C.A.D.C.S.%.u P o.;.u a '.'.'.].-X].@X;X;X;X'.u $ @ t w t {.:X;X;X;X;X;X;X#X@X#X#X                                                                                                                                                                                                                                                                                                                                                                                                                                                                                                                                                                                                            +.;.;.-.&.=.V.V.V.Z.P q t & o $ S ;.;.S.%.S.S.Z.V.Z.R 3 T -.P 3  .A.C.C.C.C.V.N.V.Z.| s t A X X w | c.B.N.B.l.s.l.s.^ ^ k u ;./.| 5 ^ z.v.b.v.k.d.j.l.l.j.l...A.dXkXhXhXhXhXzX                    ",
"                    sXdXdXuXuXuXtXS.%.%.%. .l.C.C.D.n.H.b.n.z.M 8 +.-.>.8 i N.B.z.z.z.l.l.l.z.c.c. .W 4 O p S a S Z.S.A.A.V.A.A.G.C.B.%.u S $.;.s a '.].'.'.}.}.@X#X;X;X'.a $ @ t y t OX;X;X#X;X;X:X;X@X#X#XOX                                                                                                                                                                                                                                                                                                                                                                                                                                                                                                                                                                                                            @.;.:.;.;.S.V.V.V.Z.P q y : X # P ;.;.;.;.=.Z.V.V.;.R 3 P :.R 7  .A.C.C.C.A.V.S.V.A.~ u y A X O w ..c.c.z.z.l.l.l.j.s.s.k u -.^.$.5 ! z.b.v.v.k.z.z.j.j.l.l.l.A.dXkXjXBXjXhXcX                    ",
"                    dXdXdXdXuXuXtXV. .%.%.N.N.c.D.D.n.H.b.n.n.m 8 o.-.>.w a N.B.z.z.z.j.l.l.z.c.c...I 4 O p A p S ;.S.Z.A.V.A.A.D.D.C.N.0 S $.;.u a '.].'.}.@X}.;X;X;X;X`.s $ @ B t t +X5X;X;X;X;X:X;X;X;X#XOX                                                                                                                                                                                                                                                                                                                                                                                                                                                                                                                                                                                                            +.;.=.*.&.=.V.V.V.Z.P q y : X # P ;.=.;.;.=.Z.V.%.;.R w T :.Y 7  .A.C.C.C.A.V.S.V.A.~ u t H # X w ^ c.l.z.z.l.l.l.j.d.l.k w -.^.%.5 m z.v.b.v.k.z.z.l.j.l.l.l.J.dXkXjXjXjXjXcX                    ",
"                    fXdXdXyXyXyXrX%. . .%.N.l.c.D.D.H.H.n.H.n.! 3 o.-.;.q i N.B.z.z.z.z.l.l.B.c.c...I 4 O p A p P ;.S.A.A.C.A.A.D.D.C.%.0 P $.:.u a '.].}.}.@X@X:X;X;X;X(.u $ @ B t p +X5X;X;X;X;X:X;X;X;X#XOX                                                                                                                                                                                                                                                                                                                                                                                                                                                                                                                                                                                                            +.;.&.=.&.=.V.V.V.Z.P w y & o # S ;.%.=.=.%.S.V.%.;.R w P *.U 7 | A.C.C.C.A.V.Z.V.A.~ p t H O X w ~ c.z.z.z.l.l.l.z.j.l.k w -./.%.5 ! z.v.v.v.k.k.k.z.d.j.l.l.A.dXkXdXBXjXjXcX                    ",
"                    sXyXyXyXyXuXtXV. . .%.N.l.c.D.H.H.H.H.F.n.! 3 o.-.-.q i N.n.b.z.z.z.l.c.z.B.V. .I 4 O p A s P ;.Z.A.A.A.A.G.D.D.C.%.0 P $.$.w s '.}.}.+X@X@X;X#X;X#X(.u $ @ t t t +X5X:X:X;X;X:X:X;X;X#XOX                                                                                                                                                                                                                                                                                                                                                                                                                                                                                                                                                                                                            +.;.=.;.;.=.V.V.V.Z.P w y & o $ S ;.%.=.=.%.S.V.%.;.R 3 P $.P 7 | J.A.C.C.A.Z.Z.V.A.~ y y A X X w ^ z.z.z.z.l.l.l.z.z.s.h w -./.%.5 ! k.v.v.v.k.k.k.z.l.j.l.l.C.dXBXdXdXjXhXcX                    ",
"                    fXdXdXdXyXuXtXS. . .%.V.N.c.B.D.H.F.H.H.n.M 3 o.*.;.9 s N.n.b.x.z.z.z.l.z.N.V...x 4 O p A p S ;.S.A.A.A.A.G.G.L.C.%.0 U o.o.w s '.}.}.}.@X@X#X#X#X#X(.u $ @ t y p OX5X:X:X;X;X:X:X:X;X#XOX                                                                                                                                                                                                                                                                                                                                                                                                                                                                                                                                                                                                            +.;.;.;.;.=.V.V.%.Z.P w y & o $ S =.&.=.&.%.S.V.%.%.R 3 P $.P 3 | A.C.C.C.A.A.Z.V.A.~ y y A X O 8 ^ C.z.z.z.l.l.l.z.z.l.k 3 -./.%.5 j.b.v.v.v.k.z.k.z.z.l.l.l.C.dXBXBXdXjXjXcX                    ",
"                    fXyXyXuXuXuXtXZ.%. .%.V.N.c.z.n.H.F.n.n.v.M 0 o.:.;.9 s N.H.b.z.z.z.z.z.B.B.V. .P 4 O p A p S ;.S.A.A.C.A.A.G.L.C.%.0 U $.o.w s '.}.}.}.@X+X#X#X#X#X/.u $ @ t r p OX5X:X:X;X;X:X;X;X;X#XOX                                                                                                                                                                                                                                                                                                                                                                                                                                                                                                                                                                                                            +.;.;.;.&.%.%.V.%.Z.P q e & o $ S ;.&.=.&.%.S.V.%.&.Y w P *.P 3 ~ A.C.C.V.A.Z.Z.V.A.~ y y A X X 8 ^ c.c.z.B.l.l.l.z.z.l.k 3 -./.%.5 j.b.b.v.v.z.z.k.z.z.l.l.l.C.sXBXBXjXjXjXhX                    ",
"                    sXyXyXyXyXuXtXZ.%.%.%.V.N.z.z.n.H.H.n.b.n.m 0 o.:.;.w s N.H.n.z.x.x.B.B.B.B.V. .P 4 O p A p S ;.S.A.A.C.C.G.G.L.C.%.8 U *.o.w s '.@X}.}.@X+X#X#X#X+X/.u # @ t r t OX;X:X:X;X@X;X-X;X@X#XOX                                                                                                                                                                                                                                                                                                                                                                                                                                                                                                                                                                                                            +.;.=.=.&.%.V.S.%.Z.P q q & o $ P =.%.&.&.%.S.V.&.&.Y 3 P $.P 3 ~ A.C.C.V.A.V.S.%.Z.~ u y Z X X 8 ~ C.c.c.B.l.l.l.z.z.l.h 3 -.^. .5 ! n.v.v.v.z.z.z.z.z.j.j.l.C.uXdXBXBXjXdXcX                    ",
"                    sXuXyXyXyXuXrXS.%.%.N.V.N.z.z.b.H.H.v.b.n.! 0 o.:.;.8 s N.H.n.z.x.C.C.B.B.B.V. .I 2 O p A p P Z.S.A.A.C.A.L.L.L.V.%.8 T *.o.w p '.@X+X+X+X+X#X#X#X#X/.u # @ r y t OX;X:X;X;X;X;X-X-X@X@XOX                                                                                                                                                                                                                                                                                                                                                                                                                                                                                                                                                                                                            +.;.;.=.&.=.V.V.%.S.S q q & o $ P =.%.&.&.%.S.V.&.&.Y 3 P $.P 3 | A.A.C.V.C.V.S.%.Z.~ y y Z X X 8 ~ C.c.c.B.l.l.c.l.j.c.k 3 -.^.~ 5 m n.v.v.v.z.z.z.z.z.j.l.l.C.dXdXBXdXBXjXcX                    ",
"                    sXuXyXyXyXyXrXS. .%.%.l.B.z.b.b.H.D.n.b.H./ 5 o.:.;.8 a N.D.n.z.x.C.B.B.N.S.V. .Y 4 O p p p a Z.S.A.A.A.A.L.L.L.J.%.8 S o.o.w d '.@X+X+X+X+X#X#X#X#X/.w # @ r e B OX;X:X;X:X;X;X@X@X}.}.OX                                                                                                                                                                                                                                                                                                                                                                                                                                                                                                                                                                                                            +.;.=.:.&.=.V.V.%.Z.P q q & X $ P ;.%.&.&.%.S.V.&.%.P 3 d { P 3 ~ A.C.C.V.S.V.V.V.A.~ w y Z X X 8 ~ C.c.c.l.l.l.c.z.j.c.k 3 *./. .5 m n.b.b.b.k.z.k.z.z.j.j.l.C.dXBXdXdXjXjXcX                    ",
"                    sXyXyXyXyXuXrXS.|  .%.l.N.z.n.n.H.n.n.b.n.n 5 o.:.;.8 a B.H.H.D.D.C.C.C.B.B.V. .I 4 O p p p S ;.S.A.A.A.A.L.L.L.J.%.8 d o.R w d '.@X+X+X+X+X#X#X#X#X/.w # @ r q B OX;X:X;X;X;X;X@X@X}.}.OX                                                                                                                                                                                                                                                                                                                                                                                                                                                                                                                                                                                                            @.;.;.=.&.=.V.V.V.Z.P 2 q & X $ P ;.;.&.&.%.S.V.V.;.Y 3 d { P 3 ~ A.C.C.V.S.V.V.V.A.~ w y Z X X 8 ~ C.c.c.l.l.l.c.z.l.c.k w *./. .5 m n.b.b.b.k.d.k.z.z.j.j.l.C.dXdXdXdXdXjXzX                    ",
"                    sXyXyXyXyXuXrXV.|  .%.l.B.z.n.H.F.D.n.b.n.n 5 o.:.;.8 i B.H.n.B.C.C.D.C.B.S.V. .Y 4 O p p p A Z.S.A.A.A.A.L.P.L.L.%.3 f R T w d }.@X+X+X+X+X+X#X#X#X/.w # @ r q B OX;X:X;X-X@X@X@X@X}.}.OX                                                                                                                                                                                                                                                                                                                                                                                                                                                                                                                                                                                                            +.;.;.;.&.%.V.V.V.Z.P 2 q & X $ P ;.;.;.%.%.%.V.V.S.R 3 P { P 5 ~ A.C.B.B.B.V.V.V.A.~ w y Z X X 8 ~ V.c.z.N.l.l.c.z.z.c.k w *./. .5 m n.b.b.b.k.d.z.z.z.k.j.l.C.yXdXdXdXdXdXzX                    ",
"                    sXyXyXyXtXyXrXS. .%.N.N.B.B.n.H.H.D.n.b.n.n 5 o.$.;.8 i B.H.n.z.z.C.C.C.S.N.C. .Y 4 O p p p S K.Z.J.J.A.A.L.P.L.`.%.3 f R T w d }.@X+X+X+X+X+X#X#X#X/.w # @ e q B OX;X:X-X-X@X@X@X}.}.}.OX                                                                                                                                                                                                                                                                                                                                                                                                                                                                                                                                                                                                            +.;.=.;.&.%.V.V.V.Z.P 2 q & X $ P ;.;.;.%.%.%.V.Z.Z.R 3 P { P 5 ~ A.V.N.B.B.A.S.Z.A.~ w y Z X X 8 ~ c.l.c.B.l.l.c.z.z.c.k w *./. .5 m b.b.b.b.k.k.z.z.z.k.l.l.C.yXdXdXdXdXdXcX                    ",
"                    sXyXyXyXyXyXrXS. .%.V.N.B.B.n.D.H.n.n.b.n.n 7 o.$.&.8 i N.D.D.B.z.C.C.A.S.S.V. .I 4 O p p p S K.Z.J.J.A.Z.`.[.P.`.V.8 a R R q a }.@X+X+X+X+X+X#X#X#X/.w # @ t q t {.;X;X-X-X@X@X}.}.}.}.OX                                                                                                                                                                                                                                                                                                                                                                                                                                                                                                                                                                                                            +.;.;.;.&.%.V.V.V.Z.P 2 q & o $ P ;.;.;.&.%.V.V.Z.Z.R 3 P { P 5 ~ A.V.N.C.B.A.S.Z.A.~ w y Z X X 8 ~ c.l.c.B.N.l.c.z.z.c.k u *.^.^ 5 m b.v.v.v.k.k.z.z.z.z.l.z.C.yXBXdXdXdXdXhX                    ",
"                    tXyXyXyXyXuX7XV. .%.S.N.B.z.n.b.H.n.b.v.n.M 5 o.$.&.8 i S.D.D.C.C.C.C.A.Z.Z.V. .x 4 O p p p A /.Z.J.J.Z.Z.J.[.[.`.S.8 d R R w a }.@X}.+X}.+X+X#X#X#X/.w # @ t e t {.;X;X-X@X@X@X@X}.}.}.{.                                                                                                                                                                                                                                                                                                                                                                                                                                                                                                                                                                                                            +.;.=.;.&.=.V.V.V.Z.P 2 q & X $ S ;.;.;.%.%.V.V.Z.V.Y 3 d { P 7 ~ V.N.B.C.C.A.S.Z.A.~ w y Z X X 8 ~ c.l.l.B.N.N.c.z.z.c.k 0 *.^.^ 5 m b.k.b.b.k.d.z.z.z.z.l.z.C.yXdXdXdXdXdXhX                    ",
"                    tXyXyXyXtXtX7X%.^ %.S.N.B.z.n.b.H.n.n.b.n.M 5 { $.:.8 i B.D.B.B.C.C.C.A.Z.A.A. .x 4 O p p p A 5.Z.J.(.Z.Z.J.[.[.[.Z.u a R T w a }.@X}.+X+X@X+X#X@X@X(.u # @ t e t {.;X:X@X@X@X@X}.}.}.}.OX                                                                                                                                                                                                                                                                                                                                                                                                                                                                                                                                                                                                            +.;.=.;.&.;.V.V.V.Z.P 2 q & o $ S ;.;.;.%.%.V.%.V.&.Y 3 d R Y 7 ~ V.N.C.C.A.A.S.A.A.~ w y B X X 8 ~ c.l.l.N.N.N.c.z.z.c.k 0 *.^.^ 5 m b.k.b.b.k.k.k.k.z.z.l.z.C.uXdXdXdXdXdXhX                    ",
"                    rXtXyXyXtXyX7X%.~ %.S.N.B.B.b.n.H.n.n.n.D.! 5 R $.:.8 i S.D.B.C.C.A.A.A.Z.Z.A. .I 4 O p p p S /.Z.(.(.Z.Z.J.[.[.[.Z.u a R E w a }.@X}.+X+X#X#X#X#X#X(.u # X y q p OX;X;X@X@X}.@X}.}.}.+XOX                                                                                                                                                                                                                                                                                                                                                                                                                                                                                                                                                                                                            +.;.;.=.;.%.V.V.V.Z.P q e & o # S ;.&.;.&.%.V.%.&.&.Y 3 d R Y 0 ~ V.V.C.A.A.A.V.A.A.~ 8 q B X X w ~ V.N.N.N.N.c.z.z.z.c.k 8 *.Z.~ 5 ! b.k.b.b.k.k.k.k.k.z.l.l.C.yXdXdXdXdXdXhX                    ",
"                    rXtXtXtXtXyX7X%.~  .l.c.c.z.z.n.n.n.b.H.D.W 0 R R $.0 k V.C.C.B.C.A.A.Z.Z.V.A. .I 4 O A p p P Z.Z.(.(.(./.A.`..X[.A.8 S R E w d }.+X}.+X#X+X@X@X#X#X/.u @ @ y 9 B OX#X;X@X@X@X@X@X].}.+XOX                                                                                                                                                                                                                                                                                                                                                                                                                                                                                                                                                                                                            O.-.;.;.&.V.V.Z.Z.;.P 6 q & o $ A :.&.&.&.%.S.%.&.V.R 8 d $.P 3 | V.C.V.A.C.C.Z.A.A._ u y V X X 8 ~ V.S.N.l.z.z.c.b.z.B.x u { ;.| 5 ! b.k.k.v.k.k.z.z.z.l.l.d.B.yXdXuXdXdXdXjX                    ",
"                    rXtXtXtX0XyX7X&.| %.N.c.c.z.z.n.n.n.z.D.C.b 7 R R | 0 h N.C.C.C.A.A.A.Z.Z.V.V...x 4 O A p p P K.Z.(.(.A.^.A.`..X[.J.0 d R E w A }.+X}.+X+X+X@X@X#X#X/.u @ @ y 2 B OX#X-X@X+X+X@X].].}.$XOX                                                                                                                                                                                                                                                                                                                                                                                                                                                                                                                                                                                                            O.-.;.;.&.V.V.Z.Z.;.P & q & o $ S :.&.&.&.%.S.&.&.S.R 3 a ) Y 3 | C.B.V.A.V.C.C.A.A._ u y B X X 8 ~ V.S.N.z.z.z.x.b.z.B.k u o.&...5 ! b.b.k.v.k.k.z.z.z.z.l.l.B.uXdXuXdXdXuXjX                    ",
"                    rXtXyXyX0XyX7X&.%.%.N.z.c.z.b.b.v.n.z.x.z.b 7 R { { 7 h N.C.C.C.G.G.A.Z.Z.V.V...z 4 O A p s P K.Z.(.(.J.^.A.`..X].J.8 S R P w d }.+X}.+X+X+X@X@X#X#X/.u @ @ y 2 B OX#X;X@X+X+X@X].].}.}.OX                                                                                                                                                                                                                                                                                                                                                                                                                                                                                                                                                                                                            @.-.;.;.&.S.V.Z.S.;.T & q & o $ S :.&.&.&.V.S.%.%.S.R 3 a $.Y 5  .V.B.B.A.C.C.C.A.A.~ u y V X X 8 Q V.S.N.z.z.z.x.b.z.B.k u o.&.| 5 ! b.k.k.v.k.k.b.z.z.z.l.l.C.uXuXyXdXdXuXjX                    ",
"                    tXtXyXyX0XtX7X&.%.N.N.z.x.z.n.b.v.n.b.z.z.c 7 R o.{ 5 h V.C.C.C.G.G.A.Z.Z.V.V...z 4 O p p s P K.A.(.(.J./.J.L..X].A.8 S R P 8 d }.+X}.+X+X+X@X#X#X#X/.u @ @ w 2 B OX;X;X@X+X+X@X].].}.}.OX                                                                                                                                                                                                                                                                                                                                                                                                                                                                                                                                                                                                            @.-.;.;.&.S.V.Z.S.;.T 6 : & o $ A :.&.&.&.V.S.&.%.S.R 3 d $.Y 3 | C.N.B.A.C.C.C.A.Z.~ u y V X X 8 Q V.S.N.z.z.z.x.b.z.B.k 8 o.&.| 5 ! b.k.k.v.k.z.b.z.z.z.l.l.C.yXyXuXdXdXuXjX                    ",
"                    tXtXtXtX9XtX7X&.%.N.B.z.C.z.n.b.v.n.n.z.z.c 3 R o.{ 3 i V.C.C.C.G.G.A.A.Z.V.V...z 4 O p p s P K.A.(.(.(./.(.L..X].J.8 S T S 9 f '.+X+X+X+X@X@X#X#X#X/.w @ @ y 2 B OX;X;X@X@X+X@X].].}.}.OX                                                                                                                                                                                                                                                                                                                                                                                                                                                                                                                                                                                                            @.-.-.;.&.S.V.Z.S.;.P q q & o $ A :.&.&.%.V.Z.&.%.=.R 8 d o.P 3 | C.V.C.A.C.C.C.A.Z._ u y Z X X 8 Q V.S.N.z.z.z.z.b.z.c.h 8 o.;.~ 5 ! z.k.k.v.k.k.b.z.z.l.z.l.B.yXyXuXyXuXuXjX                    ",
"                    rXtXtXtX9XtX7X%.%.N.B.z.D.b.b.b.b.n.n.n.z.l 3 o.o.R 3 i V.A.C.C.C.G.A.A.Z.V.C...z 4 O p p p P K.A.(.(.(./.(.`..X].J.3 S T S 9 a '.@X+X+X#X@X#X#X#X#X^.u # @ y 2 C {.#X-X@X@X+X@X].].}.}.OX                                                                                                                                                                                                                                                                                                                                                                                                                                                                                                                                                                                                            O.-.-.;.&.&.V.A.S.;.P q q & o $ A :.&.%.V.V.Z.%.%.S.R 8 f R P 4 | A.C.C.A.C.C.C.A.Z._ w y Z X X 8 Q S.S.B.z.z.z.z.z.z.B.h 8 o.;.~ 5 ! z.k.k.z.z.k.z.z.z.z.z.z.C.yXyXuXyXuXyXjX                    ",
"                    tXtXtXtX9XtX7X%.%.N.B.B.D.b.b.n.b.n.n.H.B.c 3 o.o.{ 3 i V.C.C.B.C.A.C.C.A.V.C...z 4 O p p p Y J.A.`.(.(./.(.`.&X].Z.3 S R S 9 p }.@X+X+X#X@X#X#X#X#X/.u # @ y 2 C }.@X-X@X+X+X@X].].}.}.OX                                                                                                                                                                                                                                                                                                                                                                                                                                                                                                                                                                                                            O.*.;.;.&.%.%.A.Z.;.P 6 q & o $ A &.&.%.V.S.Z.%.&.S.~ 8 f R P 4 | A.C.C.A.C.C.C.A.Z._ w w Z @ O 8 Q N.B.z.z.z.z.x.b.z.N.h 8 o.;.~ 5 ! z.k.z.z.z.k.z.z.z.l.z.z.D.yXyXuXyXuXuXjX                    ",
"                    rX9X0X0X9X0X7X%. .N.B.B.z.z.b.H.n.H.D.F.D.c 3 o.o.R 3 i V.A.C.B.C.G.C.C.A.V.C...z 4 O p p s Y J.J.`.(.(./.(.[.-X-XZ.3 S T S 9 a +X@X+X+X#X@X@X#X#X#X/.u # X y 2 p }.@X@X@X+X+X@X].].'.).OX                                                                                                                                                                                                                                                                                                                                                                                                                                                                                                                                                                                                            O.*.;.;.&.%.%.A.Z.;.P 2 q $ o # S &.&.%.V.S.Z.%.&.S.~ w d R P 4 | V.C.C.A.C.C.V.A.Z.~ w w Z @ # 8 ~ N.B.z.z.z.z.c.b.z.B.k w o.;.~ 5 ! z.k.z.b.k.z.z.z.z.j.l.z.D.tXyXyXyXyXyXjX                    ",
"                    rX9X0X0X9X9X,X%. .N.C.B.D.D.n.n.n.b.n.H.D.b 3 T { R 3 i V.V.C.C.C.G.L.L.A.V.C...I 4 O p p p R J.J.[.`.(.(.(.`.&X-X/.2 A R S 2 A '.@X@X+X#X@X#X#X@X#X/.u # @ y 9 C }.@X@X@X@X+X@X].].}.}.OX                                                                                                                                                                                                                                                                                                                                                                                                                                                                                                                                                                                                            @.-.-.;.&.V.Z.A.Z.Z.P q : $ o # A ;.&.%.%.S.S.V.%.Z.~ w f R z 4 | A.C.C.C.A.C.C.V.Z.~ 6 q t @ X 8  .S.B.B.z.z.x.x.b.B.C.k w o.&.~ 5 ! z.k.z.z.z.z.z.z.l.j.z.z.G.tXyXyXyXyXyXjX                    ",
"                    rX9X0X0X9X9X,X%. .N.C.C.D.n.n.n.n.b.n.H.B.b 3 T { R 3 a V.V.C.C.C.G.G.G.A.V.C...I 4 O p p u R J.J.[.'.(.(.(.`.&X-X(.3 S R C q S }.@X@X+X#X@X@X@X@X#X/.u # # t 9 C {.@X@X@X+X+X@X].].}.}.OX                                                                                                                                                                                                                                                                                                                                                                                                                                                                                                                                                                                                            @.*.:.;.&.V.Z.A.Z.Z.P q : $ o # A ;.&.%.%.S.V.&.%.Z.~ 8 f R z 4 | A.C.A.C.A.C.C.V.Z.~ 6 q t @ X 8 ^ N.B.B.b.z.x.x.b.B.C.k 8 o.;.~ 5 ! z.k.z.v.z.z.z.z.z.j.z.l.H.tXyXyXyXyXyXjX                    ",
"                    rX9X0X9X9X9X:X%.%.N.C.C.z.b.b.n.b.b.n.D.B.x 3 T { R 3 a V.Z.C.C.D.A.G.G.A.C.A...x 4 O p p w R J.(.].'.(.(.(.L.].@X/.3 S T C q S }.@X+X+X#X@X@X@X@X#X/.u # # t 9 C {.@X@X+X+X+X@X].].}.}.OX                                                                                                                                                                                                                                                                                                                                                                                                                                                                                                                                                                                                            #.*.:.;.&.V.Z.A.Z./.P q : $ o # S ;.&.%.%.S.V.&.&.S.R 3 p R z 4 | A.C.A.C.C.C.C.V.Z.~ 6 q t @ X 3 ^ N.B.B.b.z.x.x.b.B.B.k 8 o.;.~ 5 ! z.z.v.v.z.z.z.z.l.j.z.l.D.tXyXyXyXyXtXjX                    ",
"                    7X9X9X9X9X9X:X .%.N.C.C.z.b.b.n.b.b.B.D.B.x 3 T { { 8 a Z.Z.A.A.G.G.L.L.G.C.J. .x 4 O p p u R (.(.].'.(.(.(.J.].@X/.3 S T C 9 S '.@X+X+X@X@X@X#X#X#X^.u # # y 9 C {.@X@X}.}.@X@X@X].}.}.OX                                                                                                                                                                                                                                                                                                                                                                                                                                                                                                                                                                                                            +.*.:.;.&.V.V.A.Z./.P 6 : $ o # S ;.&.%.%.S.V.;.&.;.R 2 p R k 4 | A.C.A.C.C.C.C.V.Z.~ 6 q V X X 8 ^ N.C.z.b.b.x.c.z.B.B.k w o.;.~ 5 ! x.v.v.v.z.z.z.z.l.j.z.l.H.tXyXyXyXyXtXdX                    ",
"                    7X9X9X9X9X9X:X .%.N.C.x.z.b.b.n.b.b.z.D.B.x 3 T R R 8 a Z.A.A.G.G.L.L.L.L.G.L. .x 4 O p p u R J.(.].'.(.(.(.`.].@X/.2 D T A 2 S '.@X+X+X@X@X@X@X#X#X^.u X @ w 2 C OX@X@X}.+X@X@X@X@X}.).OX                                                                                                                                                                                                                                                                                                                                                                                                                                                                                                                                                                                                            O.*.:.;.&.V.V.A.Z./.P 6 q $ o # S ;.&.&.%.Z.S.S.&.;.Y 2 p R k 5  .A.C.A.C.C.C.C.V.Z.~ w q V X X 8  .B.C.z.b.b.x.z.z.B.S.i w o.;.~ 5 ^ D.v.b.v.k.z.z.z.l.j.l.l.G.tXyXyXyXyXtXdX                    ",
"                    7X8X9X9X9X9X-X . .N.C.z.z.b.b.n.b.b.z.D.B.x 3 T R R 8 a Z.J.A.A.G.L.L.L.L.G.L. .x 4 O p p u R J.(.].'.(.(.(.`.].@X/.2 D T C 9 S '.@X+X@X#X@X@X@X#X#X^.w X @ q 2 C OX@X@X+X+X@X@X@X@X}.).OX                                                                                                                                                                                                                                                                                                                                                                                                                                                                                                                                                                                                            O.*.:.&.&.V.V.A.Z.(.P 6 q $ o # S ;.&.&.%.Z.V.;.&.;.Y 2 p R k 4  .A.C.A.C.C.C.A.V.Z.~ 6 q V X X 8  .B.C.z.b.n.x.z.z.B.S.i 9 o.;.~ 5 ^ b.v.b.v.k.z.z.z.l.j.z.l.G.yXyXyXyXtXtXsX                    ",
"                    7X8X9X9X8X9X:X .%.N.C.c.B.b.b.H.n.n.z.D.B.x 3 T R R 8 z Z.(.A.G.G.G.L.L.L.G.L. .x 4 O p p u R (.`.].'.(.(.(.(.].@X/.9 D T p 9 S }.@X+X+X@X@X+X@X@X#XZ.w @ @ q 2 C OX@X@X+X+X@X@X@X@X}.).OX                                                                                                                                                                                                                                                                                                                                                                                                                                                                                                                                                                                                            O.*.;.&.&.V.V.V.Z.(.P 6 q & o # S ;.%.&.%.S.V.;.&.;.Y 9 p R k 4  .A.B.A.C.A.C.A.V.Z.~ 6 q V X X 8 %.B.C.z.b.n.x.z.z.B.S.i 8 o.&.~ 5 ! z.b.v.b.k.z.z.z.l.l.z.z.G.yXyXyXtXtX9XsX                    ",
"                    7X8X9X9X8X9X:X .N.N.C.z.z.b.b.n.n.D.B.D.B.x 3 T T T 8 k A.`.G.G.G.G.L.L.L.L.A. .I 4 + C p u ~ (.`.].'.(.(.(.(.].@X(.w D T p 9 A }.@X+X+X+X+X@X@X#X#XZ.w @ @ q 2 B OX+X@X}.+X@X@X@X@X}.).OX                                                                                                                                                                                                                                                                                                                                                                                                                                                                                                                                                                                                            O.*.*.;.;.V.V.V.Z./.P 6 q & o # S &.%.%.%.V.%.&.&.;.U 8 p R k 4  .A.C.A.C.A.C.A.V.Z.R 2 q t X o w %.B.C.z.b.n.x.z.z.B.S.i 8 { &.Q 4 ! z.k.v.v.k.k.z.z.l.l.z.z.G.yXyXyXtX0X9XsX                    ",
"                    7X8X,X9X9X9X%XN.N.l.B.x.z.b.b.H.D.D.B.D.C.x 3 T T } w a J.A.G.G.L.L.L.`.`.L.L. .I 4 + p w u $.).`.].'.(.(.(.(.'.@X(.8 S T p 9 S }.}.}.+X+X@X@X@X#X#X;.w # @ w 2 B {.+X@X}.@X@X}.}.}.}.}.OX                                                                                                                                                                                                                                                                                                                                                                                                                                                                                                                                                                                                            #.-.:.;.;.%.V.V.Z./.P 2 e & o $ S ;.&.%.%.%.S.&.;.;.T 3 p T S 3  .A.C.A.C.C.A.V.A.Z.~ 3 q r o o w  .B.C.D.b.b.z.z.z.B.S.k 8 { :.Q 5 / k.b.n.b.k.k.z.z.l.l.z.l.G.yXyXyXtX0X9XsX                    ",
"                    7X8X9X,X9X9X%XN.l.l.B.B.b.b.b.H.D.C.B.D.C.x 3 } T } 8 a (.A.G.G.L.L.`.`.`.`.L. .I 4 + p w u | (.(.].'.'.(.).(.'.@X(.w U T p 9 D }.}.}.#X+X@X@X@X#X#X;.w # @ w 2 B {.+X@X}.@X@X}.}.@X}.{.OX                                                                                                                                                                                                                                                                                                                                                                                                                                                                                                                                                                                                            #.-.:.;.&.=.%.V.Z.K.P 2 q & o # A -.&.%.%.%.S.&.;.;.T 3 p T S 3  .A.C.C.C.A.A.Z.A.Z.~ 3 w V . X w  .V.C.D.H.n.x.c.z.B.B.h w { &.Q 5 ! k.b.n.v.k.k.z.z.z.l.c.l.G.tXyXyX0X9X9XdX                    ",
"                    7X8X8X,X,X,X:XN.l.l.B.B.z.b.b.H.D.C.B.D.C.l 3 } T T 9 a (.J.G.L.L.L.[.[.`.`.L. .I 4 + p u u $.(.(.].'.'.)._.(.'.@X(.w U T p > D }.}.+X#X+X@X}.@X#X#X;.w # # w 2 B OX+X@X}.@X@X}.@X@X}.{.OX                                                                                                                                                                                                                                                                                                                                                                                                                                                                                                                                                                                                            O.-.;.;.&.%.N.Z.Z.K.P 2 q & o # A -.&.%.%.%.S.&.&.;.T 3 p T a 3  .A.C.C.A.A.A.A.Z.Z.~ w q V X X w  .V.C.D.D.D.x.x.z.B.A.k w { &.Q 5 ! k.b.n.v.k.k.z.z.z.l.c.l.D.tXyXyX0X0X9XdX                    ",
"                    7X8X,X,X,X9X%XN.l.l.B.B.z.b.b.D.z.C.C.D.B.k 3 } T T 9 a (.(.|.L.L.`.[.[.`.`.L.%.I + + p p w $.).(.].'.'.).).(.'.@X(.w U T p > G }.}.}.#X+X+X@X@X#X#X;.w # # y 9 C {.+X@X}.}.@X}.}.}.}.}.OX                                                                                                                                                                                                                                                                                                                                                                                                                                                                                                                                                                                                            O.-.;.;.&.%.V.Z.Z.K.P 2 q & o $ S -.;.%.%.%.S.&.&.;.T 3 p T a 3  .A.C.C.A.A.|.A.A.Z.~ w q V X X w  .V.C.x.b.z.x.c.z.B.A.k w { :.Q 4 ! z.b.n.v.k.k.z.z.z.l.c.l.C.9XtXtX0X0X0XdX                    ",
"                    ,X8X,X,X9X9X-XN.l.l.B.B.z.z.z.D.B.B.C.G.B.k 3 } T T 9 a (.`.G.L.L.`.[.`.`.`.`.%.I + + p u u $.).(.].'.'.).).).'.@X(.3 S T p q D }.}.}.+X+X}.@X@X#X#X;.w # # y 9 C {.+X@X}.}.@X}.}.}.}.{.OX                                                                                                                                                                                                                                                                                                                                                                                                                                                                                                                                                                                                            O.-.:.-.;.;.V.A.Z./.P 2 q & . $ S -.;.%.%.%.V.&.&.;.R 2 p T a 3  .A.C.C.A.A.A.Z.Z.Z.~ 8 q V X X 3 | V.C.x.b.z.z.c.z.B.V.k 8 } $.Y 4 Q z.v.b.b.k.k.b.z.z.l.c.l.C.9X0X0X0X0X9XsX                    ",
"                    ,X8X,X,X,X,X-Xl.l.l.z.B.z.z.z.D.B.C.C.C.B.l 3 T G T 9 a (.`.G.L.L.[.[.[.`.`.`.%.P + + p u u $.).(.].'.'.).).).'.@X/.3 S T p > D }.}.}.@X+X}.}.@X+X#X;.w # # w 8 B {.+X@X}.}.@X}.}.}.}.{.OX                                                                                                                                                                                                                                                                                                                                                                                                                                                                                                                                                                                                            O.*.:.-.;.;.V.A.A./.P 2 q & o # A :.&.%.%.%.V.&.&.;.T 2 p T a 3  .A.C.C.A.A.A.Z.Z.Z.~ 8 q V X X 2 ~ V.C.x.z.z.x.c.z.B.V.a w { :.Y 4 Q z.v.b.b.k.k.b.z.z.l.c.l.C.9X9X9X0XtX9XtX                    ",
"                    ,X8X>X>X,X,X%Xl.N.l.z.z.z.B.z.D.C.C.C.C.B.l 3 T G T 9 a (.`.G.L.`.[.[.[.[.`.`. .P 4 + t w u &.`.(.].].'.'.).).'.@X/.3 S T p > D ).}.}.@X+X}.}.+X+X+X;.3 O # w 8 C {.}.@X}.}.}.].}.}.}.{.OX                                                                                                                                                                                                                                                                                                                                                                                                                                                                                                                                                                                                            O.-.-.-.;.S.V.A.A./.P 2 q & o # A :.&.%.%.%.S.&.&.;.R 2 p T a 3  .A.C.A.A.A.A.Z.Z.Z.~ 3 q V X X 2 ~ C.C.D.D.n.c.c.z.z.S.a w } :.Y 5 ! z.z.n.b.k.k.z.z.z.l.z.l.D.9X9X9X0XtX9XtX                    ",
"                    ,X>X>X,X9X9X:XN.c.l.z.z.z.z.z.C.C.C.B.C.V.x 3 } T T 9 a (.`.`.`.[.[.[.`.`.`.`. .z 4 $ t w u &.`.`.].].'.).).).'.@X/.8 U T p > D ).}.}.@X+X+X}.+X+X+X-.3 O # w 8 C {.}.@X}.}.'.'.}.'.}.{.OX                                                                                                                                                                                                                                                                                                                                                                                                                                                                                                                                                                                                            O.*.:.-.;.S.V.A.A./.P 2 q & o $ S -.;.%.%.%.S.&.&.;.T 2 p T a 3  .A.C.A.A.Z.A.Z.Z.Z.~ 2 q V X X 3 ~ C.C.x.D.D.x.c.z.l.V.i 9 } :.Y 5 ! z.z.n.b.k.k.z.z.z.l.z.z.D.9X9X9X9XtX9XtX                    ",
"                    7X>X>X*X8X8X&Xl.s.l.N.c.B.z.B.C.C.C.B.C.C.l 3 X.T G 9 a (.`.G.L.`.[.[.`.`.[.`.%.P 4 O t w u ;.`.`.].].'.(.'._.'.@X).3 T S p q D ).}.}.}.+X@X+X}.+X+X;.3 X # p w C {.}.'.}.}.@X}.'.}.).{.<X                                                                                                                                                                                                                                                                                                                                                                                                                                                                                                                                                                                                            O.-.;.;.;.Z.V.A.A.(.P 2 q & o # A :.;.;.;.%.Z.&.&.=.R 3 p T a 3  .A.C.A.A.A.Z.A.Z.J.| w q r X X 3 ^ c.C.D.z.n.C.c.z.B.N.i 9 } :.Y 5 ^ z.z.n.b.z.z.z.z.z.z.l.l.B.9X9X9X0X9X9XtX                    ",
"                    ,X>X*X%X>X,X&Xl.l.l.C.c.B.B.C.C.C.C.B.C.C.k 3 X.T G 9 a (.`.G.L.`.[.[.[.[.[.`.%.z 4 O t w u &.`.`.].].'.(.).(.).@X(.2 T G p q D ).}.}.}.+X@X@X+X+X+X;.6 X # p w C {.}.'.}.}.}.'.'.'.).{.<X                                                                                                                                                                                                                                                                                                                                                                                                                                                                                                                                                                                                            X.*.-.;.;.Z.V.A.A.(.P 2 q & o # A -.;.Z.;.%.S.%.&.;.R 3 p T S 3  .A.A.A.A.A.Z.Z.Z.J.| 8 q V X X 3 ^ C.C.D.n.n.x.c.z.B.N.i 9 } $.Y 5 ^ z.b.D.b.z.z.z.z.z.z.z.z.B.9X9X9X9X9X9XtX                    ",
"                    ,X>X>X*X>X>X.Xl.l.l.B.c.C.B.C.C.C.A.C.C.C.l 3 } G S 9 a (.`.L.L.[.[.'.[.[.[.`.%.P 4 O t w u :.`.`.].].'.(.).(.(.}.(.2 T T f q D ).}.}.}.}.+X@X}.+X+X-.6 X $ p w C {.}.'.}.}.'.'.).'.).{.<X                                                                                                                                                                                                                                                                                                                                                                                                                                                                                                                                                                                                            O.*.;.;.;.Z.V.A.A.(.P 2 q & o # A -.;.Z.;.%.S.%.&.;.R 3 p T S 3  .A.A.A.A.Z.Z.Z.S.A.| 8 q V X X 3  .C.C.D.H.z.x.C.z.D.S.i 9 } $.Y 4 ^ z.b.D.D.z.z.z.z.z.z.z.z.n.9X9X9X9X9X9XtX                    ",
"                    ,X>X>X*X>X>X.Xl.l.l.N.l.B.B.B.C.C.C.C.A.A.x 3 } G S 9 d (.`.`.`.[.[.'.`.`.`.`.%.z + O t w u :.`.`.].].'.(.)./.).'./.2 T T f q D ).}.'.}.}.+X+X}.+X$X-.6 X $ p w C {.'.'.}.}.'.'.).).)._.OX                                                                                                                                                                                                                                                                                                                                                                                                                                                                                                                                                                                                            O.*.;.;.;.Z.Z.A.A./.P 2 q & o # S -.;.;.;.&.S.&.&.;.R 3 p T S 3  .A.A.A.A.A.Z.Z.S.Z.| 8 q V X X 3 ..C.B.H.H.n.n.C.D.D.N.i 8 } $.I 4 ^ z.b.n.b.z.z.z.z.z.z.l.z.n.9X9X9X9X9X9XtX                    ",
"                    :X=XXX%X*X*X&Xl.l.c.N.c.C.C.B.C.C.C.C.A.A.l 3 T S S 9 d (.`.`.`.[.[.[.`.`.(.`.%.z + O t w u &.`.`.].].'.(.).(.).'./.2 S T f q S ).'.}.}.}.}.'.'.$X$X*.6 O $ p w C {.'.'.'.'.'.'.).)._._.OX                                                                                                                                                                                                                                                                                                                                                                                                                                                                                                                                                                                                            O.*.:.;.;.S.Z.A.A./.P 2 q & X # A -.&.;.;.%.S.&.&.;.R 3 p T S 3  .A.A.A.A.A.Z.Z.S.Z.~ 8 q r X X 8  .C.B.H.F.n.x.x.n.D.S.i 8 } $.Y 4 ! l.z.b.b.z.z.z.z.z.z.l.l.z.8X9X9X9X9X9XtX                    ",
"                    &X=X X X=X=X&Xl.l.c.c.l.B.C.C.C.V.C.C.A.C.h 3 } S S 9 d (.`.`.L.L.[.[.`.`.`.`.%.z + O t w u &.'.`.[.'.'.(.(.(.).'./.2 S T p 9 S ).'.'.}.}.}.'.).$X$X:.3 X $ p w C {.'.'.'.'.'.'.).).)._.OX                                                                                                                                                                                                                                                                                                                                                                                                                                                                                                                                                                                                            O.*.:.;.;.S.V.A.Z.K.P 2 q & o # A -.;.&.;.V.S.&.&.;.T 3 p T S 3  .A.A.A.Z.Z.Z.Z.S.Z.~ 8 q r X X 8 ..C.D.F.F.n.x.x.b.D.S.i 9 } $.Y 4 ! l.z.b.b.z.z.z.z.z.z.l.l.z.,X9X9X9X9X,XtX                    ",
"                    &XXX.X XXX*X.Xl.l.l.c.l.N.N.C.C.V.C.V.C.V.k 3 } S S 9 S (.`.L.L.L.L.`.`.`.`.(.%.k + O t w u &.'.`.[.].'.(.(.(.).'.^.2 G T p 9 S ).'.'.}.'.'.).).}.$X:.3 X $ p w C {.'.'.'.'.'.).).)._._.OX                                                                                                                                                                                                                                                                                                                                                                                                                                                                                                                                                                                                            O.*.-.;.;.S.V.A.Z./.P $ q & o $ S -.;.&.;.V.S.&.&.;.T 3 p R P 3  .A.A.A.Z.Z.Z.Z.S.Z.| 8 q r X X 3 ..C.D.H.H.H.n.z.z.D.B.k 9 } $.Q 5 ! z.z.b.b.b.z.z.z.z.l.l.l.z.,X8X9X9X9X,XtX                    ",
"                    &X XE. X X=X[.s.l.c.B.l.N.N.B.C.N.C.V.A.C.k 3 } G S 9 S (.`.`.L.L.`.`.`.`.(.(.%.k + O t w w &.'.`.[.].'.(.(.(.).'.^.3 T T p 9 S ).`.(.'.'.).)._.).).:.3 X $ p w C _.).'.'.'.'.).).)._._.OX                                                                                                                                                                                                                                                                                                                                                                                                                                                                                                                                                                                                            O.*.;.;.;.S.S.A.Z./.P $ q & o $ S ;.;.&.;.=.S.%.&.;.R 2 p T S 3 ^ A.A.A.V.Z.Z.Z.Z.Z.R 8 q V X o 2 ^ C.D.H.D.H.D.z.z.D.A.k 2 T $.~ 5 ^ z.z.b.n.b.b.z.z.l.c.l.l.z.,X8X8X9X,X,XeX                    ",
"                    &XXXXXW.XX=X[.N. .l.N.V.N.N.C.B.B.C.C.V.V.k 3 o.G S 9 z `.`.`.`.`.`.[.`.`.(.`.%.d + O y w s &.`.[.[.].[.`.(.(.(.'.^.2 T S C 9 S (.`.'.'.).)._.).).$Xo.6 # $ t w C _.).'.).).).).(.).)._.9.                                                                                                                                                                                                                                                                                                                                                                                                                                                                                                                                                                                                            @.-.;.;.S.S.Z.A.Z./.P $ : $ o # S &.;.;.&.&.;.%.&.;.T 3 p T a 3 %.A.A.A.A.Z.Z.A.A.Z.R 9 q r X X 2  .C.C.n.n.b.x.c.n.D.A.k 8 T :.R 0 ^ z.z.b.b.H.b.z.z.c.c.N.s.D.>X8X8X,X,X,XtX                    ",
"                    &XQ. XW.Q.%XL.l...l.N.V.N.N.C.B.C.C.A.A.V.k 3 o.G S 9 z `.`.L.L.`.`.`.`.`.(.`. .a + O t w u &.`.[.[.].[.`.(.(.(.'.Z.2 T D C q A ).`.`.).).)._.).).}.o.6 # $ t w a _.).'.)._._._.).).).6.9.                                                                                                                                                                                                                                                                                                                                                                                                                                                                                                                                                                                                            #.-.;.;.;.S.S.A.Z./.P $ : $ o # S &.;.;.;.%.;.%.&.;.T 3 p T a 3 %.A.A.C.A.Z.Z.A.A.Z.R 8 q r o X 2  .C.D.D.H.n.z.z.n.B.A.k 8 T :.Y 5 ! z.z.b.b.n.b.z.z.c.c.N.l.D.>X8X8X8X,X,XtX                    ",
"                    ].W.Q.W.Q. XD. ...l.N.N.N.V.C.B.C.C.A.A.V.k 3 ) G S 9 z `.`.G.L.`.`.`.`.(.(.(.| a + O t w u %.`.[.[.[.[.`.(.(.(.`.Z.2 T D A q S ).(.(.).).)._.)._.}.o.2 # $ t w a ).).'.)._.(._.(.(.).5.9.                                                                                                                                                                                                                                                                                                                                                                                                                                                                                                                                                                                                            #.-.;.;.;.S.S.Z.Z./.T $ : $ o # S ;.;.;.;.%.S.&.&.;.R 3 p T a 3 %.A.A.C.A.Z.Z.A.A.Z.R 8 q r o X 2  .C.D.H.H.n.z.z.n.B.A.k w T $.Y 5 ! z.z.b.b.b.b.z.z.c.c.N.l.n.>X8X8X9X9X,XtX                    ",
"                    [.R.W.W.W.Q.C...l.l.N.N.N.V.B.B.C.B.C.C.V.k 3 o.G S 8 z `.`.L.L.[.`.`.J.J.J.J.| a + O t w u %.[.[.P.[.[.`.(.(.J.`.Z.2 T E D q S (.(.(.).).)._._.).).) 2 # # g t a ).(.).)._.(.(.(.(.).5.9.                                                                                                                                                                                                                                                                                                                                                                                                                                                                                                                                                                                                            #.-.;.;.Z.S.S.Z.Z./.T $ : & o # S ;.;.;.;.&.;.&.&.;.T w f T d 3 %.A.A.C.A.Z.Z.A.A.Z.R 9 q r o X 2  .C.C.H.H.D.x.x.b.B.A.k w T $.Y 5 ! z.z.b.b.b.b.z.z.l.l.N.l.D.>X8X8X9X9X,XtX                    ",
"                    [.R.W.T.W.R.C. .l.N.N.N.l.V.B.N.C.C.C.V.V.h 3 ( G S 8 z (.`.G.L.`.`.`.A.J.A.J.| a + O t w u &.[.[.[.[.[.`.J.J.J.`.Z.2 T D A q S (.(.(.).).)._._.).).) 2 # $ g t a ).(.).(._.(.(.(.(.).5.9.                                                                                                                                                                                                                                                                                                                                                                                                                                                                                                                                                                                                            #.-.;.;.Z.Z.Z.Z.Z./.P $ : & o # S -.;.;.=.&.;.%.&.;.R w C T d 3 %.A.A.C.A.Z.Z.A.A.Z.R 9 q r o X 2  .C.B.H.H.n.x.C.b.B.B.k w } $.Y 5 ! z.z.b.b.b.b.z.z.l.l.N.l.D.>X8X8X8X8X,XtX                    ",
"                    P.Y.Y.Y.R.E.C.l.N.N.N.N.l.N.B.N.C.C.C.C.V.h 3 T S S 8 z (.|.G.L.L.L.`.J.J.J.J.| a + O t w u %.[.[.P.[.[.`.A.J.J.(.;.4 T D A q D /.(.(.).).)./._.(.).) 2 # $ t t a _.(.(.(._.(./.(.(._.5.9.                                                                                                                                                                                                                                                                                                                                                                                                                                                                                                                                                                                                            #.-.;.;.Z.Z.Z.Z.Z./.P $ : & o # A -.;.;.:.&.;.&.&.;.R w a T S 3  .A.A.C.A.Z.Z.A.A.Z.R 9 q r o X 2  .C.z.H.H.n.x.x.n.B.B.k 8 T $.Y 5 ! z.z.b.b.b.b.z.z.l.l.N.l.n.>X,X8X,X,X,XtX                    ",
"                    [.Y.Y.Y.R.E.C.l.l.N.l.N.l.N.B.N.C.C.C.C.V.k 3 T S S 8 z A.G.G.G.L.L.L.J.J.A.J.| a + O t w u %.`.[.P.[.[.`.Z.J.Z.(.=.4 T D A q A /.(.(.).)._././.(.).) 2 # $ t w a _.(.).(.(././././._.5.9.                                                                                                                                                                                                                                                                                                                                                                                                                                                                                                                                                                                                            #.-.;.;.Z.Z.Z.Z.Z./.E $ : & o # S -.;.=.:.&.;.&.&.;.R w a R S 3  .A.A.C.A.Z.Z.A.A.Z.R w w r X X 9  .C.z.H.H.n.x.x.b.z.S.i 8 T $.Y 5 ! z.z.b.b.b.z.z.l.l.l.N.l.B.*X>X>X>X,X>XtX                    ",
"                    [.Y.Y.Y.R.E.C. .l.l.l.N.N.l.B.N.C.C.C.C.V.h 7 T S S 8 z A.G.G.G.G.J.L.A.A.A.J.| a O X t w u $.`.[.P.[.[.`.Z.J.K.(.&.$ G D D q A /.(.(.).)./././.(.).) 2 # $ t w a _.(.).(.(././././._.5.9.                                                                                                                                                                                                                                                                                                                                                                                                                                                                                                                                                                                                            #.-.;.;.Z.Z.Z.Z.Z./.T & : & . # A -.;.;.*.:.;.&.&.&.R w A R d 3  .A.A.C.A.Z.Z.A.A.Z.R w y t X X 9  .C.B.H.H.n.x.x.n.z.B.i 8 } $.Y 5 ! z.z.z.b.b.z.z.l.l.l.N.l.B.*X>X>X>X>X>XrX                    ",
"                    P.Y.Y.W.Y.I.D.N...l.N.l.l.N.B.B.C.C.B.V.N.k 7 T G A y Y `.G.C.A.L.L.A.A.A.Z.Z.~ a # # p t u  .J.`.P.[.[.[.A.(.S.(.&.4 G T A q A ^.(.)./././././.(._.) w O $ t w a _.(.).(./.(./.(.(./.1.9.                                                                                                                                                                                                                                                                                                                                                                                                                                                                                                                                                                                                            #.-.-.;.;.Z.S.A.Z./.S & : $ o # D -.&.;.:.;.;.%.;.&.R w a R d 3 | A.C.C.V.Z.S.A.A.Z.R w w r o X 2 ^ C.C.H.F.n.b.x.n.z.B.s 8 } | Y 5 ! z.z.z.z.b.k.z.l.l.c.l.l.B.%X>X>X>X>X>X7X                    ",
"                    [.Y.m.Y.U.F.C.l...l.N.l.l.N.B.N.C.C.C.V.V.k 3 T G A w P A.A.C.A.L.J.A.A.A.Z.Z.R s O # p t u | J.L.P.[.[.`.Z.J.V.(.$.4 G G A > A 2.(.)./././././.(._.) w O $ t w a /.(.).(././././.(./.5.OX                                                                                                                                                                                                                                                                                                                                                                                                                                                                                                                                                                                                            #.-.;.;.;.Z.S.Z.Z./.S & : $ . # D :.;.-.*.-.;.;.;.;.R w a R d 4 | A.C.C.V.Z.S.A.A.Z.R w w r X X 2 ^ C.C.H.H.n.n.x.b.z.C.i 8 } | Y 5 ! z.z.z.b.b.z.z.l.l.c.l.l.B.%X>X>X>X>X>XrX                    ",
"                    [.Y.Y.Y.m.F.C.N. .l.N.N.N.N.N.N.B.B.C.V.N.h 7 T G A 8 z A.C.A.A.G.J.A.A.A.Z.Z.R s # O p t u | J.L.P.P.`.`.Z.J.V.^.$.4 S D A > A /.(.(././././././._.) q O $ t w a /./.).(././././././.5.OX                                                                                                                                                                                                                                                                                                                                                                                                                                                                                                                                                                                                            O.-.-.;.;.;.;.Z.Z.5.S & : & . # D -.-.*.$.*.;.;.Z.;.R w a T d 4 ~ A.C.C.V.Z.S.A.A.Z.Y 8 q r X X 2 ^ C.C.H.H.n.n.x.b.B.A.i w } | Y 5 ! z.z.z.b.b.b.z.l.l.c.l.l.B.%X>X>X>X>X>XrX                    ",
"                    [.Y.Y.Y.m.F.C.l.l.l.N.N.N.N.N.N.B.B.C.V.N.i 3 T G A w z A.C.A.C.A.A.A.A.A.Z.S.R u O O f t u  .J.L.L.L.L.L.Z.K.V.Z._ 4 D D A > A /./.(./././././././.R q O $ t w a /./.(.(././././././.5.9.                                                                                                                                                                                                                                                                                                                                                                                                                                                                                                                                                                                                            O.-.*.;.;.;.;.Z.Z.5.S & : & . # A -.-.*.$.*.;.;.Z.;.R w a T d 4 ~ A.C.C.V.Z.S.A.A.Z.R 9 q r X X 2  .C.B.D.H.n.n.D.b.B.C.i w T $.Y 5 ! z.z.z.b.b.b.z.l.c.c.l.l.z..X>X>X>X>X>XrX                    ",
"                    L.U.Y.Y.F.n.B.N.l.l.N.N.N.N.B.N.B.B.C.V.l.i 3 T G A w z A.A.C.C.A.A.A.A.A.V.S.R u O O t t u  .J.L.G.L.L.L.Z.Z.V.Z._ 4 S A f > A /././.^././././././.R 6 X $ t t a /./.(.(././././././.5.9.                                                                                                                                                                                                                                                                                                                                                                                                                                                                                                                                                                                                            O.-.-.;.;.;.;.Z.Z.5.D & : & . # A -.-.-.*.;.;.;.Z.;.R w a R z 4 | A.C.C.V.Z.S.A.A.Z.Y 8 q r X X 2 ^ C.C.D.H.H.D.D.n.B.B.s 8 T | Y 5 ! z.z.z.b.b.b.z.l.l.N.N.s.z. X*X*X*X>X*XrX                    ",
"                    L.m.Y.Y.m.b.B.N.l.l.N.l.N.N.B.N.B.B.C.N.l.i 3 T G A w z A.A.C.C.A.A.A.A.A.V.S.R s O # B t u  .A.G.D.G.L.L.Z.Z.V.Z.~ 2 G A A > A /././.^.^./././././.R 2 X $ t t a /.^.(.(././.K././.^.5.9.                                                                                                                                                                                                                                                                                                                                                                                                                                                                                                                                                                                                            O.-.;.;.;.;.;.Z.Z.5.G & : & . # A *.:.-.*.*.;.;.;.&.R w a R P 5 | A.C.C.V.Z.S.A.A.Z.Y 8 w r X X 2 ^ C.C.H.H.H.D.C.n.B.N.s 8 T | Y 5 ! l.z.b.b.b.z.z.l.c.N.N.l.z..X*X*X*X>X%XrX                    ",
"                    L.m.Y.Y.Y.m.z.N.l.l.l.l.N.N.B.N.C.C.C.N.l.i 3 T G A w z A.A.C.C.C.C.A.A.A.V.V.R u # # A t s  .A.C.B.D.L.J.V.Z.V.Z.~ 2 G A A > A 5.^.^.Z.^.^.^./././.R 2 X # t t a /.^.(.(././././././.5.9.                                                                                                                                                                                                                                                                                                                                                                                                                                                                                                                                                                                                            O.-.-.;.;.;.;.Z.Z.5.D & : & . # A *.:.-.*.*.;.&.;.=.R w a R P 3  .A.C.C.V.Z.V.A.A.A.Y w y r o X 2 ^ C.C.H.H.H.D.C.n.B.S.s 8 T $.Y 5 ! l.z.n.D.n.z.z.l.l.N.N.l.z..X*X*X*X*X%XrX                    ",
"                    [.m.Y.Y.R.I.B.N. . . .l.l.l.N.c.C.C.B.c.l.i 7 T S A w z V.C.C.C.C.C.A.A.A.N.V.Y u # # A p s $.Z.C.B.C.G.J.V.V.V.Z.~ 2 G A A > A 5.Z.^.;.^.2.;./././.T 2 X $ t t a /.Z.(.(./././.(.^.^.5.9.                                                                                                                                                                                                                                                                                                                                                                                                                                                                                                                                                                                                            O.-.;.;.;.;.;.Z.Z.5.D & : & . # A *.*.-.*.:.;.&.;.=.R w a R P 3  .A.C.C.C.Z.V.A.A.K.Y w y r o . 2 | C.C.D.F.H.C.x.n.B.S.s 8 T $.R 5 ! l.z.H.H.n.z.z.z.l.N.N.l.z. X*X*X*X=X&XrX                    ",
"                    L.Y.Y.U.F.F.C.N. . .l. .l.c.c.z.B.C.B.c.^ i 8 T G S w z V.C.B.C.V.V.V.V.V.N.V.R u O # A p u $.S.V.N.V.A.L.C.V.Z.Z.R 2 E S S 2 A ;.;.5.;.;.;.^.;././.T q O $ p w a 2./.^.(.^.K./.^.^.2.5.9.                                                                                                                                                                                                                                                                                                                                                                                                                                                                                                                                                                                                            O.-.;.;.;.;.;.Z.;./.E & : & o O S -.-.-.*.$.;.;.&.&.R w a o.z 5 ~ A.A.A.C.A.C.A.A.Z.R w p r o X $ ~ A.C.B.H.n.x.C.B.B.C.i 8 T $.Y 5 ^ l.z.D.D.b.b.k.z.l.c.c.l.z. X=XXXXX*X%XrX                    ",
"                    `.T.Y.U.F.I.C.N. .N.l. .l.c.z.z.z.C.z.c...i w T T S u z V.C.B.C.V.V.V.V.V.V.%.Y y X # A p u $.;.%.%.V.A.G.B.V.V.Z.R 2 E S S w S 5.;.;.;.;.;.^.;.2.5.S 2 O $ p y C 2./.^.(.^.K.K.^.^.^.5.9.                                                                                                                                                                                                                                                                                                                                                                                                                                                                                                                                                                                                            O.-.;.;.;.;.-.;.;.^.E & : & X # S @.+.-.*.$.;.;.&.;.| 8 a R d 5 ~ A.A.A.C.C.C.A.A.Z.R w p r o . $ _ A.C.B.H.b.x.C.z.B.C.i w S R Y 5 ^ l.B.D.D.b.b.k.z.l.c.l.l.b. X=XXX X*X=XrX                    ",
"                    `.Y.Y.Y.R.P.B.N. .N.l.l.l.N.z.B.z.C.z.c...h u T T S u z V.C.B.C.V.N.V.V.V.S.%.Y w X @ A p u $.=.%.%.V.C.A.N.V.V.V.R 3 T S D 2 A ;.;.;.;.;.;.;.;.5.5.G 2 O $ B y p 2.^.^.(.Z.Z.Z.^.^.^.5.9.                                                                                                                                                                                                                                                                                                                                                                                                                                                                                                                                                                                                            O.-.;.;.;.;.;.Z.;.2.D & : & X # C +.+.-.-.:.;.;.&.:.U w d { a 5 ~ A.A.A.A.C.C.C.C.Z.R w p t X . $ _ A.A.C.H.D.C.D.b.B.A.i w T o.Y 5 ! z.B.D.D.b.b.z.z.c.c.l.l.k. XXXXX X=X%XrX                    ",
"                    `.R.Y.Y.Y.I.B.N. .N.l.l.c.B.z.B.z.B.z.c...h u T T S u z V.B.B.B.V.N.V.V.V.N.V.Y y O # A p u _ &.%.%.V.C.A.N.V.V.V.~ 3 T S S q D ;.-.;.;.;.-.;.;.;.-.S 2 X $ B y p ;.^.^.^.Z.Z.Z.^.^.^.5.9.                                                                                                                                                                                                                                                                                                                                                                                                                                                                                                                                                                                                            O.-.;.=.;.;.;.Z.;.2.D & : & . # B +.@.+.*.$.-.;.&.-.R w d o.d 5 ^ A.A.A.C.C.C.C.C.Z.R w p t X @ $ _ A.A.C.D.D.C.D.b.B.A.k w T $.Y 5 ! B.B.D.D.b.z.z.z.c.c.l.l.k. XXXXXXX=X XrX                    ",
"                    `.R.Y.Y.Y.F.B.N. .N.N.N.c.B.z.B.z.C.B.N...h u T T S u z %.S.N.B.V.N.N.V.B.N.%.Y y O @ A p u _ &.%.%.V.A.A.N.N.S.Z.~ 3 G A A q A -.-.;.;.;.;.*.*.R T t $ X & A y C ;.2.^.^.Z.Z.Z.^.^.^.1.9.                                                                                                                                                                                                                                                                                                                                                                                                                                                                                                                                                                                                            O.-.;.=.;.;.;./.;.2.D & : & . $ B X.O.@.@.+.-.-.-.-.R w d { d 5 ~ A.A.A.B.C.C.C.C.Z.R u p t X @ $ _ A.C.B.D.D.C.D.x.C.A.k w T $.Y 5 ^ B.B.b.b.b.z.z.l.c.c.c.l.k.Q.XXXXXX=X X7X                    ",
"                    L.T.Y.R.R.F.B.N. .l.N.l.l.N.z.B.z.B.c.c...i w T G S w z %.N.N.N.N.V.N.V.B.N.%.P w X @ A t u _ $.%.%.V.V.A.N.B.S.Z.~ 3 G A A & A -.-.;.-.$.R P S a p w $ @ & A y C ;.2.^.^.Z.Z.Z.^.^.^.1.9.                                                                                                                                                                                                                                                                                                                                                                                                                                                                                                                                                                                                            @.1.;.=.;.;.;./.;.2.G > r & . # q t Z J X.+.-.-.-.-.T w f { d 3 ~ C.C.C.B.C.C.C.A.Z.R w p t X @ $ %.A.C.C.D.C.C.D.B.B.A.i 9 T $.Y 5 ^ B.B.b.D.b.z.z.l.c.c.c.l.k.E.Q.!. XXX X7X                    ",
"                    G.Y.R.W.T.P.B.N. .l.N.l.l.c.z.z.z.z.c.l.^ i w T G S w z %.N.N.c.N.N.N.V.C.N.%.P w X @ A p u _ &.%.%.V.V.A.N.B.B.Z.~ 3 T A B q A +.o.{ T S s s a a p t 6 X & A y p ;.2.Z.^.Z.Z.Z.^.^.^.1.9.                                                                                                                                                                                                                                                                                                                                                                                                                                                                                                                                                                                                            #.-.;.;.;.-.;.;.;.2.G > r & . # & > : e t A T o.+.-.T q f { d 3 ~ C.C.C.C.C.C.D.C.Z.Y w p t X @ $  .A.C.C.D.x.x.C.B.B.A.a 9 T $.I 5 ^ C.D.D.H.b.z.l.l.c.c.c.l.k.R.W.Q.Q. XQ.7X                    ",
"                    L.Y.T.W.W.E.B.N. .l.l.l.l.l.z.z.z.z.c.l.^ i u T G S w z %.V.N.c.l.l.c.V.C.B.%.Y w X @ A p u _ %.%.%.V.V.C.N.N.S.Z.~ 3 G A B q t S p p s S S P T G A t & o $ A y C ;.;.Z.^.Z.Z.Z.^.^.^.1.OX                                                                                                                                                                                                                                                                                                                                                                                                                                                                                                                                                                                                            O.-.;.;.;.;.;.;.;.;.G & : & . $ : e r r r e y p D T S q A o.d 3 ~ C.C.C.C.C.C.C.C.Z.Y 3 t y X @ $  .A.B.B.D.C.C.C.B.C.A.i 9 T $.Y 5 ^ C.D.H.H.n.z.j.l.c.l.c.z.k.R.W.W.XX XR.rX                    ",
"                    `.Y.T.W.Q.Q.B.l. . .l.l.l.B.z.z.l.l.l.l.Q i w G G S w z %.N.l.l. .%.N.V.B.S.%.U w X # A y u $._ %.%.V.V.S.l.N.S.V.R 3 T A y y p A A S T ) ) o.X.( A q $ # # B w p ;.;.^.Z.;.Z.Z.Z.^.^.1.<X                                                                                                                                                                                                                                                                                                                                                                                                                                                                                                                                                                                                            O.*.;.*.;.-.;.;.;./.E > r * . # : r V Z F H Z y q y y e A X.S 4 ~ C.C.V.V.C.C.C.C.Z.P 7 y t o @ 9 %.A.C.C.C.C.c.c.C.C.Z.a 9 T $.Y 5 ! B.D.H.D.D.z.l.l.l.V.l.l.k.Y.T.T.Q. XQ.rX                    ",
"                    [.Y.T.W.W.E.B.l. . .l.l.l.B.z.B.l.c.c.l.~ i w G G S w d &.%.N.N.%.&.N.N.N.N.$.P w X # A t s $. . .%.V.Z.S.l.l.S.Z.R 2 G B t A G T T T o.o.o.+.o.T t & $ # & y q p 5.;.Z.Z.Z.Z.Z.Z.^.2.1.OX                                                                                                                                                                                                                                                                                                                                                                                                                                                                                                                                                                                                            #.*.;.*.;.-.;.;.;./.T > : % . @ & e Z Z Z F G G A A t r t T P 3 ~ V.B.S.S.C.C.C.C.Z.P 7 y t . @ > ~ A.B.C.C.C.c.c.B.B.S.a 9 G $.Y 5 ! z.D.H.H.D.z.l.l.l.V.l.l.k.Y.Y.T.W.W.R.7X                    ",
"                    [.Y.T.W.W.E.z. .l.l.l.c.s.l.z.B.l.l.l. .~ i w G G A w d %. .^  .%.%.V.V.N.N.&.T y # # A t s $.%.%.%.&.V.V.N.l.S.Z.R 2 T D H G X.+.o.o.o.X.( T A y t H J G G y q p ;.;.;.Z.Z.Z.Z.Z.Z.2.1.<X                                                                                                                                                                                                                                                                                                                                                                                                                                                                                                                                                                                                            ,.-.;.=.;.*.;.;.;.2.T > r : & & : : r F K ' ' X.' G F Z t G S 3 ~ V.C.S.V.C.C.A.A.Z.U 6 y t o . $ ~ Z.S.B.B.C.C.c.B.N.V.a 2 G $.Y 5 ! c.B.D.D.D.z.l.l.l.l.l.l.k.Y.Y.T.T.T.E.7X                    ",
"                    [.Y.T.T.W.E.l... . .l.l.s.l.z.z.d.l.l...~ s y G G A q d $.%.^ ^  .%.%.N.N.N.&.R y @ @ A y u _ %.%.%.&.V.V.N.N.N.V.Y 2 X.X.X.o.+.o.T G S S A A G X.+.4.,.O.X.G p p *.;.Z.Z.S.Z.Z.Z.Z.;.1.OX                                                                                                                                                                                                                                                                                                                                                                                                                                                                                                                                                                                                            ,.-.;.;.;.-.;.;.;.;.T $ r V Z K F Z Z r V F ' O.#.O.' O.J X.S 3 ~ V.C.S.S.V.N.C.A.Z.Y 6 t t o . $ ~ Z.S.B.B.C.C.C.B.N.S.i 9 G $.Y 5 ^ l.B.z.D.D.z.l.l.l.c.l.l.k.Y.Y.T.T.R.R.7X                    ",
"                    [.T.T.W.W.E.z...l.l.l.l.s.l.z.z.d.l.l. .~ i t G G A q f $. .%. .| | %.%.%.%.$.P w X @ A t s ~ %.%.%.%.V.V.N.%.%.%.P 2 X.( ( G D D A A D T ( -.1.@.+.O.+.@.4.,.( S -.;.;.Z.&.;.S.Z.Z.;.1.9.                                                                                                                                                                                                                                                                                                                                                                                                                                                                                                                                                                                                            ,.*.;.;.;.-.-.;.;.=.T t Z K ' O.] J ' F Z V r t A ' #.#.O.#.G 3 ~ V.N.S.V.V.S.A.A.Z.R w t r o . $ R Z.V.S.B.C.C.C.B.N.S.i 9 G $.I 5 ! c.B.z.z.C.z.l.l.l.c...l.k.Y.Y.T.Y.Y.F.7X                    ",
"                    [.T.T.W.W.E.C. .l.l.l.c.l.z.z.z.l.l.l. .~ s y G G A q A $.$.%.%.$.%.%.%.%.%.~ P w X # A p u ~  .%.%.%.N.N.%. . .$.P 2 T D D p A D T X.o.@.-.X.+.+.@.1.,.O.O.+.X.X.-.;.;.Z.Z.;.S.Z.Z.;.1.<X                                                                                                                                                                                                                                                                                                                                                                                                                                                                                                                                                                                                            ,.*.*.;.;.-.-.;.;.:.o.J ' ] ] J J ] ' [ [ J F H B V r F F O.G 3 | A.N.S.V.V.V.A.A.Z.T w t r . . $ R Z.S.N.B.C.C.C.C.S.V.a 9 G o.P 5 Q z.z.z.k.z.z.l.l.l.l...l.k.F.Y.U.Y.Y.F.7X                    ",
"                    [.T.W.W.W.E.B. .l.l.l.l.l.z.z.z.d.l.l. .~ i w G G A q p $.~ ~ | $.$.$.$.^ ~ Y S w @ # A y u ~  .%.%. .%.N.%. .| | P 4 T T T ( X.o.-.-.+.o.X.o.-.1.@.X.J ( +.X.+.+.;.;.&.Z.Z.&.S.Z.Z.;.1.<X                                                                                                                                                                                                                                                                                                                                                                                                                                                                                                                                                                                                            @.*.;.;.;.-.-.;.;.*.*.J ' ] ] J ( O.] ' ' ' ' J K F Z Z V G D 3 ~ A.V.V.N.V.N.A.Z.Z.E 6 r r . . $ R S.V.N.N.C.V.V.C.B.%.a 9 G R P 5 Q z.z.z.k.B.z.l.l.l.l...l.k.F.Y.U.Y.Y.m.7X                    ",
"                    [.W.W.Q.W.E.z.^ ....l.l.s.z.l.z.s.l.l...W s w G G A q A $.$._ | $.$.R R I k a s 9 X @ A w u ~ %.%.%.%.%.%.%.| | $.P 4 X.+.-.+.+.X.X.X.X.o.+.o.X.( T X.+.@.1.-.1.-.-.;.;.Z.%.;.;.S.Z.2.1.<X                                                                                                                                                                                                                                                                                                                                                                                                                                                                                                                                                                                                            @.*.;.;.;.-.-.;.;.=.;.+.O.O.O.J J ' ' ' ' J ' ] O.] ' ' H G D 3 ~ V.A.N.N.V.N.A.Z.Z.P 6 r r . . $ T &.%.V.S.V.N.N.S.V.%.a 2 T { P 5 ! z.z.z.z.z.z.s.^ l.l...l.z.R.Y.U.U.U.m.7X                    ",
"                    [.W.W.W. XQ.x.....l.l.c.l.l.l.z.j.l... .~ s q F F A q A o.o.o.R T S a a S S a u w X X A y w ~ %.%. .%.&.&.$.o.o.o.A $ X.+.X.X.X.X.X.( ( T T T ) o.o.*.-.-.-.-.*.*.;.=.=.S.;.&.;.S.;.*.@.<X                                                                                                                                                                                                                                                                                                                                                                                                                                                                                                                                                                                                            ,.-.;.*.;.;.*.;.;.;.;.o.+.+.+.X.X.X.( J ( X.O.O.O.] ] ' O.#.D 3 ~ N.A.N.V.V.A.C.V.S.T q y : @ . & q C E ~ &.;.V.%.%.&.;.s 9 T $.z 5 ^ z.z.z.z.z.l.j.! ..l.l.j.a.Y.U.Y.U.m.F.7X                    ",
"                    ].W. X XQ.Q.z.! ....l.l.l.l.l.l.j.j... .~ s q H F A w A G D p p a A S S S S a u 9 O # A t w R %.%.^ $.:.$.o.o.o.o.A 4 ( +.+.X.X.X.( ( X.o.o.$.*.:.*.*.*.-.-.-.*.*.;.=.=.;.;.&.;.;.Z.=.-.<X                                                                                                                                                                                                                                                                                                                                                                                                                                                                                                                                                                                                            @.-.;.:.;.;.*.;.;.;.;.$.*.*.+.o.X.X.o.( ( ( ( X.O.O.O.#.#.#.S 4 ~ V.A.N.V.V.A.V.Z.V.Y 2 r : . . # & y w u a P R $.;.;.-.p q P *.P 5 ~ z.z.z.z.z.z.l.....l.l.j.k.F.U.U.M.b.m.7X                    ",
"                    .XQ. X X XQ.z.! ..l.l.l.l.l.s.l.s.j.....~ s q H H A y p A p A A A S S P E S S t 2 o @ Z y w ) $.$.~ $.$.o.o.R o.o.p $ D ( ( X.X.X.o.o.o.*.*.*.*.*.*.*.*.*.*.-.*.*.;.=.=.;.;.&.;.;.Z.=.-.<X                                                                                                                                                                                                                                                                                                                                                                                                                                                                                                                                                                                                            ,.-.;.:.;.;.:.;.;.;.;.$.*.*.*.+.+.+.+.+.X.X.( ( X.O.O.O.O.o.S 4 ~ V.V.V.V.V.A.V.Z.V.T 2 r e @ . $ & e t t y w u A T T X.p q S o.S 4 Q C.z.z.z.z.l.l.....l.l.j.k.F.U.U.M.b.m.7X                    ",
"                    &XQ. X X X Xx.s.l.l.l.c.l.l.l.l.j.j.....W s w D A A t A A A P P P T T T T G C y & X @ V y w ) $.$.~ $.$.o.o.) o.R a 2 S T ) o.o.*.-.-.-.*.*.:.:.*.*.o.o.*.*.-.*.*.;.:.=.=.&.&.;.%.;.=.1.<X                                                                                                                                                                                                                                                                                                                                                                                                                                                                                                                                                                                                            ,.-.*.:.;.;.:.*.;.;.;.$.*.*.*.*.+.+.+.-.+.X.X.X.X.( J X.G X.a 4 Y V.%.&.V.V.V.V.V.;.T q t : . . & : V Z A A A p p p y g t y G o.d 4 ~ z.z.z.z.z.l.l.! ......j.k.F.m.U.U.F.F.7X                    ",
"                    &XXX X X X Xx...l.l.l.c.l.l.l.l.j.j...~ I s w D A D A G T T T T T T T D A B B t r : : Z r e o.o.$.R $.$.o.o.o.o.) T a R o.*.*.*.-.-.;.-.:.:.:.:.*.:.*.*.*.-.-.*.:.;.:.:.=.&.&.;.&.;.;.1.<X                                                                                                                                                                                                                                                                                                                                                                                                                                                                                                                                                                                                            ,.-.*.-.;.-.:.*.;.;.;.$.*.*.*.o.o.+.+.+.o.o.o.o.X.X.X.X.} T p 4 k %.%.%.&.V.V.V.V.;.T y t : . . & e A F F J G S A A f t t t S { P 4 ~ c.z.z.z.z.l.l.! ......j.k.F.m.U.U.Y.R.,X                    ",
"                    %XXX XXXQ. XC...l.l.l.c.l.s.j.z.j.j.^ ~ I s w D D G T T T T T S S A C p p p A F J J F F r 6 X.o.R R ) ) R o.$.$.$.$.) :.:.*.:.;.=.&.:.:.&.:.=.-.*.-.:.*.*.*.-.$.:.*.:.:.=.&.&.;.&.;.;.1.<X                                                                                                                                                                                                                                                                                                                                                                                                                                                                                                                                                                                                            ,.-.;.-.;.-.:.*.;.;.;.$.$.*.*.*.+.+.+.+.o.o.o.o.*.+.+.X.o.*.R a E $.~ %.%.%.%.%.&.;.T q r r & & : : r F F J G G G G G A A t S R Y 0 W z.z.z.z.z.z.l.! ......j.k.m.m.U.U.Y.Y.,X                    ",
"                    &XQ. X=XQ. XC.! ..l.l.l.l.s.d.j.j.j.^ Q I s w G D G G G D G A A B B A D T X.J X.O.O.' J B y ( o.R R R o.) $.:.:.:.&.:.$.$.$.&.&.&.%.$.%.%.&.&.*.:.:.*.$.*.*.:.o.*.*.:.:.=.;.&.;.;.;.;.1.<X                                                                                                                                                                                                                                                                                                                                                                                                                                                                                                                                                                                                            ,.-.-.-.-.-.*.*.;.;.;.$.$.*.*.*.o.*.+.+.+.o.o.$.$.*.*.*.*.-.-.:.$.$.~ %.%.%.%.%.&.&.T 6 t H Z Z Z r V e V A G T T G D T T D S R Y i Q l.z.z.z.z.l.s.! ^ ....l.a.m.U.T.U.Y.m.,X                    ",
"                    &XQ. X*X X Xc.! ..l.l.l.s.j.j.z.j.j.^ W x u y T D D D A p A B A D G T T X.X.X.X.G J F J G D T R R R | | $.&.&.%.%.%.&.$.&.&.%.%.&.&.%.%.%.%.&.=.:.:.$.$.*.*.*.$.$.*.:.:.;.;.&.;.;.;.=.1.<X                                                                                                                                                                                                                                                                                                                                                                                                                                                                                                                                                                                                            ,.-.-.-.-.-.*.:.;.;.=.$.:.*.*.o.o.o.o.o.o.*.*.$.$.$.*.*.*.o.*.;.*.:.$.%.%. .%.| &.:.P w A F J ' J Z F H B r y y C S D T X.X.R Y x 0 M z.z.z.z.z.j.s.^ ^ ....l.a.m.U.T.Y.Y.m.:X                    ",
"                    &XXX XXXXX%Xz.! ^ l.l.s.s.j.p.j.j.s.^ ~ x s w A A B B A H G G J X.X.X.J J ( G G G G G G T T T Y | | | | %.$.%.%.%.%.%. .%. .%.%.%.&.%.%.%.%.&.:.:.:.:.:.*.*.*.*.$.:.:.*.&.;.&.&.;.&.;.1.<X                                                                                                                                                                                                                                                                                                                                                                                                                                                                                                                                                                                                            ,.1.*.:.:.:.$.:.;.;.*.$.$.:.*.:.*.*.o.o.o.o.*.:.=.=.:.$.$.$.$.:.:.:.:.&.%.%. .| | R T T G J J J F H F F J J G A p t y C A G T R x 5 ! z.z.j.d.j.j.! ^ ! ..! j.k.F.Y.U.T.Y.m.:X                    ",
"                    %X=X=X=X X Xz.! ! l.l.s.d.d.d.d.j.s.^ ~ I u t D H H J J J J X.J J G G G G G G T T T T T R R R ~ ~ | | .. . . . . . . . . .%.%.%.%.%.%.%.%.%.%.$.$.*.:.*.$.$.*.$.$.$.:.*.&.&.&.;.;.&.=.*.<X                                                                                                                                                                                                                                                                                                                                                                                                                                                                                                                                                                                                            #.-.-.:.:.:.$.:.=.=.*.$.$.:.:.:.*.$.*.*.*.$.$.:.:.&.:.$.$.$.*.:.:.=.&.&.&.&.&.| | R R T T ( ( ( G G G G J ( ( T G D A B t t p P x 5 ! z.z.d.d.j.j.! ^ ^ ..! j.k.F.Y.U.Y.Y.F.,X                    ",
"                    &X=X*X*XXX Xz...^ l.l.s.d.d.d.j.j.s.^ ~ x u t J J J O.O.X.J J G D D G G G G U U T R T Y R ~ ~ ~ Q Q ~ ^ ....^ ^ ^ ^ ^ .. .%.%.%.%.%.%.%.%.%.%.$.$.$.:.$.$.$.$.$.$.$.:.=.=.&.&.&.;.&.*.@.<X                                                                                                                                                                                                                                                                                                                                                                                                                                                                                                                                                                                                            O.X.-.:.:.:.*.:.*.*.:.$.$.$.:.:.$.$.*.*.*.$.$.$.$.$.:.:.:.*.:.:.:.:.$.%.%.&.&. .| | $.o.R T ( ( T T T G G X.X.X.O.X.X.G A t f P z 5 Q l.d.d.d.j.j.! ^ ^ ..^ j.k.F.Y.U.U.Y.m.:X                    ",
"                    &XXXXX=XXX%XB.....l.l.s.d.d.k.k.d.p.! Q x u y J O.O.O.J J G H D D S T T T T U Y Y P P I I Q W b M M M ! ! ! ^ ^ ^ ^ ^  . .l.%.%.%. . . . .%.$.| $.$.:.:.$.$.*.$.$.$.$.:.=.&.&.&.%.&.;.-.<X                                                                                                                                                                                                                                                                                                                                                                                                                                                                                                                                                                                                            O.X.-.:.:.:.:.*.*.*.*.$.$.:.:.:.:.:.:.*.$.$.$.$.$.&.:.:.*.*.*.$.$.$.~ ~ %. .%.| | | $.$.R R R R T T T T G G G } X.O.O.#.O.' G T d 4 W s.d.d.d.d.s.! ^ ^ ..^ s.k.F.U.U.U.m.m.:X                    ",
"                    &XXX XXX X Xz.....l.l.s.d.p.k.k.d.p.! Q z u w G J G G D D D G T U U P P P P z z x z x x I W x c c j b M W W ! ! ^ ^ ..l.l.l. . . . . .| | $.| | $.$.:.*.$.$.*.$.$.$.$.:.=.;.;.:.&.&.;.-.<X                                                                                                                                                                                                                                                                                                                                                                                                                                                                                                                                                                                                            #.o.*.*.*.*.:.-.-.*.*.$.:.:.:.:.:.:.:.*.$.$.$.$.$.:.:.:.$.$.$.$.$.~ ~ ~ ~ ~ ~ ~ | | | | ~ R R R R Y U T T T T T T } O.O.O.#.O.o.U 8 ~ ! p.d.d.d.p.! ! ^ ..^ j.k.m.U.U.U.F.n.:X                    ",
"                    &X=X=X=X X Xz.....l.l.s.d.p.a.k.k.s.! ~ z u y A A A G G G G T T P P d z z z z x x x l x x b b c M M b M / / ! ! ! ! ! ......^ .. . .~ | $.$.| | $.$.$.:.$.o.$.$.$.$.$.:.=.;.;.&.&.&.;.@.<X                                                                                                                                                                                                                                                                                                                                                                                                                                                                                                                                                                                                            #.+.o.*.$.*.:.:.:.:.*.$.$.:.:.:.:.:.:.:.:.:.$.$.$.$.$.$.$.$.$.$.$._ _ ~ Q I I Y Y Y Y ~ Q W Q R Y Y Y U T T T T T T } X.' X.O.o.T 0 W ! p.d.d.p.p.! ! ^ ..^ j.a.m.m.m.m.m.n.:X                    ",
"                    &XXX=X*XXX Xc.....l.l.s.j.d.a.j.k.s.^ ~ I u p S A A T T T U U P z z z z x x c c x x x x c c b b M M M M ! ! / ! ! ! ! ! ^ ^ ^ ^ ~ ~ ~ ~ _ | | | | | $.$.o.) $.o.$.$.$.:.&.&.:.$.&.&.=.+.<X                                                                                                                                                                                                                                                                                                                                                                                                                                                                                                                                                                                                            #.o.o.*.$.*.:.:.$.$.:.$.$.$.$.$.$.$.$.$.$.:.$.$.$.$.$.$.{ { { ~ ~ ~ ^ ~ ~ Y I I x x I W I I W I I Y Y I P Y Y R R T T ( J ( ( o.Y 5 I ! p.d.d.d.p.! ! ^ ..! j.a.b.m.m.m.m.v.:X                    ",
"                    &X X=X=X XQ.c.....l.s.l.l.p.p.a.k.j.^  .Y s p T T T T U P P P z a k z z c x j x x x x b b b M b b M M M n / / Q / Q ! Q Q Q ! ^ ~ ~ ~ ~ ~ | | | | | $.$.) R ) ) ) $.$.:.$.$.$.$.$.$.*.+.<X                                                                                                                                                                                                                                                                                                                                                                                                                                                                                                                                                                                                            #.o.*.:.$.$.*.*.$.$.$.) ) ) o.$.$.$.$.$.$.$.$.$.$.$.$.$.| R R ~ ~ ~ ~ ~ ~ Q Q x x x I I I I I I x c x I z k k I Y Y P T T T T R z 5 W ! p.p.d.p.p.! ! ^ ..! j.t.v.M.m.m.n.k.:X                    ",
"                    '. X X=X X.Xl. .^ ^ s.j.d.p.a.k.k.l...~ Y Y U U U P P P P z z z z z x x x x c x x x x b b b b b M M M M W W b W W Q Q Q Q Q Q W Q Q ~ ~ ~ ~ ~ ~ ~ ~ R R R R o.R R R $.:.:.$.| { | $.:.+.<X                                                                                                                                                                                                                                                                                                                                                                                                                                                                                                                                                                                                            ' O.o.$.:.:.$.$.*.*.o.T R o.o.R o.o.o.R o.$.R R R $.$.| ~ ~ ~ Q Q Q Q ~ ~ W Y Y x I I x x x x x x x x x x x z z z x I I R Y R ~ i 5 Q s.a.p.p.p.! ! ! ! ^ j.s.k.v.M.M.m.b.k.:X                    ",
"                    [. X X=X X[.^ ^ ..s.l.j.d.p.a.k.k.j.l.~ Q Y I P Y Y I I I I z x x x x x x x W W I x x b b b M M M W M M b b b b b b b b b b Q Q Q Q Q Q Q Q Y Y Y Y R R R R R R R R $.$.$.| { { | $.:.X.<X                                                                                                                                                                                                                                                                                                                                                                                                                                                                                                                                                                                                            O.+.o.$.$.$.$.$.*.o.) T ) o.R R o.o.o.R R R R R R ~ ~ ~ R Q Y W W W W W b x x x x I Y x x x x x x x x x c x x x x x x k x x x ~ x x l.s.a.p.p.p.! ! ! ! ..! s.a.v.v.M.M.M.n.:X                    ",
"                    '. X X=X XP.! ^ ..l.l.j.d.a.a.k.k.j.l.~ Y Y P I Y Y Y Y Y Y x I I I Y Y Y Y Q Q W W b c b M M M M M W b b b b b b b M M x b W W W W W I I I I I I I P U U U T P T R R | | R | ~ ~ %.$.) <X                                                                                                                                                                                                                                                                                                                                                                                                                                                                                                                                                                                                            O.+.) $.$.$.o.o.o.o.R T T R T T { { R R { { R R R R R Y Y I I I I I I x x x x x x I I x x x x x x x x c x x c x x x x j x x x b W Q ..s.p.p.a.p.! ! ! ! ^ ! s.d.k.v.M.v.m.n.:X                    ",
"                    '..XW.=XQ.F.! ^  .l.l.d.d.a.a.k.k.j...^ ~ Y Y Y R R Y Y Y Y I I Y Y Y Y Y Y Q Q W W b b b W M M M M M b b b c b b b M M b b b b x x I I I I x x P I P P U U P P P Y R R ~ ~ ~ ~ ~ _ _ ) <X                                                                                                                                                                                                                                                                                                                                                                                                                                                                                                                                                                                                            X.+.R o.| $.o.o.o.o.T T T T T T U U U R R R R R Y Y Y Y I I I I I I W x c x x l x x x x x x x x x x x c c M c c c c c c j c j l b ! ! ! p.p.p.p.! ! ! ^ ..! s.d.k.v.v.v.m.n.:X                    ",
"                    `.E.R. XR.H.! ^  .l.l.l.d.a.a.k.k.j...^ ~ Y R R R ~ ~ R Y Y Y Y Q Q Q Q W W W W W W W b M M M n M M b b b b b b b b b b b b b b x x I I I I z z z z P P P P P P P P Y Y R R R ~ ~ _ _ ( <X                                                                                                                                                                                                                                                                                                                                                                                                                                                                                                                                                                                                            O.X.R R { { { { { { T U U U P P P P d P P P P P P I z I I I x I I I I x x x x l l z z z x x x x x x x M M b M b M M M M N b M b M ! ! ! p.p.p.p.! ! ! ^ ..! s.d.k.v.v.v.b.b.:X                    ",
"                    `.E.R.Q.R.F.! .. .l.l.l.d.d.a.k.k.s.! ..~ Y R ~ ~ R ~ R ~ ~ Q ~ ~ ~ Q Q Q Q W W W W Q W M b m M n M M W W Q Q Q Q W b b b b b b x x x x I I z z z z z z P P P P z z z P Y Y Y Y ~ ~ ) ( <X                                                                                                                                                                                                                                                                                                                                                                                                                                                                                                                                                                                                            O.( T R R { R R T T T U U P P P z z d a d d d z z z z I x x x x x x x x x x x x z k k k z x x x x x x b M M M M M M M m M M m M M m s.! s.p.p.! ! ! ! ~ ^ ! s.j.k.v.v.v.b.n.7X                    ",
"                    `.E.R.W.R.P.l. .....l.l.l.a.a.k.d.s.^  .~ Y ~ ~ ~ ~ ~ ~ ~ ~ ~ ~ ~ ~ ~ Q Q Q Q W Q Q Q Q Q M Q Q Q Q Q Q Q Q Q Q W W b b b W b b x x x x x z z z z z z z z d d d d a z z z P P P R R R G 9.                                                                                                                                                                                                                                                                                                                                                                                                                                                                                                                                                                                                            ] J T U Y R R R U P P P P P P P P z d i a i i i z z z z z k k h k l x x x x x x z z z z z z x x x x x b b b b b M M Q Q Q m m M M m ! s.d.s.s.! ! ! ! ~ ^ ..l.j.k.k.v.f.v.b.:X                    ",
"                    (.E.Y.R.T.P.l. ...^ l.l.l.z.d.k.j.s.^  .| Y ~ | | ~ ~ ~ ~ ~ ~ ~ Q Q Q Q Q Q ~ W Q Q ^ ^ ! ! Q Q ! ! Q Q Q W W W W W W b W W x x x x x z z z z z z z d d d d d d d d z z z z z z Y Y T G 9.                                                                                                                                                                                                                                                                                                                                                                                                                                                                                                                                                                                                            ] F G P U Y R U P S S P P P z z P z a i i i i s i k k k k h h h h h k z z z z z z k k z z z z z z x x x b b b Q M Q ! Q ! ! m ! ! ! j.s.d.j.s.! ! ^ ^ ~ ^ ..l.j.k.k.v.f.b.v.:X                    ",
"                    `.F.R.R.Y.F.l. . ...s.s.d.l.z.z.z.l... .~ R ~ ~ ~ ~ ~ ~ ~ ~ ~ ~ ~ ~ ~ ~ ~ ~ ^ ~ Q Q ^ ^ ^ ^ ^ ^ ^ ^ ! Q Q Q Q Q I x W W W W x x x x x z z z z z z z d d d d d a i d z z z z z d Y Y U A OX                                                                                                                                                                                                                                                                                                                                                                                                                                                                                                                                                                                                            ] J G P U Y U P P z a d z z z z z z z i i i i i i z z z z k k h h h h z z z z z z z a a z z z z z z I x Y Q ~ ~ ~ Q Q ^ ^ ^ ! ! ! ! l.s.j.j.j.s...^ ..^ ~ ^ j.j.k.v.v.v.v.k.@X                    ",
"                    `.H.Y.Y.U.F.l. . .^ ^ s.l.l.z.z.z.l... .~ R ~ ~ ~ ~ ~ ~ ~ ~ ~ ~ ~ ~ ^ ^ ^ ~ ^ ^ ^ ^ ^ ^ ^ ^ ......^ ^ ~ ~ Q Q Q I I W W W Y x x x z z z z z z z z d d d d d d a i d z d k z z z I k d A 7.                                                                                                                                                                                                                                                                              q.q.<X<Xq.<X<X1X1X1Xq.9.<X4X4X4X4X4X1XqX3X                                                                                                                                                                                                                                                                                    ] H S P z P z P P z a d z z z z z k k i i i i i i z z z z z z z x x z z z z z z z z d a d z z z z x Y I I W I W W Q ~ ^ ^ ^ ^ ^ ! ^ l.l.j.j.j.s.! ^ ^ ~ ~ ..j.p.k.v.v.v.v.v.:X                    ",
"                    `.n.m.U.U.F.l. . .^ ^ s.l.l.z.z.c.l... .~ R ~ ~ R R R R ~ ~ ~ ~ ~ ^  . .^ ~  . .....................~ ~ ~ Q Q Q Y Y Q Q Q Y I I x z x z z z z z d d d d d d d p i d z a k z z z x k Y P G 4X4X3X3X3X3X3X3X3X3X3X3X3X3X3X3X3X3X3X3X3X3X3X3X3X3X3X3X3X4X4X4X4X3X3X3X4X4X4X4X4X4X1X1X1X1X4X1X1X1X1X<X<X<X<X<X<X<X1X1X<X<X<X<X<X1X1X1X<X<X<X<X<X1X<X<X1X1X4X1X4X1X1X4X<X<X<X1X1X1X1X1X1X1X1X1X4X4X4X1X1X4X3X4X4X1X1X1X1X4X4X4X1X1X1X1X1X1X1X<X<X1X<X<X<X<X<X<X1X<X<X<X<X0.V ; r e e r B J #.,.,.Z B F O.<.] J K K L L V V 3.1X<X<X1X1X1X1X1X1X1X<X1X1X<X<X<X<X<X<X<X1X1X1X1X1X1X1X4X3X4X1X4X3X4X3X3X3X3XpXpXpXpXpXpXpXpXpXpXpXpXaXpXaXaXaXaXaXpXpXpXpXaXaXaXaXaXaXaXaXaXaXaXaXaXaXaXaXaXaXaXaXaXaXaXaXaXaXaXgXgXgXgXcXcXcXcXcXcXxXxXxX                                                                    +.D P P z z z P P z a a k k k k k k k i i a a z z z z z z z z x x x z z z z z P P P z z z z z z z P Y Y Y Y I I Q ~ ~ ~ ~ ^ ^ ^ ! ^ l.l.z.l.j.s.! ! ^ ~ ^ ..j.s.k.v.v.f.f.k.-X                    ",
"                    J.b.m.U.U.M.l. .^ ^ ^ ^ l.l.l.l.c.l. . .~ R R ~ ~ R ~ ~ ~ ~ ~ ~ ~ ~  . . .~ .. . . .........^ ....| ~ ~ ~ Y R R Q Q Q Q Q Q Q Y I I I P z z z z z z d d a a d a a d z a k z k k I x z a X.wXqXwXpXpXpXwXwXwXwXwXwXqXqXwX3X3X3X3X3X3X3X3X3X3X2X2X2X2X4X4X2X2X2X2X2X2X2X2X2X4X2X4X2X2X4X2X4X2X1X<X1X2X4X<X1X4X<X1X4X4X4X4X4X4X4X4X4X4X4X4X4X4X4X4X2X2X2X2X2X2X2X2X3X2X2X3X3X3X2X2X3X3X3X3X2X2X2X3X3X2X3X3X3X3X3X3X3X2X3X2X2X2X2X2X3X2X3X2X2X4X2X2X2X4X4X4X4X2X4X2X2X4X9.' F G J G D D G J J J H B B F J A B B K B Z Z B <.<X1X1X1X1X1X1X1X1X<X1X1X1X1X1X1X1X1X<X<X1X<X<X<X<X<X<X<X<X<Xq.<X1X<X<X<X<X<X<X<X<X<X<X<X<X<X<X<X<X<X<X<Xq.<X<X<X<X<X<Xq.<Xq.<Xq.<Xq.<Xq.<X<X<Xq.9.q.9.q.q.q.<Xq.<Xq.q.q.<Xq.<Xq.<X<X<Xq.<Xq.q.q.<X<Xq.q.<Xq.<X<X<X<X<X<X<X1X1X1X1X1X<X<X<X1X1X1X1X1X1X1X1X1X4X4X4X4X4X3X4X3XOXC C P P z z z z z z a a a k k k k k k i i a z z z z z z z z z x x x x z z z z P P P P U U U P P P Y Y Y Y Q Q Q Q ~ ~ ~ ~ ^ ..^ ^ ..l.z.z.l.l.l.l.....^ ..l.j.p.a.v.v.f.a.a.@X                    ",
"                    J.n.U.Y.U.b.l. . . . . .l.l.l.z.z.c. ...~ Y R { { { R R ~ | ~ ~ ~ ~  .%. .^  . . . . . .^  .^ ^ | | | ~ ~ R ~ R R R R ~ ~ ~ ~ Y Y Y Y U P P P P P P S S d a d a a d z z k z k k x k a a #.3X3X3X3X3X3X3X2X3X3X2X3X3X2X2X4X4X4X4X4X4X4X4X4X2X4X2X2X2X2X2X3XwXwXwXwXwXwXwX6X6X6X2X3X2X6XwXwXwXwXwXwXwXwXwXwXwXwXwXwXwXwX6X3X3X3XwXwXwX3X3X2X2X2X2X2X2X2X3XwXwXwX6X3X2X3X6X6X3X2X2X2X2X3X3X3X3X3XwXwXwX6XwXwXwXwXwXwX6X6X6X6X6XwXwXwXwXwXwXwXwXwXwXwXwXwXwXwXwXpXiXiXpXpXwX3X2X2X2X2X2X4X2X2X2X<XOXOX<X<X<X<XOX7.9.9.<X<X1X3X3X4X4X3X4X4X4X3X3X3X3X3X3X3X3X3X3X4X3X3X2X4X4X4X1X4X1X4X1X1X1X4X1X1X1X1X1X<X<X<X1X1X1X1X1X1X1X1X3X4X1X1X1X1X<X1X1X3X3X4X4X4X4X4X1X1X1X1X1X1X1X<X1X1X4X1X1X1X1X1X1X4X4X1X1X1X1X1X1X4X1X1X1X1X1X1X1X<X1X<X<X<X1X1X1X1X1X1X1X1X1X1X1X1X1X1X1X1X1X1X4X1X4X4X4X4X1X4X4X1X3X4X4X7.G S P P z z z z z d a a a z k a k k k i a a d k k k z x z x I Y Y I I I I I I I P P P R R Y Y Y Y Y Y Q Q ~ ~ ~ ~ ~ ~ ~ ~ ^ ^ ^ ^ l.c.z.z.z.l.l.l.l.l.^ ..l.l.s.k.v.v.f.y.a.@X                    ",
"                    J.n.U.Y.Y.m.l. . . . . .l.l.B.C.C.N.l. .~ Y R R R R R R ~ ~ ~ ~ ~ ~  . . . . . . . . .^ ~ ~ ^ | | | | | ~ ~ ~ ~ R R ~ ~ ~ ~ Y Y Y R R R U P P P P P P S S S d d d P z z z z z z k a d S A F K F F H F H Z Z Z Z Z Z Z Z Z V Z Z Z Z Z Z Z Z F F F F F K J O.4.4.4.,.,.@.O.O.J J J J ' O.@.@.@.@.,.,.,.,.,.3.6.6.7.7.6.,.#.' ' ] ' ' J F H Z F J J J J ' O.O.,.#.O.' O.' J J J J J F J J X.O.,.3.3.,.#.#.#.#.O.#.,.,.,.,.,.#.#.O.' J ' O.O.#.6.6.7.7.7.7.7.7.OX7.6.6.7.6.6.,.#.,.3.<.O.' ] ] <.<.<.<.<.3.3.<.3.3.<.] ] <.<.<.3.7.9.9.7.7.9.OXOXOXOXOX9.OXOX9.7.OXOXOX9.OX9.9.9.7.9.9.9.9.7.7.7.9.9.9.9.9.<X<X<X<X9.7.7.7.9.<X9.9.<X<X<X9.7.9.9.9.9.9.9.9.9.9.9.9.9.9.<X<X<X<X<X<X<X<X<X9.OX<X<X<X<X9.<X9.<X<X<X9.<X<X<X<X<X9.<X<X<X<X<X<X<X<X<X<X<X<X<X<X<X<X9.9.9.q.<X<X<X<X1X1X4X4X4X4X3X4X3X3XqXqXOXG p p P z z z z z d d a z z a a a a a a a a a k k k z x x I I Y Y I I I Y Y Y Y Y Y Y R R R ~ ~ ~ ~ ~ ~ ~ ~ ~ ~ ~ ~  .^ ^ ^ .. ...l.B.C.z.z.l.l.l.....^  .l.l.d.k.v.a.f.y.k.-X                    ",
"                    A.n.U.Y.Y.F.l. . .^ ^  .l.l.B.B.C.N.l. .~ R R { { { R R ~ | ~ ~ |  .%. . . . . . . . .~ ~ ~ ~ ~ | | | | ~ R R R R R ~ ~ | | R R R R R R R T P P P P P P S S S S P P P P z z z P P a p g r r : : : : : : ; ; = = % = = = % = % % % % % = ; ; % % % % % % % & % % % % & & & % % % % % % % ; ; ; % % ; ; ; ; ; % % & ; ; ; % % % % ; ; ; ; ; ; % ; ; ; ; ; ; ; ; ; ; ; ; ; ; ; ; ; ; = % = ; ; ; ; : ; ; ; ; ; % ; ; ; ; ; ; ; : ; ; ; ; ; ; ; ; ; : : : : : ; ; % ; ; , ; ; % : : : : ; ; ; ; ; ; ; ; ; ; , ; = = % ; ; ; ; ; % ; , , : : : : , , , , , , , , : : , , , , , , , ; ; , ; ; ; ; = ; ; ; ; , < V Z < , , ; ; ; ; ; ; ; ; ; ; ; ; ; ; ; ; , , , , : ; , , , < V V L L Z L Z < < < : , , , < < < < Z < Z Z Z Z Z < V < V < , < < < < < < < < < < < , , , , < < V V Z Z Z F K K K [ ] [ ] ] [ t f S P z z z d d d S d z P d a a d z z z z z z z z z x x I I Y Y Y Y Q Q Q Y Y R R R R ~ ~ ~ ~ ~ | ^  . . .^ ^ ^  . .......l.l.l.c.C.B.z.z.l.l.l... .^ ..l.l.d.k.b.y.f.a.v.:X                    ",
"                    L.m.U.U.m.m.l. .^ ^ ^  .l.l.l.c.N.l. . .| | | | | | | | | | ~ | | %.%.%. . .$.| | |  . .~ ~ ~ ~ | | | | { R R R $.| $.| ~ | R R R R R T T T R T T T U P S S S S P P P P P P U S A p t g r : : : : : : ; ; = = * * * * * % % % % % % % % % * * * * * * % % * = = = % % % = = * * = = * * = = = * * * = = = = ; = % % = = % % * * * * * * * * = = = = = = = % * = = = = = ; = * * = = = = = = = * = = ; = = = ; ; ; = = = = ; = = = ; ; ; ; = ; ; ; ; ; ; ; = = = = * = % ; = = = = = = = = = = = = = = = = * = = ; = % = ; = ; ; ; ; ; ; : ; = = = * * = = = = = = = = = = = ; = * = * * = * * * = = = = = = * * * * = = = = = = = * = = ; ; = = = = = = = = ; ; = = = = ; ; ; ; ; ; ; = = = = = = ; = ; ; ; ; = = * % * = * % % * % % % % % - - - - % % % % % % % % % % % % % % & * : ; ; ; : ; , , Z Z A f S d d S S d d S a d P d d d z z z P P P P I I z I I Y Y Y ~ ~ Y Q Q ~ ~ ~ ~ ~ ~ ~ ~ ~ ~ ~ ~ | | %.%.%.%. . .l.l.l.l.l.l.l.l.c.C.z.z.z.z.l.c.l. .~  .l.l.d.k.b.y.v.f.v.-X                    ",
"                    C.m.T.Y.U.m.l. .| ~  .%.N.l.c.l.c.l... .| ~ ~ $.$.$.~ R ~ | $.$.| |  . . .| | | $.| | | | ~ | | | | | | R R R o.| $.| | | | ~ R R R R R R R T R T T T T T T D E T T P P P P A Z Z B B B V : : : : : ; ; ; ; = ; = % = = = % % % % % % % % % % % * * % % % = % % % % % % = = = * * = * * * * = * * * * * * * % = = = % % % % = % = = = = = = = = = = = = = = % = = * = = ; * = = = = = * * * = * * = = * * = % = = % % = = = = = ; ; ; ; ; = ; = = = = = = = = * * * = = = = * * = = = = * * = = = = = = = = = = = = = = = ; = ; ; ; ; ; ; = * = = = = = * * = * * = = = ; , , = * = = % % = * * = = = = = = = = ; = = = ; = ; ; ; = ; ; , , , , ; ; ; ; = = ; ; = = = ; ; ; = = = = = * = = = = = = = = = = - - % % % % % % % % % % % * % % % % % % % % % % % % % % % % % % % * ; : ; ; ; : V r : V A F H A S S f f S D D S S S d S z z P P P U U U U Y Y Y Y Y Y Y Y R ~ ~ Y R ~ ~ ~ ~ ~ ~ ~ ~ |  .| | ~ ~ |  . .%.%.%.N.l.l.l.l.l.N.l.N.B.B.c.z.z.z.c.l. .^  ...l.s.k.b.v.M.a.b.;X                    ",
"                    D.m.Y.Y.U.n.l.| | ~  . .%.l.c.l.l.l.^  .| R $.$.$.$.~ ~ ~ $.$.$.| |  .| | | ~ | | $.| | | | | | | | | | ~ R R o.| $.| | | | R R { $.$.o.R T T R R { T T D D ( G D D G T S A Z Z Z Z Z Z Z V , , , , , , ; ; ; ; = = * * * % % % % % * * * = * * * % % % * * * * % % % % % * = = = = = = = * * * * * * * * * * = = * * = = = * * * = = = = = = * * * = * * = = = = * * = = * * * * * * * * * * * * * * * * * = = = = = = * * * * = = = ; ; , = = = = = = = = = = = = * * = = = = = = = = = = = = = = = = = = = = = = = = = = = = = ; ; = = = = = = = = = = * = * = = = = = = = = = = = = * * = = = = = = = = ; ; = ; ; ; = = = = = = = ; ; ; , ; ; = = = = = = = = = = = % * = = = = = = * * % % % % % % % % % % % % % % % % % % % % % % % % % % % % % % % % % % % % % = = = % ; ; ; ; : : : V r V V Z F F H A A A A A A A D A S S S S P P d U T T R Y R Y Y Y Y Y Y R R R R R R ~ ~ ~ ~ ~ |  . . .| ~ | | | | |  . .%.%.N.%.l.%. .l.l.l.N.C.B.c.z.z.z.c.l. . . . .l.! z.b.v.M.v.b.-X                    ",
"                    L.m.Y.Y.m.b...| ~ ~ ^  .N.l.c.l.l.l... .| R $.$.$.o.R R ~ $.| | | $. .| | | ~ | | | | | | | | | | $.$.| R R R ~ | $.| | | | | | R R R R R R R R T T ( ( J ' F J K Z F Z A Z L L L L L L Z Z Z Z < < < , ; ; = = = = = % % % % % % % % % % % % % % % % % % % % % % % % % % % % % % % % % % % % % % % % % % % % % % % % % % % % % % % % % % % % % % % * % % * % % % % % % % % % % % % % % % % % % % % % % % % % % % % % % % % * * % % % % * * = = * = = * * * % % * % % % * * * * * * * * % % % % % % % % % % * * * * * * = = * * * * * * * * * * * * * * * * % = = = = = = * * = = * = = = % * * * * * = = = = % % = = = = = = = = = = = = = = = * * * = = = * * = = = = = = * * * * * * * % = = = = * * = = % % % % % % * * * % % * * * * * * * * * * * * * ; = = ; ; ; ; ; ; ; , , , V V V Z Z Z F K K F Z K F F G F H A A H G G G G T T T T T R U Y Y R R ~ ~ ~ ~ ~ ~ R R R R R R ~ | | |  . .| | | | | | |  . . . . . . .%.%. . .l.l.l.C.C.c.z.z.z.c.l. . . . .l.! z.b.v.M.v.b.;X                    ",
"                    I.m.Y.Y.U.v.^ | ~ ~ ^  .N.l.c.l.c.l. . .%.| o.o.R R R R R | ~ | | $. .| ~ | ~ | | | | | | | | | $.$.o.o.) R R ~ $.$.$.$.| | | R R { | o.{ o.T ) ) ( J F J 3.qX                                                                                                                                                                                                                            q.q.q.q.q.q.q.q.q.q.0.0.0.8.8.8.0.8.8.8.8.8.w.8.8.8.8.8.8.8.8.8.8.8.w.w.w.w.w.w.w.w.w.w.w.w.w.w.w.w.w.w.w.w.w.w.w.[ [ [ [ [ L L L L L L L L L L L < L L L L L L L < L L L < < < < < < < < < < < < < < < , , , < < < < , , , , < , , , = = = * = , , = = = = = , , , = = = = = = = = = = = = = = = = = = * % % % - = - * - * - % % * - % % % % % - % % % % % % % % % % * = = ; , ; , , , , < < < V L L K K L L L L Z Z L L F F Z Z Z Z Z F J J G D T T R { { R R Y R ~ ~ ~ $.| _ _ ) R R R R ~ $.| | | |  . . .|  . . . . . . . . . .%. . . ...l.C.C.c.z.z.z.c.l.l. . ...l.! k.b.v.v.v.b.:X                    ",
"                    L.m.Y.Y.m.v.^ | ~ ~  . .N.l.l.l.c.l.l.%.%.| R R R R R R ~ | ~ | | $. . .| ~ ~ ~ | | | | | $.| | $.$.o.o.) ) ) | | | $.$.| | | { R { { R R T X.X.( J ,.4X                                                                                                                                                                                                                                                                                                                                                                                                                                                                                                                          aXaXaXaXaXaXaXaXaXaXaXaXaXaXpXpXqXqXqXqXqXqXqX3X1Xq.q.q.q.q.q.1Xq.1X1X1X1X1X1X4X1X1X1X1X1X1X1X1X3X1X1X1XqXqXpXpXqXqXqXqXqXqXqXpXqX3X3X3X4X1X3X1X<.Z Z K K G P T T R R o.$.R R R ~ _ $.$.$.$.) ) R R R ~ | | | | |  . . . . . .%.%.l. . . . . . . ...^  .V.C.C.z.z.z.c.l.l. . ...l.! k.b.v.v.v.k.:X                    ",
"                    C.v.Y.Y.m.v...| ~ ~  .%.N.N.l.l.l.l. .%.%.$.R R R R R R ~ ~ | | | $. . .| ~ ~ | $.| | | | $.| $.$.o.) ) o.) ) | | | | | $.$.R R o.o.o.} X.o.F #.                                                                                                                                                                                                                                                                                                                                                                                                                                                                                                                                                                                                                                                                                        w.K O.T G T ( T T R R R R R ) _ _ $.$.$._ ) { { { { | | ~ | |  . .%. . . .%. . . . .|  .| | | ~  .V.C.C.z.z.c.c.l.l.%. ...l.! k.v.v.M.v.k.;X                    ",
"                    C.v.Y.Y.m.b...| ~ ~  .%.N.l.l.l.l...^  .%.| R R R R R { R ~ | | | $.%.%.^ ~ ~ $.| $.| ~ ~ ~ ~ $.$.$.R ) ) $.| | | | $.$.o.o.o.o.o.X.G J #.3.                                                                                                                                                                                                                                                                                                                                                                                                                                                                                                                                                                                                                                                                                                3.] K G X.X.( T ) R R R R R | _ $.$.$.$.$.| | | | | | ~ ~ |  . . . . . . . . . . . .| | | ~  .V.C.C.z.z.N.c.N.l.%.%...l.s.k.b.v.M.n.k.5X                    ",
"                    C.v.Y.Y.U.n...| ~ ~ ^ %.N.l.N.l.l...^  .$.R { R R { { $.| ~ %.| | $.%. .^ ~ | | $.| ~ ~ ~ ~ ~ | | | ~ R ) $.| | | $.$.o.o.X.#.X.J J 3.                                                                                                                                                                                                                                                                                                                                                                                                                                                                                                                                                                                                                                                                                                            3.K F J X.X.} T R R R | ~ ~ ~ _ $.$.| | { { { | | | ~ ~ ~ $.|  . . . . . .|  .| ~ | ^  .V.C.z.z.z.N.c.N. .%.%. .c.s.b.b.v.b.F.B.5X                    ",
"                    V.m.Y.Y.U.b.^ | ~ ~ ^  .%.l.l.l.l... .%.$.~ { R R { | ~ | $. .%.%.%.$.| | | | $.$.~ ~ $.| ~ | ~ | $.~ ~ $.$.R $.$.o.o.X.X.O.J <.q.                                                                                                                                                                                                                                                                                                                                                                                                                                                                                                                                                                                                                                                                                                                    0.] K ' ' X.T T { $.| ~ ~ ~ | | R | | | R R R | $.| ~ | | | $.$.%. .%.| %. . . .^  .N.B.B.B.B.B.c.N.%. .%. .l.s.D.m.m.m.b.n.5X                    ",
"                    c.m.Y.Y.U.b.^ ~ ~ ~  . .%.l.l.l.l.l.%.%.| R { R R { | | | $. .%.%.$.$.| | $.R $.$.$.~ | | | | ~ | | ~ | $.R *.o.} o.+.' <.9.                                                                                                                                                                                                                                                                                                                                                                                                                                                                                                                                                                                                                                                                                                                                <.] G G T o.o.R | ~ ~ | | | | R | { R R { $.$.$.R { { | | $.%.%. .%. . . . . .N.B.B.B.B.B.c.N.%. .%. .l.s.H.F.m.m.b.B.5X                    ",
"                    C.m.Y.T.Y.n.~ ~ ~ ~  . .%.l.l.l.l.l.%.| | R { R R { | | | | | | | | $.$.| | :.$._ R ~ | ~ R $.R { | { $.$.{ o.( G #.9.                                                                                                                                                                                                                                                                                                                                                                                                                                                                                                                                                                                                                                                                                                                                            O.G G X.} R R R R R { R R | { R { $.$.$.$.{ { { R R ~ | $.$.%.|  . . . .S.N.N.B.B.N.c.N.%. .%. .l.l.D.F.m.n.n.C.5X                    ",
"                    C.U.Y.T.R.n.^ ~ ~ | %. . . .l...l.N.%.| ~ R R R R { | | ~ | $.| ~ | $.$.| R E E R _ $.$.| R R R { o.o.X.T X.O.9.                                                                                                                                                                                                                                                                                                                                                                                                                                                                                                                                                                                                                                                                                                                                                      3.J J X.} o.o.o.R R $.$.| | | $.$.$.o.o.{ { R R R ~ | $.$.| |  .^  .S.S.N.c.c.c.N.N. . .%. .c.l.H.F.m.n.D.D.5X                    ",
"                    L.Y.Y.T.R.m...| $.$.%. . ...l...l.N.%.| R R R R R | | | ~ ~ $.~ ~ ~ | | ~ R $.$.$.$.) R o.o.o.o.O.X.J O.9.                                                                                                                                                                                                                                                                                                                                                                                                                                                                                                                                                                                                                                                                                                                                                                  ] F H J O.X.T R $.o.$.$.$.$.$.$.{ { { R | ~ | | | | | ~ | |  .N.N.N.N.N.N.N.N. . . . .c.l.D.F.m.n.D.C.5X                    ",
"                    I.R.T.W.R.F...| ~ $.$.$.^  ....... . .| R R { R R R | | ~ ~ | ~ | | | | R R ~ R R ~ $.R R X.( J J 3.                                                                                                                                                                                                                                                                                                                                                                                                                                                                                                                                                                                                                                                                                                                                                                            0.K F J ( o.) o.o.o.{ { { { { { { ~ | | ~ ~ R | R R | |  .%.N.l.l.l.N.N. . . . . .c.l.D.m.m.n.H.A.5X                    ",
"                    L.Y.T.!.W.F...R R $.$.| ^  .^  . . .| | { R | R R R | ~ ~ ~ ~ ~ | | ~ { R R ~ ~ ~ $.$.T T X.,.                                                                                                                                                                                                                                                                                                                                                                                                                                                                                                                                                                                                                                                                                                                                                                                      1X] D T ( R R R R R { { $.~ ~ ~ | ~ ~ ~ | | R R | { | %.N.l.l.l.N.l. . .%. . .c.l.D.F.m.n.D.G.5X                    ",
"                    L.Y.T.!.W.D.| R R | $.| ~  .^  . . .| | { R | R R R ~ ~ ~ ~ ~ ~ ~ | ~ R { { R { o.T T 1.3X                                                                                                                                                                                                                                                                                                                                                                                                                                                                                                                                                                                                                                                                                                                                                                                                6.J ( ( T R R { { R R R ~ ~ | | | | | | R { R | %.N.l.l.N.N.N. .^ %. ...c.l.D.F.m.n.D.A.5X                    ",
"                    |.T.!.T.Q.I...| ~ | | | ~ ^ ^  . .| ~ R o.{ R R R R | ~ Q ~ ~ ~ | ~ R R o.T ' ' <.                                                                                                                                                                                                                                                                                                                                                                                                                                                                                                                                                                                                                                                                                                                                                                                                              <.J J X.X.T { R { Y ~ &. .~ ~  . .| ~ ~ $.$.N.N.N.N.N. . . . . ...l.l.I.D.n.D.D.V.6X                    ",
"                    |.T.!.T.R.D. .| ~ | | ~ ~ ..^  .%. .| { R R $.| R Y ~ | ~ ~ ~ Y R *.o.T o.@.                                                                                                                                                                                                                                                                                                                                                                                                                                                                                                                                                                                                                                                                                                                                                                                                                        7.F F ' o.T R R Y Y I %. . .~ ~ ~ %.$.| N.l.l.N.%. . . .%. ...c.l.H.D.n.D.D.Z.5X                    ",
"                    |.T.T.T.E.D.~ | | | | ~ ~ ..^ .. . .~ ~ R R P R ~ ~ $.| R R o.o.o.O.O.7.                                                                                                                                                                                                                                                                                                                                                                                                                                                                                                                                                                                                                                                                                                                                                                                                                                  ] F G ( T } o.R R ~ ~ |  .| Y ~  . . . .%.%. . . .%. . .N.l.G.D.z.D.C.Z.2X                    ",
"                    (.T.W.W.Q.G.~ ~ | | | ~ ~ ....^ ^ ^ ~ ~ ~ R $.$.R R o.) T X.J O.0.                                                                                                                                                                                                                                                                                                                                                                                                                                                                                                                                                                                                                                                                                                                                                                                                                                            <X' F J G T o.R R R |  .| |  . ... .%.%. .| |  .~  .N.N.G.D.B.D.C.A.5X                    ",
"                    (.R.W.T.Q.G.~ | | $.| | ~  .^ ^ ^ ^ ~ ~ R R ) R T ) X.J ' <.qX                                                                                                                                                                                                                                                                                                                                                                                                                                                                                                                                                                                                                                                                                                                                                                                                                                                      3.' J G G } { Y Y ~ | ~  . . .%.%. .| | ~ ~ ^ N.N.A.B.B.H.D.A.5X                    ",
"                    `.E.T.R.E.D. .| | $.| | |  .~ ^  . .~ Y R R ( ( ( X.,.                                                                                                                                                                                                                                                                                                                                                                                                                                                                                                                                                                                                                                                                                                                                                                                                                                                                  0.F J G G { { | | &. ... . . . .| |  .~ _ %.%.A.S.C.G.D.|.5X                    ",
"                    `.E.T.Y.Q.G. . .| | | | | | ~ ~ $.| R T T X.J <.                                                                                                                                                                                                                                                                                                                                                                                                                                                                                                                                                                                                                                                                                                                                                                                                                                                                              3.F G o.T T ~ %. . . . . .~  .$.~  .%.%.Z.Z.A.G.G.|.2X                    ",
"                    ).[.W.R..XL.N.%. . .| | | | | o.o.X.T J O.,.                                                                                                                                                                                                                                                                                                                                                                                                                                                                                                                                                                                                                                                                                                                                                                                                                                                                                      7.J G X.*.%.^ ^ ^  .^ ~ %.| ~ | %.%.Z.Z.J.L.G.`.2X                    ",
"                    ).`. XE..X[.C.N.^ | | | { o.o.X.X.J ] 0.                                                                                                                                                                                                                                                                                                                                                                                                                                                                                                                                                                                                                                                                                                                                                                                                                                                                                                O.J ) ~ $.$.$.~ _ $.%.~ | %.V.A.V.V.L.A.^.2X                    ",
"                    /.`..X[.[.[.S. .~ %.:.o.T ( J #.9.                                                                                                                                                                                                                                                                                                                                                                                                                                                                                                                                                                                                                                                                                                                                                                                                                                                                                                          4.) E ( +.*.$.$.$.~ %. . .N.V.A.%.Z./.2X                    ",
"                    6.(.`.`.(.(.^.%.$.) T G @.9.                                                                                                                                                                                                                                                                                                                                                                                                                                                                                                                                                                                                                                                                                                                                                                                                                                                                                                                    <X#.' X.+.o.2._ &.V.N.N.N.A.J./.2.4X                    ",
"                    1X2.^._.{.{.-.T D @.                                                                                                                                                                                                                                                                                                                                                                                                                                                                                                                                                                                                                                                                                                                                                                                                                                                                                                                                  3.' X.+.o.;.$.%.Z.A.Z.;.5.1.3X                    ",
"                          4X<X7.3.                                                                                                                                                                                                                                                                                                                                                                                                                                                                                                                                                                                                                                                                                                                                                                                                                                                                                                                                              ,.( X.-.-.-.;.5.5.6.4.qX                    ",
"                                                                                                                                                                                                                                                                                                                                                                                                                                                                                                                                                                                                                                                                                                                                                                                                                                                                                                                                                                                    7.#.,.,.,.4.@.@.3.                      ",
"                                                                                                                                                                                                                                                                                                                                                                                                                                                                                                                                                                                                                                                                                                                                                                                                                                                                                                                                                                                          3XqXqX                            ",
"                                                                                                                                                                                                                                                                                                                                                                                                                                                                                                                                                                                                                                                                                                                                                                                                                                                                                                                                                                                                                            ",
"                                                                                                                                                                                                                                                                                                                                                                                                                                                                                                                                                                                                                                                                                                                                                                                                                                                                                                                                                                                                                            ",
"                                                                                                                                                                                                                                                                                                                                                                                                                                                                                                                                                                                                                                                                                                                                                                                                                                                                                                                                                                                                                            ",
"                                                                                                                                                                                                                                                                                                                                                                                                                                                                                                                                                                                                                                                                                                                                                                                                                                                                                                                                                                                                                            ",
"                                                                                                                                                                                                                                                                                                                                                                                                                                                                                                                                                                                                                                                                                                                                                                                                                                                                                                                                                                                                                            ",
"                                                                                                                                                                                                                                                                                                                                                                                                                                                                                                                                                                                                                                                                                                                                                                                                                                                                                                                                                                                                                            ",
"                                                                                                                                                                                                                                                                                                                                                                                                                                                                                                                                                                                                                                                                                                                                                                                                                                                                                                                                                                                                                            ",
"                                                                                                                                                                                                                                                                                                                                                                                                                                                                                                                                                                                                                                                                                                                                                                                                                                                                                                                                                                                                                            ",
"                                                                                                                                                                                                                                                                                                                                                                                                                                                                                                                                                                                                                                                                                                                                                                                                                                                                                                                                                                                                                            ",
"                                                                                                                                                                                                                                                                                                                                                                                                                                                                                                                                                                                                                                                                                                                                                                                                                                                                                                                                                                                                                            "
};
