/* XPM */
static const char *Screenshot_from_2025_12_13_23_14_061765664064[] = {
/* columns rows colors chars-per-pixel */
"472 445 256 2 ",
"   c #020202",
".  c #0E0302",
"X  c #0E0806",
"o  c #140504",
"O  c #1A0606",
"+  c #160906",
"@  c #1B0906",
"#  c #160608",
"$  c #1C0708",
"%  c #160908",
"&  c #1D0A0A",
"*  c #1D0F0F",
"=  c #230505",
"-  c #2B0505",
";  c #230906",
":  c #2B0906",
">  c #230609",
",  c #2B060A",
"<  c #230B0C",
"1  c #2B0C0D",
"2  c #330405",
"3  c #3B0406",
"4  c #330906",
"5  c #3A0906",
"6  c #33060A",
"7  c #3B060A",
"8  c #330D0D",
"9  c #3A0C0E",
"0  c #281007",
"q  c #25100E",
"w  c #2D100F",
"e  c #32100F",
"r  c #3B110E",
"t  c #2F0610",
"y  c #260E10",
"u  c #2C0E10",
"i  c #370812",
"p  c #340E11",
"a  c #3B0E11",
"s  c #251111",
"d  c #2D1111",
"f  c #2D1818",
"g  c #341212",
"h  c #3C1214",
"j  c #341915",
"k  c #3C1916",
"l  c #351518",
"z  c #3D1618",
"x  c #341A1A",
"c  c #3D1A1A",
"v  c #3C211E",
"b  c #371D20",
"n  c #3D2423",
"m  c #430406",
"M  c #470606",
"N  c #43060B",
"B  c #4B060B",
"V  c #430B0D",
"C  c #4B0B0E",
"Z  c #53060C",
"A  c #59060D",
"S  c #530B0D",
"D  c #5B0A0E",
"F  c #43110E",
"G  c #49110E",
"H  c #55100F",
"J  c #430E13",
"K  c #4B0D13",
"L  c #4A0D17",
"P  c #590611",
"I  c #530D13",
"U  c #5B0D14",
"Y  c #540E19",
"T  c #5B0E19",
"R  c #431315",
"E  c #4A1316",
"W  c #431916",
"Q  c #4B1916",
"!  c #441619",
"~  c #4C1519",
"^  c #441A1B",
"/  c #4C1A1C",
"(  c #531316",
")  c #5B1216",
"_  c #571916",
"`  c #52161A",
"'  c #5B141B",
"]  c #531A1D",
"[  c #5A1B1E",
"{  c #64090E",
"}  c #650612",
"|  c #630D14",
" . c #6B0D14",
".. c #640E19",
"X. c #6B0E19",
"o. c #730D15",
"O. c #770E19",
"+. c #631216",
"@. c #6B1216",
"#. c #661816",
"$. c #64141B",
"%. c #6B141C",
"&. c #631A1E",
"*. c #6B191D",
"=. c #731117",
"-. c #7B1116",
";. c #74141C",
":. c #7B141C",
">. c #73191E",
",. c #7B191E",
"<. c #4D2016",
"1. c #44211E",
"2. c #4B211E",
"3. c #55221E",
"4. c #72201D",
"5. c #461D21",
"6. c #4C1D21",
"7. c #5B1621",
"8. c #551D21",
"9. c #5B1D21",
"0. c #641621",
"q. c #6C1621",
"w. c #631C21",
"e. c #6C1A22",
"r. c #6F1E2B",
"t. c #741621",
"y. c #7C1522",
"u. c #731A23",
"i. c #7C1A23",
"p. c #7B1C29",
"a. c #442322",
"s. c #4C2422",
"d. c #4C2925",
"f. c #4A2A29",
"g. c #542323",
"h. c #5C2123",
"j. c #532926",
"k. c #5A2927",
"l. c #532C2A",
"z. c #5B2C2B",
"x. c #54312C",
"c. c #5C322D",
"v. c #4F3030",
"b. c #5C3433",
"n. c #593735",
"m. c #622225",
"M. c #682628",
"N. c #632C2B",
"B. c #772327",
"V. c #63322D",
"C. c #6A332D",
"Z. c #6F2F30",
"A. c #643532",
"S. c #6B3533",
"D. c #633A35",
"F. c #6B3A35",
"G. c #683739",
"H. c #643C3A",
"J. c #6C3C3A",
"K. c #753A36",
"L. c #733D3A",
"P. c #5E4137",
"I. c #66423C",
"U. c #6C423D",
"Y. c #73423D",
"T. c #7A443D",
"R. c #6B3F40",
"E. c #5D4040",
"W. c #6A4442",
"Q. c #734441",
"!. c #7B4A45",
"~. c #7A4946",
"^. c #7C524C",
"/. c #840E1B",
"(. c #83141D",
"). c #8B141E",
"_. c #85181E",
"`. c #93151E",
"'. c #A4131E",
"]. c #841622",
"[. c #8B1522",
"{. c #841A24",
"}. c #8C1A24",
"|. c #8A1729",
" X c #831C29",
".X c #8C1C2A",
"XX c #931623",
"oX c #9B1625",
"OX c #931B25",
"+X c #9B1B26",
"@X c #941C2A",
"#X c #951D2F",
"$X c #9B1C2A",
"%X c #A31A26",
"&X c #A81926",
"*X c #A31D2A",
"=X c #AB1D2B",
"-X c #B71B26",
";X c #B31D2B",
":X c #BB1D2C",
">X c #A81E31",
",X c #B81E31",
"<X c #892229",
"1X c #93212B",
"2X c #972228",
"3X c #9C222C",
"4X c #992532",
"5X c #893338",
"6X c #A7252B",
"7X c #A3212C",
"8X c #AC222D",
"9X c #B3212D",
"0X c #BB212D",
"qX c #A42332",
"wX c #AC2433",
"eX c #A72A37",
"rX c #B42332",
"tX c #BB2232",
"yX c #B82936",
"uX c #AF353F",
"iX c #C31D2C",
"pX c #C91D2D",
"aX c #C71E31",
"sX c #D11E30",
"dX c #C4212D",
"fX c #CB212E",
"gX c #D1212F",
"hX c #C42333",
"jX c #CB2333",
"kX c #CA2638",
"lX c #D32333",
"zX c #D82637",
"xX c #E3293A",
"cX c #82443E",
"vX c #8C3F44",
"bX c #824B45",
"nX c #874946",
"mX c #834D4A",
"MX c #934B49",
"NX c #84524C",
"BX c #8B534C",
"VX c #88564C",
"CX c #895854",
"ZX c #935B54",
"AX c #945A56",
"SX c #B55251",
"DX c #8D625D",
"FX c #96635B",
"GX c #9B635C",
"HX c #A2675E",
"JX c #9A6963",
"KX c #A56B65",
"LX c #AA736B",
"PX c #B17971",
"IX c #B8837A",
"UX c #C18A84",
/* pixels */
"                                                                                                                                                                                                                                                                                                                                                                                                                                                                                                                                                                                                                                                                                                                                                                                                                                                                                                                                                                                ",
"                                                                                                                                                                                                                                                                                                                                                                                                                                                                                                                                                                                                                                                                                                                                                                                                                                                                                                                                                                                ",
"                                                                                                                                                                                                                                                                                                                                                                                                                                                                                                                                                                                                                                                                                                                                                                                                                                                                                                                                                                                ",
"                                                                                                                                                                                                                                                                                                                                                                                                                                                                                                                                                                                                                                                                                                                                                                                                                                                                                                                                                                                ",
"                                                                                                                                                                                                                                                                                                                                                                                                                                                                                                                                                                                                                                                                                                                                                                                                                                                                                                                                                                                ",
"g g g g g g g g h h h h h g g g g g g g g g g g e g R E E R g e g g j h g g g g g h E ` ( K h g r g g h h h h h h h h h h h R R R ! ! ! ! E E E ` @.OX%X@X+.E ! ^ ! E E ~ E Q Q / / ` ` ..{.1Xp.' ~ ~ ` ` ~ E ~ ` ] ] [ [ ' [ ' ' [ ] ` ] ] ] / E E ] [ ] ] ] ] ] ] ] [ [ ] 8.` E E ' 9.] ] 8.] ] ] [ 9.[ [ [ 9.9./ h g g E ] [ w.w.w.&.[ w.9.9.] ( [ h.[ [ 9.[ ] E ! / g.9.` _ ] ] 8.] 9.` R E M.MXnXM._ ` E ( [ 9.9.[ [ ] ` ] ] ` ` ` / ! V Q AXLXKXKXGXBXbXV.D.J.j.k R / g.9.9.9.8.] [ [ [ 9.9.[ ] 9.h.] ] [ [ [ [ ` ` ` ` ` 8.] / ] ` ` ` / 9.h.] [ h.8.9.h.8.8.5.g 1 r j 1 p ^ [ [ ] [ ] 9.[ ] [ [ ` ` [ 9.9.[ ] [ h.[ ] / ] 9.9.[ [ ] [ w.9.9.9.[ 9.h.] ] h.[ [ ] 8.8./ k : 8 / ] [ h.[ ] ` ` h.h.[ 8.` ` E / ~ ] g.Q / Q R 9 R / / / s.s.^ ^ s.2.^ ! ! ! z y ; < 7 /.4X%.K R h h 9 2.Q.Y.D.A.A.d.z j g g h ^ ^ / Q Q / ! / / / Q ! / / R ! ! Q Q Q / / ^ h h / ^ ^ ^ ^ ^ ^ g g h ^ 5.^ ^ ^ ^ ^ h ^ ^ h R ^ ^ g h ^ h g & % @ = 5 ' R g ! ! ! h 1 = q < + + & d v c v.c < ",
"g g g g g g g g h h h h h g g g g g g g g g g g r g R ~ ~ R g g g g g h g g g g g R ~ ' ` K h g g g g h h h h h h h h h h h R R R ! ! ! ! ! E ~ ` @.}.%X@X@.E ! ^ ! E E ~ E Q Q / / ~ ` +..X1Xu.' ~ ~ ` ` ~ E ~ ~ ` ] [ [ [ 7.[ _ ` ` ] ] ] ] / E E ] [ ] ] ] ] ] ] ] [ [ ] / ~ ~ ` ] [ ` ] 8.] ] ] [ 8.[ [ [ 9.9./ h g g ! [ w.w.&.[ [ w.w.[ ` ` ] h.[ _ [ [ [ 8./ ! / ] ` ` [ [ ` [ 8.] ~ R E [ vXZ.[ [ h.[ ] [ 9.9.9.[ [ ] ] ] ] 9.8./ ! V h.GXKXHXKXBXbXL.V.H.H.s.k R / 8.8.9.9.h.[ [ h.[ h.9.[ [ 9.[ [ ] [ 8.8.[ 8.8.` ` ] g.] / / ] 8.g.] ] [ ] h.h.8.9.8./ / ^ h e r h 1 8 / h.[ ] [ [ 9.] ] [ [ [ 9.h.h.[ ] 9.h.[ ] [ [ [ ] [ h.9.[ [ [ [ h.m.[ 9.[ ] 9.h.h.] ] 8.] ^ r 1 ! / / ] 9.[ [ 8.[ 8.` ~ ` ` ] ` 8.` [ / E ] ] Q ! Q Q Q ! g./ ^ / s.^ W ^ / ! z < @ = N /.@XU K / h 9 / !.^.G.Q.J.b.^ y < d g ^ ^ ^ Q Q / / Q / / / Q Q Q ^ ! ^ ^ ^ Q / Q Q ! W W ^ ! ^ 6.^ ^ ^ 8 h ^ ^ ^ h ^ ^ ^ ! ^ ^ R R / ^ h c c z h g < # # : J ' J h ^ ^ ^ g 1 1 d q @ + < < g x f.g ; ",
"g g g g g g g g h h h h h g g g g g g g g g g g r g ! ~ ~ R g g g g g h g g g g h R E ` ` E h g g g g h h h g h h h h h h h R R R ! ! ! ! ! E ~ [ *.}.7X$X>.E ! ! E E E ~ E Q Q / / E ` *..X.X*.( ~ ~ ` ` ~ E ~ ` ` ] [ [ ' 9.[ _ ( ` ] ] ] / Q E / ] ] ] ] ] ] ] ] ] [ [ ] ~ E ~ ` ] ] ` ] 9.] ] [ [ 8.[ [ [ 9.9./ ! g h ! [ w.w.&.[ [ w.9.] ` ` ] [ ] [ 9.9.] ` Q R Q / ~ ] 9.9.] ] ] ` ! h R ( M.[ ' [ h.h.[ 9.9.9.w.9.9.[ ] ] ] [ ] ` E V N.KXPXGXGXBXL.V.z.c.D.z.^ ! ] 8.[ 9.9.9.[ [ h.[ h.9.[ 9.[ [ [ [ [ 8.8.[ [ [ ~ / g.g.` / / ` 8.h.8.` ` ` h.h.h.9.[ / E h 8 h ^ h : 8 / h.h.9.[ [ 9.9.9.[ ] [ [ 9.h.] ] 9.m.9.] [ ] ] ] 9.m.h.[ 9.9.[ 9.m.[ [ [ [ 9.h.h.[ [ 9.] h - g / / ] [ ] [ ] [ 8.[ ` ~ ` 8.8.h.8.~ ` ~ ~ [ 8.8.] ] / / ! ! ! R ^ ^ W W W 6.! p > @ = N [.1XI J R a h G.JXCXJ.A.z.a.l s & y g 6./ Q / ` 8.Q / Q / / Q / ^ ^ ! ^ Q ^ Q / ! ^ ^ ^ W ^ ! ^ / ^ h h 8 h ^ ! ^ R ^ ^ ^ R ^ ^ h ^ s.^ h ^ c h p y & o o - J ' E ^ ^ R h h e : : 1 < & $ $ > c f.5.1 ",
"g g g g g g g g h h h h g h g g g g g g g g g g r h E ` ` R g g g g g g g g g g h h E ` ` E h g g g g h h h h h h h h h h h R R R R R ! ! ! E ~ [ &.{.7X3Xy.( ! E E E ! ~ E Q / ~ ` E ' u.@X}.$.( ~ ` ` ` ~ E / ` ] ] [ [ ' [ [ ( ` ] ] ] / / Q ] ] ` / ` ` ] ` ] ] ] 9.9.] ~ E E ` ' [ ] ] 9.] [ [ [ 8.[ [ [ 9.9./ ! h h E [ w.w.w.&.[ [ [ ` ` ] ] [ [ m.m.h.] ~ R a ! Q / 9.h.9.8.8.` ` R 9 9 ( [ m.m.[ 9.] ] [ w.w.m.9.9.9.[ [ ] ] ] [ ` V C.GXLXZXAXCXV.^ ^ 2.b.c.W Q [ h.9.[ [ ] ] ] [ ] [ [ h.[ [ [ [ [ ] ` [ 8.] / / / g.g.` / ` 8.8.g.8.] ` ` [ 9.h.` ] ` E 8 1 ^ s.h g p ^ [ [ [ 9.9.9.[ [ h.9.m.9.` ] ] [ 9.h.9.h.[ E ] 9.9.[ 9.h.9.m.h.h.9.] ] [ [ 9.h.h.[ h.k.g.g : W ] ` 8.h.[ ] ] ] ` [ ] ` 8.8.8.h.h.` ` ` [ 9.9.h.h.8.] ` E E ! 9 a h R W h h g > $ ; : B @X1XI V J R / !.JXCXG.1.w < & @ # > h 6.] ] ] ] [ / / / / Q / Q ! ^ ^ ! Q Q / / ! ^ ^ ^ R ^ ^ ^ ^ ! h 8 h ^ ^ ^ ^ ^ ! ^ / R ^ h h ^ / ^ ^ a.h h z d & o o - V ' ~ ^ ^ R R h e 1 g g 1 $ $ $ = c n.v.h ",
"g g g g g g g g g h h g g g g g g g g g g g g g r h E ` ` E h g g g g g g g g g g h ! ~ ~ R a g g g g g g h h h h h h h h h R ! R R R ! ! ! E ~ [ &.,.3X3Xi._ R ! E E ! ~ E Q / ~ ` E ' i.@X{.$.( ~ ~ ` ` ~ E / ~ ] ] [ [ ' ' [ ` ] [ ] ] Q E E ] / / / ` [ ] ` ] ] [ 9.9.` ~ R E ` ' [ ] ] 9.] [ [ [ 8.[ [ [ 9.9./ z g h ! [ [ &.e.w.[ [ [ ( ( [ [ 9.9.9.h.h.[ ` E a R Q ] 8.9.[ 8.[ ` / R 8 9 E w.M.[ ] ] ] ] [ w.w.w.[ [ 9.9.9.9.h.9.[ ] E N.GXGXBXCXmXk.^ ^ k s.j.^ E ] h.9.9.9.[ ] ] ] ] ] [ h.9.[ [ [ [ [ [ 8.h.8.] / ` 8.] / ` ` 9.h.[ ` ` ` 8.] [ 8.~ ~ 8.! p 8 ^ g.^ g p ! [ [ 9.9.9.9.h.h.h.[ m.9.( [ m.h.m.m.[ h.[ E [ 9.9.m.m.9.m.m.m.h.[ ] [ [ 9.m.h.[ 9.h.h.Q 8 r / 8.9.9.h.] 9.8.] ] ` ` 8.h.8.8.h.8.E ] 9.h.9.] h.h.[ ` [ ` E / R R R r h k c 8 > $ ; 1 I $X}.K E R R / !.NXF.A.k ; @ o + # ; z 6.] ] 3.[ ] ] / / Q ! Q ! ! ! ^ ! ^ / / Q ! ^ ^ ^ ^ 2.^ ^ ^ h h a ! ! ^ 6.^ ^ ! ^ / ! R h R ^ ^ W ^ ^ h h z y & # O - K ' R ^ ^ ! ^ k e g h g > ; & $ = u d.d.z ",
"h h g g g g g g g g g g g g g g g g g g g g g g r R E ` ` E h g g g g g g g g g g g R ! E R h g g a g g h g h h h h h h R R R ! R R R ! ! ! E ~ ] ' ;.2X3X{.) E ! E E ! E E Q Q ~ ` ~ $.{.@Xi.' E ~ ~ ` ~ E E / ~ ] ] [ [ ' [ [ ` ] / ` ] ~ E E / ] ` / ` [ ] ` ] ] [ 9.8.` E R ~ ] ' ] ] ] 9.] [ [ [ ] [ [ [ [ 8./ h g g R ] [ &.w.w.[ [ ] ( ] [ [ 9.w.[ 9.h.9.[ Q R R ^ ] [ [ [ 9.] ` / h r r E w.[ [ [ [ ] ] [ w.w.[ [ [ [ 9.h.9.h.9.[ ` E 3.ZXZXmXbXV.W h c g s.j.^ Q [ h.[ [ [ [ ] ] ] [ ] [ h.h.[ ] [ [ ` [ 9.9.8.` / ] ] / / ` ` [ 9.` ` ` ] 8.[ ] 8.` ] g.! g h / g.^ u p ^ 9.w.m.h.9.9.h.m.h.[ [ 9.[ [ m.m.m.m.9.h.] ] h.h.m.m.9.9.m.m.9.h.h.] [ 9.h.m.h.9.] 9.g.h 8 g Q 9.9.9.9.9.h.h.~ ` [ [ h.h.8.8.h.] E ] 9.k.h.] h.h.8.] 8.[ ~ / 8.8./ R R ^ h g 1 $ $ - T qX].K E a J R Q.NXF.j.1 @ @ + % # > z 6.] ] ] ] / / / Q Q Q s./ ! R ^ ^ ^ / / Q Q ^ ^ ^ s.2.^ ^ ! a R ! ^ R ^ / ^ ! ! ^ / / ! ^ ^ ^ ^ R h g h h g 1 & o O 2 E ` E ^ / ! ! h e g g g 1 d & + O = g d.d.",
"g g h g g g g g g g g g g g g g g g g g g g g g g ! ` ' ` E g g g g g g g g g g g g h R R R h h g h R ^ R h h h h z h R h R R R R R R ! ! ! ! ~ ` ' %.OX7X<X&.E E ~ ! R ! E ~ Q ~ ~ E $.}.@Xy.` ~ E ~ ~ E E ~ / ~ ` [ [ [ e.&.' ] ] / ` ` ] ~ ~ Q / / ` ` ` ] ] ] ] ] 8.[ ~ R R ` 8.[ [ ] [ 9.9.[ [ 9.] [ 9.[ 9.[ Q h 8 9 R ] &.w.w.w.9.[ ] ] h.9.[ w.m.[ [ 9.9.h.` ! R Q ] [ h.h.9.[ ] ~ h 8 r ( &.' [ [ ` [ [ ` 9.w.[ [ 9.[ [ 9.9.[ [ [ ] E ] BXAXT.L.3.r h c a.b.b.^ / 9.m.h.[ [ [ [ [ [ [ [ [ [ h.[ ] [ ] ] [ [ ` [ 8.] g.] ~ ` 8.` 9.[ [ [ [ 9.] ] [ 8.8.8.8.! 9 R 8.h.^ u 1 ! [ m.m.m.h.9.9.h.9.[ 9.[ [ [ [ 9.m.M.h.[ ` ] h.w.w.[ [ 9.[ [ 9.m.m.[ [ [ h.m.h.[ ] h.g.8 9 ! ] 9.] [ h.h.9.] [ 8.8.` 8.8.] ` 8.8.` 8.[ ` ] h.h.] 8.] / ~ / 8.g.g.] / 2.2.h g < ; < 6 U eX:.J R J J J J.CXF.s.j < & + o & < ^ 8.] Q / / / / g.^ / Q s./ / ! ! / ^ / Q Q Q ^ ^ R 2./ ^ ! h 9 ! ! ^ / / ! ! ! R h ^ ^ R ^ ^ ^ / ^ h h k z g d & o O 2 ` ` E 6./ ! h 8 e g g 1 1 s & & & $ > c a.",
"g g h h g g g g g g g g g g g g g g g g g g g g h ! ~ ' ` E g g g g g g g g g g g g h R h h z h g R s.j.s.^ h h h z h h h h h h R R R ! ! ! ! ~ ` ' @.}.3X1X*.E E E R R ! E / / ~ ~ ( ;.@X@X>.( E E ~ ~ E E E / / ] [ [ &.B.&.' ] ] / ` ` ] ` ~ Q / / / ` ] ] ] ` ` ` ] / E R E ` 9.[ ] ] [ 8.9.[ [ [ [ [ h.[ [ ] ! g 8 a ! [ w.w.w.[ [ ] ] [ 9.[ w.w.w.[ [ [ 9.h.8.! R E ] 8.h.h.9.[ ' ` R 9 r ` w.[ [ [ ` [ [ ` [ 9.w.[ [ 9.9.9.9.[ 9.9.9.E Q NXZXY.S.j.k g c f.n.n.^ E [ h.h.[ h.h.[ [ [ [ [ [ [ h.[ ] ] ] ] 9.9.8.9.8.] 8.g.~ ` 9.[ ] ] 8.[ h.h.] 8.h.9.8.8.g.R 9 Q [ h.Q p 1 h [ m.m.9.[ 9.m.[ [ [ 9.[ [ [ 9.m.9.m.h.h.] E [ [ w.w.[ 9.m.m.9.m.h.[ [ 9.h.9.] [ h.8.^ 8 h / g.8.9.] ] h.h.9.h.8.[ ` ` ` [ ` [ [ ` ` ` ` ` h.h.] 8.` ~ / 8.8.] ` g.g.g.6.g 1 1 < ; 7 ..eXo.V R E E R A.!.D.j.n ; d s & s g s.8.] / Q / s./ / Q / Q 6./ Q R ^ ^ ^ ^ ! Q Q / / ^ / 2.^ g h h ! ^ / / ! ! R ! ^ ! ! ! ^ ^ ^ ^ / W g h c z l d # o O 6 ' ] E / ^ ! R g g g 8 1 1 < < & + O O d c ",
"h g g g g g g g g g g g g g g g g g g g g g g g h R ~ ' ` E g g g g g g g g g g g g h h h h h a h / z.G.z./ h h h z h R R R R R R R R ! ! ! ! E ` ` +.{.3XOX>.( E E ! R ! E ~ / ~ ~ ) y.@X}.*.` / E ~ ~ E E ~ / / ] ` [ w.u.*.' ` ] / / ` ` ] / / Q Q / ` ] ] ] ] ` ] ` / R J E ` ] ] ' ] [ 8.[ [ [ [ [ [ 9.[ [ ` h 8 8 g E [ w.&.[ [ _ ` [ [ 9.[ w.w.w.9.[ [ [ h.h.~ R E [ 9.9.9.[ ] ' ` ! 9 ! [ w.w.&.m.[ 9.[ ] 9.h.[ [ [ [ h.h.[ ] [ 9.] E F F.NXmXY.z.c h f.n.x.s.g ! 8.h.9.[ [ 3.[ [ [ [ [ [ [ [ ] [ [ ] [ 9.9.[ 8.8.` / 8.` ] h.9.] [ [ ] h.h.9.h.h.h.h.8.^ 9 9 8.9.h./ g 1 g ] m.w.9.[ [ [ [ [ [ ] [ [ [ h.m.9.[ [ [ [ [ [ [ w.m.[ 9.M.m.h.9.[ [ [ h.h.] ] h.9./ g 8 / 8.8.[ [ 9.8.] [ 8.` ` 8.h.] ` 8.[ ` ` ~ ~ ` ` [ h.] / E E / / / / ] ] ] ] g./ g p d < = 7 ..eXo.V ! ~ R R k.Y.n.x.a.d x f s < u ^ 8.] / Q 2.2./ Q / / / 6./ R R ^ ^ R R Q Q Q / / / W ^ h g h R / / ! / ! ^ h ^ ^ ^ ^ ! ^ ^ ^ ^ ^ h g k c h l y % o O 7 ' ] Q ! ^ ^ R g e e g 1 1 < < @ o + $ 1 g ",
"h g g g g g g g g g g g g g g g g g g g g g g g h R E ` ` R h g g g g g g g g g g g g h h h h a ! g.S.Y.A.g.! h h h z R R R R R R R R R ! ! ! E ~ ' $.y.$XOX,.) E E ! ! Q Q E E E ~ +.{.@X{.$.] / E ~ ~ E E ~ / / ~ ( [ e.u.u.$._ ] / / ` ` ` / / Q Q / / ` ] 8.` ` ` ` / R J E ' ] ` ` ] ] [ [ [ [ [ [ [ 9.[ [ ` R 8 8 h E [ &.[ ' _ ' [ [ [ w.&.&.w.w.9.[ [ [ h.9./ R E [ 9.[ 9.] ` ] ] ! h E [ w.w.[ [ 9.9.[ [ h.9.] ] [ [ 9.h.9.] [ ] ` ! h / Y.mXF.c.a.d.n.n.^ h r ^ [ h.[ [ 3.h.[ [ [ [ [ 3.[ [ [ [ ] ] [ [ 9.8.] / / E / 8.g.9.h.g.] ` ` [ 9.h.9.9.h.g./ h 8 ! g.9.h./ h 1 8 / h.&.[ [ [ 9.9.h.[ [ h.[ h.h.[ [ ] [ ] ] h.[ m.9.[ [ 9.m.m.h.9.[ [ [ m.9.] 9.h.[ / 8 8 ] 9.[ ] h.9.] ] 8.8.` 8.8.h.` ` h.[ [ ] E E 8.] [ h.` E E / ] ] / g.8.] / ] [ / g z u ; = 7 | eXo.K ! E J R g.A.^ c n c j s & $ 1 ^ / ] / Q / 6./ ! / / / / Q W R ^ Q R ! / / Q Q / / h h h R h ^ / / R / ^ ^ h ^ ^ ^ ^ ^ ^ ! R ^ W h h h h h l < % o O 7 [ ] Q R ! ! R r e g g w d u ; $ + & $ y u ",
"h h g g g g g j j j g g g g g g g g g g g g g g g h ! ~ E R h g g g g g g g g g g g g h h h R h ! k.J.Q.S.g.! R h h ! R R R R R R R R R ! ! ! Q ~ ' $.,.@X2X_.) E ^ ! ! Q E ! ! ! E @.}.@X,.' ` ~ E ~ ~ ~ ~ ~ / ~ ~ ( [ 0.i.i.$.( ` / ~ ~ ` ] / / Q Q / / ` ` 8.8.8.] ` / R K ` 9.' ' ' ] ] ` [ ] [ [ [ [ 9.[ [ ` R g g h E [ [ ' _ ` [ w.w.w.[ [ w.w.[ [ [ [ 9.h.9.` E E [ 9.[ 9.` ` ] ` R a E [ 0.&.[ [ m.[ ] [ 9.[ ` ] ] [ [ [ 9.] 9.] ~ ! h r j.A./ 6.^ ^ n.l.k g r ^ ] [ ] [ 9.h.[ [ [ [ 3.3.[ ] [ ] ] [ [ 9.9.h.8./ / E ~ 8.h.9.8.] / 8.[ 8.9.9.] [ 8.` ! 9 8 / 9.9.h.^ h , 1 ^ h.w.w.9.h.h.9.h.h.9.[ [ h.h.] [ [ [ / ] 3.[ h.[ [ 9.h.9.9.[ [ [ h.h.9.9.9.[ 9.8.^ 8 h ] 9.[ / g.9.] ` 8.8.] [ ` ` [ h.h.] 8.` ~ / [ [ [ 8.] ] ` ` ` ] ] g.8.] ] [ [ E h z u < = 7 X.wXo.E E J J ! z.z.= < c a.d $ & $ 1 / / ] / / / 6./ R / Q / / Q / ! Q / ! Q Q / / / / ^ R g h ^ h / ! ! ! 6.^ ! ^ ^ ^ ^ ^ R ! h h ^ ^ W c h h z l < o . O N ' ] ! ^ ^ ! h g e e e g j d < > ; $ ; 1 1 ",
"h h g g g g g g g g g g g g g g g g g g g g g g g h R E E R h h g g g g g g g g g g h h h h R R / N.Q.!.F.3.R R h h h R R R R R R R R R ! ! ! Q ~ [ $.;.OX3X}.) E ^ ^ ! Q ! R R R E ;.OXOX>.) ~ E E ~ ~ ~ E E E E ~ ] [ $.i.p.%.( ` ~ ~ ~ ` ] ` / / Q ~ / ` ` 8.8.8.` / E J K ' 7.[ [ ] ] ] ] ] ] [ [ [ [ 9.[ [ ` R g g h E ] [ ] [ [ [ w.w.w.&.[ w.w.' [ [ w.9.m.9.` E ~ ] ] [ 8./ ~ ] ` R 9 E [ 0.[ [ [ 9.] ] ] ] ] ] ] ] ] ] [ ] ` 9.] ~ ^ r h 2./ J h h s.l.1.k h h ^ g.] ] [ [ [ [ [ [ [ 3.3.[ ] [ [ [ [ 9.9.h.h.] / E E ` g.h.9.` ` / ] [ 9.9.9.] [ 8./ R 8 e 6.9.m.h.Q h , 1 ^ [ w.w.9.9.[ [ 9.m.[ ` [ 9.9.m.[ [ ] E ] [ [ 9.9.[ 9.h.[ [ [ [ [ h.9.9.9.h.h.[ / h r ^ ] 9.[ / / h.9.] 8.8.` ] / ` h.h.8.` 8.8.` 8.[ ] ] ] ] [ 8.] E ] ` [ [ [ ] [ [ ~ ! z g 1 - N  .wXO.( ~ J a a j.j.= ; x x = O q ; g s.] ] ] ] / 6.E R Q / / / / / ! ^ / ^ Q E / / / ^ h R h h ^ ^ ^ ! ^ / / R h ^ ^ ^ ^ h g h h ! 6.^ R c h k x d ; o . $ J ' E ! ^ ^ ^ h e w e 8 g h h u 1 ; < d 1 : ",
"h g g g g g g j g g g g g g g g g g g g g g g h g h R R R ! R h g g g g g g g g g h g h h h h ! g.S.!.!.F.g.R R R h h R R R R R R R R R ! ! ! E ` ' ' *.OX$X}.+.R ^ / ! ! R h h h E >.OX}.%.' ` ~ Q ~ ~ E E Q E ~ ` ] [ $.y.p.*.' ( / / / ~ / ` ] ` ~ ~ / / ` ` ` ` / ~ E K ' w.w.[ ' ] ] ] ] ] ] [ [ [ ] [ [ 9./ h g p R E ] [ [ [ [ &.w.w.w.w.[ w.w.[ [ [ [ 9.9.9.~ E ~ ] [ [ [ ` ] 8./ R 9 E 7.w.&.[ [ [ [ ] ` ] ] [ ] ] ] ] ] ] ` 9.7.] Q h h s./ ~ / ^ b.b.d.1.r k / ] ] [ [ h.h.[ [ [ [ [ [ [ [ [ [ [ [ [ 8.h.h.` E ! E [ 9.9.8./ 8.8.` ` 9.[ [ ] [ h.] R 8 h g.9.h.3.R g : 1 ^ ] w.[ m.m.[ [ [ 9.9.[ [ 9.9.m.[ 9.] ] ] ( 9.h.m.9.[ [ ] ] [ [ [ w.h.h.3.] h.h./ r h / 9.9.] ` 8.[ [ 9.9.9.8./ ] ` 9.8.] ] [ 8.8.8.9.] ` ] ] ] [ ] ` ` [ 8.g.g.E ] ] ` / ! h 1 - 3 U eX_.( E J a 6 ^ s.: O g g = & < < c g./ / ] ] / / Q ^ Q / / 8./ Q ! ^ / / / / 6./ / ! h h R ^ s.6.! ^ 6.^ R R h ^ ^ ^ h h g h ^ ^ 6.^ ^ h g h g u < o o ; J ' E E / ^ ! h 1 1 h h g h h g 1 : p l 1 p ",
"g g g g g g g g g g g g g g g g g g g g g g g h h h h h R ! ! h g g g g g g g g g g g g h g h ! g.S.Q.Q.A.g.R h h h R h h h R R R R R ! ! ! ! E ` ` ' $.[.*X@X+.G ! ! ! h h h a a ( ,.}.{.$.' ' / / / E Q Q E ~ ` ] [ [ &.u.p.u.$._ / / Q Q ~ ` ] ` ` ` / E ~ ` / / 6.E K I e.e.&.] ~ ` ] [ ] ] ] ] [ [ ] ] [ 9./ h g 8 R ( [ [ &.&.w.w.w.0.&.&.[ w.m.[ [ [ [ 9.9.[ ~ R ~ 9.7.[ [ ] ] 8./ h 9 E w.w.w.[ ' ] ` ] ] ] [ [ [ ] ] ] ] ] ] [ w.[ ` ! h R R w.M.j.b.b.l.1.r R / 8.h.[ ] ] 3.[ [ [ [ ] ` ] h.[ [ h.[ ` ] [ g./ Q ! ~ ] 9.9.] / / 8.] 9.h.g.] [ h.9.8.! 9 R g.h.h.g.R g 8 g ^ 9.w.w.m.m.[ [ [ [ [ [ [ [ [ 9.9.h.] ( ] ] m.[ [ m.9.] [ 9.[ [ [ &.9.[ [ ] 9.8.^ 8 ^ g.h.[ [ 9.9.9.h.9.9.9./ E ` 8.9.8.8.[ 8.] / ~ ] [ ] ` ` ` ~ ~ [ 8.h.h.8./ ] ] ] ] s.^ z 1 = 2 U eX}.( L ~ h 2 ^ c.z q f.a.g < ; w h g./ / 8./ / / / / / / / 8./ ^ ^ / 6.6./ ! / / / R h R ^ ^ / ! ! / / ! ^ ^ h ^ ^ ^ R h h ^ ^ ^ ^ h R g g k j y < o + : V ' E / Q ^ ^ a 1 1 h h g h g g g 8 g h g g ",
"g g g g g g g g g g g g g g g g g g g g g g g h h h h h R ! ! R g g g g g g g g g g g g g g h R s.A.J.F.k./ h h h h h h h h R R R R R ! ! ! ! Q Q ` ` $.{.$X.X+.E ! R R R R E E C U _.OX{.$.` ` / / E E Q E E ~ ` ] [ [ &.u.u.e.' ( / / Q Q Q ~ ] ` ~ / Q ~ / / E Q / E K Y e.e.[ ` ~ 8.8.[ ' ' ] ] [ [ ] ] [ 9./ h g 8 R ( [ &.&.&.w.w.w.w.&.[ [ m.m.[ [ [ [ 9.9.[ / R E 9.w.[ [ ] ` 8./ R 9 ~ &.w.9.[ [ ] ] 8.] ] ] ] 9.[ ] ] ` ~ ] 9.w.[ ` R h 8 J M.Z.c.j.d.x.1.h R / 8.9.[ ` ] [ [ [ [ [ ] ] ] [ [ [ [ [ / Q / / / Q Q ] ] ] 9.g.8.~ 8.9.9.9.3.] [ h.] / ! 6 E h.m.h.` ! h g w R 9.w.m.m.9.[ [ [ ] ` [ [ 9.[ 9.h.h.] ( ] h.m.[ 9.m.h.[ h.m.9.[ [ [ [ ] ] ] 9.g.h r / g.8.9.9.9.` [ M.h.[ ] / ~ [ h.9.8.8.8.h.[ / ~ ~ 8.8.] ` ` ` [ ] 8.8.8./ Q ] ] ] ] / ^ g : = 2 U wX@XU K ~ R 9 E S.^ ^ n.f.g < q 1 g / ] / / 8./ Q / / / / / g./ ^ ^ / / Q R R / / ! h h ^ ^ ^ / ^ / / ^ ! ! ! ^ ^ R ! ! R ^ ^ ^ ^ h h h g h h l d < # + - K ' Q / ! ! z i g g h g h h g g g g z z h h ",
"g g g g g g g g g g g g g g g g g g g g g g g h h h h h h ! ! h g g g g g g g g g g g g g g p h / g.V.V.3.R h h h h z h h h R R R R R R ! ! ! W W / ` ' y..X X$.E ! R J ( $.*.>.;.=.OX+X{.' ~ / / Q E E E E E ~ ` ] [ [ &.*.e.0.[ ` ` / Q Q E / ] ` / / / / / / E Q / E E ' u.e.' ` ] 8.9.[ [ ] ] ] [ [ ] ] [ 9.Q g 8 8 R ( [ &.&.&.w.w.w.w.w.&.&.w.w.[ [ [ ] 9.9.] / R ~ 9.9.[ [ ] ] 8.~ h 9 ~ &.w.9.[ [ ] ` ] ] ] ] [ 9.] ] ] ] ] ] 9.[ ] ~ R g 8 h e.B.] / x.b.s.h ^ / ` [ ] [ [ [ [ [ [ [ ] ] / ] [ [ 9.[ ` ~ 8.] / Q g.] ] [ ] g.8.` 9.9.] ] [ [ [ ` / / p 8 / 9.9.] ~ / h g 1 h ] [ w.9.[ [ h.9.] ] [ 9.m.m.m.h.h.] ` ] h.[ [ 9.h.[ [ [ h.h.[ [ 9.[ ] [ 9.h./ 9 h Q k.[ ] 9.h.` [ h.h.] ] ] ] [ 8.] ] ] ] ] ` / / ` ] ` ] ] 8.[ 8.g.[ ` ` ] / ] [ [ ] ^ ^ g : = - I wX$XU K R 9 9 / 8.h g s.n.a.d d 1 R E ] / / g.Q ! / / / / / ] / ! ! ^ ^ Q R / / / ^ R ^ ^ ! ! ^ ^ ^ ! 6.^ h ^ ! h R / ! ! ^ R ^ ^ ^ h h h h g j y & + O 1 ' ' E Q / h a p g g h h g h g 8 h h c h g z ",
"g g g g g g g g g g g g g g g g g g g g g g g h h h g g h R ! R h g g g g g g g g g g g g g p g R / g.g.Q h g h h h h h h h R R R R R R ! ! ! ! W / ` ' t. X<Xu.( R J Y ;.}.+X*X*X+X%X+X{.) E Q E Q E E E E E ~ ` ] [ [ [ &.&.&.[ ' ` / Q Q E / / / / Q / / / / / / / E ` w.e.e.' ` ` ] ] [ [ ] ] ] ] [ ] [ [ ] ! g 8 8 R ` [ &.&.0.0.0.e.&.w.&.&.&.[ [ 9.] ] 9.9.` E R / 9.9.[ [ [ 9.8.~ h 9 E w.w.w.[ ` ] ] ` ] ] ] 9.] ] ] ] ] ] 9.[ ] ] ~ ! g 8 9 q.%.C ^ b.b.^ h ^ / ] ` ] [ ] ` ] 8.9.9.[ ] ` [ 8.h.h.8.` / 8.g./ E ] ` 9.9.] ` ` 8.9.] ` ] [ h.] ` / ^ g 8 / ` ` E R ^ h g 1 h ` w.[ [ [ 9.h.[ ] ` [ [ 9.m.m.9.h.] ] [ 9.9.[ [ [ [ 9.9.9.9.h.h.3.[ h.h.h.h.^ : h Q g.] ` [ h.8.[ 8.9.] ] ` ] ] [ [ 8.] E ] ` ~ 8.] ` ` [ 8.[ ] ] h.8.` ] ] ] ] h.] / ^ c h 1 < 2 S rX7XS J a 9 J g.z : = c W.n.c d g ! Q 8./ / / Q ^ ^ / / 8.8.Q Q ! R ! ! / / / / / 6.! ^ ! ^ ! ^ ^ ! / 6.! R ^ h h ! / R ! ^ ^ 6.! ^ ^ h z h g j < $ # O 4 0.$.E R ^ h h l g g k h h h g g h h h h g ^ ",
"g g g g g g g g g g g g g g g g g g g g g g g h h h g g g R ! R h g g g g g g g g g g g g g h h R W / / R h h h h h h h h R R R R R R R ! ! ! ! E / ` _ %.{.@X{.+.K T y.oX;X:X:X:X:X;X*X(.) E ] ~ ~ E E ! ! E ~ ~ ] [ [ [ ' ' ' [ ' ` / / E E ~ / / / E Q / / ~ ` / E E ` w.e.$.' ] [ 8.] ] ] ] ] ] ] [ ] [ [ ] R 8 1 8 h ` [ 0.0.0.e.e.e.e.w.w.&.[ [ [ [ [ ] 9.9.] / R / 9.9.[ [ [ 9.8.~ a 9 E &.w.9.[ ` ` ] ` ] ] ] 9.] ] ] ` ] ] 9.[ ] / E R g 1 9 +.;.) ! s.s.h g ^ ] ] ] ` ` ` / ` [ 9.8.8.[ [ [ 9.9.8.] ` ` ` / E R ~ ` 8.8.8./ ~ ] [ ] ] [ [ [ ` 8.^ h d 1 ^ ! ! h g g h j d h ] m.[ 9.[ [ [ ] ] ` ] [ 9.9.h.[ [ ( ] ] [ 9.] ` [ [ 9.m.9.[ h.3.] ] h.h.9.] k : R ] ` ] ] ] 8.` ` 8.h.9.] ` ` 8.[ [ 8.` ~ ] ] [ h.` ~ [ 8.h.8.[ [ 8.] ` ` ] ` 3.[ / / W h h ; = 8 Z wX*XS R a a a 8 $ + @ j n.a.l d 1 ^ / ] Q Q / Q / ^ / 6.8.8.E / ^ ! W Q / / ~ Q / / R ^ ^ ^ / 6.^ ! 6.^ R R ^ h R ^ ^ R R ^ ^ ^ h h ^ h h h g j < $ o = 5 B.$.E h h h ! z g g h z h g g h c h z h h z ",
"g g g g g g g g g g g g g g g g g g g g g g g h h h g g g R ! R h g g g g g g g g g g g g g h c ^ W ! R h h h c h g h h h R R R R R R R ! ! ! R E ` ` ( &.{.OXOX:.| y.qX;X:X:X:X:X,X:X=X_.) E ` ~ ~ E E ! ! ! ~ ` ` ] [ [ ' ' ` ] ] ` / / E E ~ / / / E / / / ~ ` / E K I ' e.&.' [ [ ] ] ] ] ] ] ] ] [ ] [ 9.` R 8 1 8 h ] [ 0.0.0.e.e.e.&.&.M.w.' ' w.[ [ [ [ ] 8./ R E 9.9.[ [ [ 9.8.E a 9 E [ w.[ ] ] ` ` ] ] ] ] ] 9.[ ` ] ` ` 8.9.[ / E R g 8 h %.i.e.8.^ h g 9 ! / / ~ ] [ ] ] ` ] 9.9.8.8.[ ] [ ] ] ` ` h.8.E J E ~ ` ` ` 8.~ E 9.] ] [ [ ( E ` ! h g < 1 k h g r r 1 1 d 1 h g.[ [ [ [ [ [ h.] ] [ 9.h.9.h.[ ` E ] ] 9.] [ [ [ [ 9.m.9.[ h.] Q / ] h.9./ k : E / ` h.8.] ] ] h.9.` ` ] ] [ h.[ ` [ h.h.] [ h.[ ` ` ] ] h.h.` ` / g.g.[ ~ ` ] Q / / r ^ h ; ; 8 B oX$XU E E J 6 = O o < f.v.5.l ; 8 ! E ` Q / R ^ s./ / / / 8.Q / / Q Q Q / E / / / ^ R 6.^ R ^ ^ ^ R / R R ! ^ / ^ / / Q h R ^ ! h ^ ^ g h h g j y & # = C 5X$.R h g h z z h g h ^ g 8 g z z h c g g h ",
"j g g g g g g g g g g g g g g g g g g g g g g h h h g g g h R R h g g g g g g g g g g g g g h h h R R h h h h h h h h h h R R R R ! ! ! ! ! ! R R E / ] $.(.*X%X`.).%X,X:X&X+XXXXX*X;X=X}.+.~ ` / ~ E E E E E ~ / ` ] [ [ [ ' ' ` ` ] ~ E / / ` / R E E Q Q / / ` / E E ` ' ' [ ' ` ` ( ] ] ` ` ` 8.[ [ 9.9.] E h p 8 8 a E ' $.&.&.0.e.e.w.&.m.w.[ [ [ [ [ [ h.h.] ! R E 8.[ [ [ [ 9.8.~ 9 9 E [ [ ] ] [ ] ` ] [ ` ] ] [ [ [ 8.] ~ / ] 8.Q R R R h 9 U p.u.9.6.W g g ^ Q / ] ] ` ` ` ] [ 8.8.8.8.] ] [ 9.` ` 9.` / E R E / 8.8.~ ` ` / [ [ [ ` ~ ~ ~ ~ ! h : = < h g g h g 8 p d : 1 Q 9.[ [ [ 9.9.[ ] 9.h.9.9.9.] ( ] ( ` 9.[ [ [ [ h.h.9.9.' [ 9.] ] ] ] 9.8./ g h ] h.h.9.[ ] h.8.] ] ` ~ ` 9.h.[ 8.9.8.9.8.] 8.9.] 8.] ` 9.h.~ ` ` ] [ [ [ ] ] / / / ^ g g 8 1 ; - B `.*X;.Y ` a 9 6 h z ^ j.d.5.g < 1 ! / E / E / / 6./ Q / / / / ^ W R ^ / / ~ / / Q 6.^ ^ R ! ^ h R R ! R ^ ^ ! R h ! ^ ^ h R h ^ ^ ^ ^ R ^ 8 g 1 ; $ + - S B.' ! h R ! z p 8 h h h z h h h g h h 8 h ^ ",
"g g g g g g g g g g g g g g g g g g g g g g g h h g g g g h R R h g g g g g g g g g g g g g h h h R R h h h z h h h h h h R R R R ! ! ! R ! ! ! R ! / ] ' i.*X;X&X%X;X:X%X).:.;.>.(.%X%X[.+.~ ~ ~ ~ E E E E E E / ` ] [ [ [ ' ] ` E E ~ E / / ` / E E E Q Q / / / / ! E ` ' [ [ ' ` ] ` ] ] ` ` ] 8.8.] [ 9.[ ! 9 p 8 8 a E [ [ &.&.0.w.w.w.w.m.&.[ [ [ [ 9.[ 9.9.` R R E 9.9.[ [ [ 9.8.E h 9 E 9.[ ` ] [ ] ` ] ] ` [ [ [ ] ] 9.] ~ E ` ` ! R Q E R 9 U y.y.w.k.s.R h Q / / ` ` ` [ 8.] ] 8.8.8.8.8.` ] 8.] ` 8./ Q R R E ~ 8.8./ ` / E ] ` / / 8.] ` 6.! g 1 : 8 R k.F.b.s.8 p u = 1 ! 9.[ 9.h.h.9.[ ] [ h.9.9.h.[ ] ] ( ] 9.[ m.[ [ m.m.[ [ [ 9.h.h.] ` ` ` 8.R : h ` 9.8.] 8.9.h.] [ [ ~ ~ ` ` ` ` h.h.8.[ ] ` ` h.] E ] [ ] g.` ] ` 8.` ` [ 8.] E ] / ^ g 8 g g : - Z oXrXi.' ` V J R g.8.L ^ ^ h 1 1 g / ] E / / / / ! ^ / / ! ! ^ h h ^ ^ ^ Q Q / ! ! / / ^ h h ^ R ^ ^ / / / ! h h R ! ! R h h ! ^ h h ^ h g g g u ; + & - +.B.' ! h ! ^ g 8 8 h z z h h h g h h h g ^ ^ ",
"g g g g g g g g g g g g g g g g g g g g g g g h h g g g g h R R h g g g g g g g g g g g g h h h h R R h h h h h h h h h h h R R R R R R R ! R ! R ^ Q ~ ) ;.$X:X:X;X;X=X}.;.&.&.$.;.OXXX_.+.` ~ ~ ~ E E E E E E / ` ` [ [ [ ` [ h.] E E / / / / / E E Q Q / / / / E R J ` ' ] ] ' ` ] ] ] ] ] ] ] 8.] ] ] [ ] R 8 9 a a h E [ [ &.&.0.w.w.e.M.m.w.[ [ [ 9.9.] 9.] ] E R E [ [ [ [ [ 9.9.~ a 9 E 9.[ ] ] ] 9.] ] ] ~ ` ` ] ] 8.9.] ~ ! E E ! ! / E R 9 U i.{.w.k.6./ h R Q / / ` / ~ E E Q / / ] ] 8.] ] 8.8.8.8.8.^ h R / / ` ` / / / E ! Q / / ] 8.g.^ a g 8 8 h V.CXAXNXU.^ 8 , : 8 R ` 8.[ 9.h.h.9.[ [ h.9.[ 9.[ ] [ E ] ] h.m.9.9.h.m.[ [ 9.h.h.9.[ ] 9.9./ 8 9 / ] ] h.8.] 8.] [ 9.] ] ` [ ` ] ` ` ] ] / ~ ] ` 8.] ~ ` ` ~ [ h.9.] ] ] 8.8.8.[ E ] Q ^ g 9 ^ h e 2 Z =XyX{.' ~ 9 9 J 8.6.! 5.h h g j g / E E / Q / ! R Q ! E Q g.j.2.^ ^ ^ ^ ^ / / ! / / / ^ h ^ ^ R ^ ! ! / ! R h R ^ ^ ! ! ^ ! ! R h ! / ^ g h h d ; + & 2 ;.B.( R R ! ^ g 8 h ^ c ^ h h h g h h ! ^ ^ ^ ",
"g g g g g g g g g g g g g g g g g g g g g g g h h g g g g g h R h g g g g g g g g g g g g h h h h R h h h h l h h h h h h R R R R R R R R R R ! R ^ Q ~ ) ;.OX;X;X%X+X}.>.$.[ [ &.*.{.}.{.$.` ~ ~ ~ E E E E E E ~ ] ] [ [ [ h.K.mXQ.N.] / E / / / ~ ~ E Q / / / / ! J R ` ' ` ] ' [ [ ] ] ] ] [ 9.] ] ] ] [ / h 8 a R ! ! / ] [ &.&.&.w.w.w.w.w.w.w.9.[ [ [ ] 9.] ` Q R E ] [ [ [ &.9.9.` a 9 ~ [ [ ] ] ` [ [ ] 8.` ~ ` ` ` ] 9.9.] ! R R E / ] ~ R 9 U i.{.$.8./ / h h E / ~ ~ E E ! Q Q Q E E E / ` ] ] 8.h.g.8.R r R / / ` Q ! ! ! ! h h ! ! E / / g g g 8 9 F.KXLXJXCXQ.j.z p , 1 R ` h.[ [ ] ] ] [ [ 9.[ [ h.9.9.[ ` 9.[ 9.[ [ 9.] ] [ w.m.9.[ 9.h.9.m.h.! 9 R k.9.9.8.] ] ] ] 9.9.9.] ] ] ` ` ] / / / J E ] / h.h.` 8.[ 8.8.8.] ` ` ` ` h.8.8.] ] Q / g h ! p 1 2 S ;XyX;.` R 9 a R ! p z a.h 1 j j r ^ / / E ! / ! ! R / k.Q.U.n.l.d.c h 5.^ ^ ^ / / ^ ^ ! ^ ^ ^ ^ ! R Q / R h h ^ ^ ! ! ^ / ^ h h R ^ ^ h h c h d > $ & m i.B.E R ! h h g r h c z h h ^ ! h h h ^ ^ h h ",
"g g g g g g g g g g g g g g g g g g g g g g g h h g g g g g h R h g g g g g g g g g g g g g g h h R h h h h l h h h h h h h R R R R R R ! ! ! ! R ! ^ E ( @.}.*X+X(.;.*.$.` _ ] [ &.;.{.{.*.` E E ~ E E E E E ! ~ / ] ] [ [ Z.ZXKXAXL.g.Q / / / 8.~ ~ ~ / / / / E ! R E ' ' ] ` ] [ [ [ ] ] ] 9.9.] ] ] [ ` R 8 8 h ~ ! R Q ] [ [ &.&.w.w.w.&.w.w.[ [ [ [ [ ] 9.] / E R Q [ [ [ 9.w.9.9.~ a R ~ [ ' ] ] ` ` ` ] [ ] ` ] ` ` [ 9.[ ` E R h ~ ] 8.~ J 5 T i.{.' ~ / 6.R ! / / / E E Q / / / Q E R R / / / / ` ` ~ / h g R ! ! E ! R R R R h 8 a h R R h 8 g g 8 k.KXPXKXFXCXJ.j.5.p 1 , ^ h.9.[ ] ` ] ] [ h.h.] ] [ [ 9.9.[ h.[ [ [ 9.9.[ [ [ ' 9.9.9.9.[ [ m.[ h 8 ! h.m.9.` / / ] ] ' 9.9.] ] ` ] / / Q ! ! ! / ] ] ] ` E [ h.h.9.[ ] ` ` ` ` h.8.8.] ] Q ^ h h a 8 8 2 P ;X=X+.` ! a 9 h h y u h 8 1 1 1 r ^ / / E E E 6./ / F.!.!.D.z.z.a.h g z ^ ^ / / ^ ! ! ! ^ R ^ ^ ! ! / 6.! R h ^ ! R ! / ^ R h R ^ R h h g h g u $ $ & C }.&.Q R ! R k k h h z ! ! ^ ^ h h ^ ^ ^ h ^ h ",
"g g g g g g g g g g g g g g g g g g g g g g g h h g g g g g h R h g g g g g g g g g g g g g g h h R h h h h l h h h h h h h h h h R R R ! ! ! ! ! ! ! E ( @.{.}.i.@.' ` ' ` ] _ ` &.@.,.y.@.( W W ~ E E E E E E E / ] ] [ m.mXKXLXAXQ.k.E / / ~ 8.` ~ ~ / / ` ` / E R ~ 8.9./ ] ] [ [ [ ] ] ] 9.9.] ` ] 9./ h 8 8 ^ 6.R a ! ` [ [ [ &.w.w.&.&.w.[ ` [ [ [ [ [ 9.` E R R / 9.[ [ [ [ w.9.~ R a ~ [ [ ] ] ` ] ` ] ` ] [ ] ] ` [ 9.9.` ~ R R ~ ] 8.` R 9 U ,.}.$.J R / ^ / / / / / ! ! R ! ! R ! ! R h R ! E ~ E E Q h g ^ ! ! R R R J J V J J V V 9 9 9 1 8 8 R AXUXPXCX!.U.D.c.s.p : 1 R h.h.9.[ ] ] ] ] [ 9.] [ m.9.[ ] ` ] ] [ [ [ [ h.h.9.[ 9.8.9.9.[ [ [ [ r r / 9.9.] ~ ` ] ] ] ] 9.9.9.` ] ] ~ ~ E Q Q ] 8.g./ ~ ] ` [ [ ] ` ] [ ` ] ~ [ h.h.[ ] ] Q ^ R ^ R h r 2 U yX$X&.] ! 8 8 1 1 y 1 p h g g w h Q E / / E E Q 6.!.AX!.U.c.z.a.c x j h ^ 6.6./ ^ ! ! h ^ ! ^ ^ ^ / ^ / ^ ^ h ^ ^ ^ ^ ^ ^ ^ h ^ ^ h ! / h g g < $ + ; U .X&./ ^ R R ^ ^ h h ! z R ^ ^ ^ h R ^ ^ ^ h h ",
"g g g g j g g g g g g g g g g g g g g g g h g g g g g g g g g h h h g g g g g g g g g g g g h h R R h h g g h g z h h h h h h R R R R R R R R R ! E Q E ( %.{.{.*._ E ~ ` ~ E ] [ [ +.;.,.+.( Q Q E E E E ~ / ~ ~ ~ ` ` 9.S.AXLXLXKXNXN.E E / 8.~ ~ ~ / / ~ ` ~ / E V ` 9.[ ~ ~ ] ` ` ] [ ] ` 8.8.] 8.8.8.R 8 a ! ` 8.~ J R / [ [ [ w.[ &.&.&.&.[ [ [ m.[ ] [ 8.g.Q R R ] 9.] [ 9.[ [ 9./ h 9 E 9.' ` ] ( 9.` ` ] ` ] / / / ] ] [ 8.] E R ~ [ h.` R 9 K i.[.$.E ! ^ ! z ^ / ! ! R R a R h 8 a h g g g h a R R R h g h a h R a h E C ..O.-.:. .A C J a a a J L.PXPXLXAXY.c.l.j.s.g 1 8 9 ] ] ] [ ] ] [ [ _ [ [ h.w.' E ] ` ] [ [ 9.[ [ m.[ [ h.h.8.9.9.9.] 9.g.h R ` ' ] ] 8.8.~ ` h.9.[ 9.9.` ] ~ ] 9.` ` 8.] [ h.` 8.h.` ` [ E E E / / / ] 8.] ] / E Q ^ R ^ / ! a - 3 ;.yXOX+.E ! 1 : - 8 q ; g h x g h ^ R R E / ! E 3.Y.FX!.J.z.2.d.s.a.l g h 6.8.6./ ! ^ ! a ^ ! ^ / ^ ! h / ^ h h ^ h R R h ^ ^ h R ^ ^ / / R h j < & $ = U }.&./ R h R k g g g g h ! ^ ^ ^ h h h h z g ^ ",
"g g g g j j g g g g g g g g g g g g g g g h g g g g g g g g g h h h g g g g g g g g g g h g h h R R h h g h h g h z h h h h h R R R R R R R R R ! E / E ( *.{.{.%.E E ~ ~ E E ] [ [ ' >.,.+.( E / E E E E ~ / ~ ~ ~ ` ` h.bXKXLXGXAXmXS.[ ~ ~ ~ E ~ ~ / / ~ ` ~ / R J ` 7.[ ` ~ ` ] ] ` ` ` ~ ] ] ] ] 8./ h 9 a ~ 9.9.E a R / [ [ [ &.[ [ [ w.w.[ [ [ 9.[ ` ] ] g.2.R R ] [ [ [ h.9.9.9.E 9 6 E [ [ 7.[ ` ] ] ] ] ] ` ` / / ` ] ] ` ] ~ E ` [ h.] ! 9 C i.$X$.J R z z z z a i a a a a i , 8 9 9 N V V B B K J R 9 9 a J a J K I ..o.XX;X:X:X=XOX:.| U U P e.KXPXLXKXQ.U.b.d.d.d.s.h 8 R Q ] ] ] ] ] 9.m.w.h.h.h.w.[ ] [ E ` [ [ [ m.9.9.] ] h.9.~ ~ 8.h.h.[ R r / 9.9.[ 9.h.` E ] h.8.9.] ] ` ` ' 9.9.9.h.9.8.h.] ` ` ] ` ] ` ` ] ~ / / ] ] ] ] / Q R 6.^ ^ s.! R 6 = M :.wX_.) ` / p 1 8 8 ; & d l g 1 8 ! / ~ E ! Q / Y.AXFXY.b.s.s.s.d.1.d d l / 8.6./ / ! R h ! / / ^ ^ ! ! ^ h ! ^ ^ R ^ ^ ^ h h h ! ^ / ^ R R g 1 $ # $ 2 $.<X' R h R ^ ^ c h g g R ^ ! h h h k h h c h h ",
"g g g g g j j j g g g g g g g g g g g g g g g g g g g g g g g h h h g g g g g g g g g g g g h h R R h h g g h g h h h h h h h R R h R R R R R R ! E E E ` *.{.{.$.E E ~ ~ E E ] [ [ $.u.i.@.( E E E E E E ~ / / ~ ~ ` ` [ bXGXGXbXL.T.F.h./ ~ / ~ ~ ~ Q Q Q / Q W R E ` [ [ ] ] ] ` ` ` ` ` ` ] [ [ [ 8.! a 8 R ` 8.` ! 9 R ] [ [ &.&.&.' &.w.w.[ [ &.w.[ ` ] ` / Q R ! ` [ [ [ [ [ 7.] Q a 9 ~ 7.[ 7.[ ( ] ] ] ` ] / ~ E E ] [ ] ` ` ~ ~ ` ` [ ~ E 9 V y.$X..9 R h p h a 9 9 9 9 9 9 9 h J Z } X.O.O.:.O.;...C V I T U I U | o.`.=XiXlXsXlXlXhX:X%X%X*X$XuXPXPXGXZXT.Y.I.d.1.j.c.^ 4 a / [ 9.9.9.[ [ [ [ ] [ [ [ [ ] h.E ] 9.[ 9.m.h.9.] ] [ 9.` ] 9.9.` / 5 ! ] 9.9.] ] ` ` ] [ h.h.9.] ] ~ ` ] 9.9.9.h.] [ [ ] [ ` ` ] ] ] 8.] ` ~ ] [ g.8.` / / ! ! R ! R R a 8 - B (.eX,.[ ` R a h z 8 O o ; u g 8 ! 6.6.E ! E Q A.FXFXVXJ.b.s.s.s.a.v j y g z / / / ^ ! R ^ / / / ^ / ! ! ! h ^ ^ ^ R ! ! ! R R ! ^ ! Q ^ R h g ; $ # & 9 *.i.( R h R ^ h h g e h ^ h h h h h h g p h c h ",
"g g g g g g g g g g g g g g g g g g g g g g g g g g g g g g g h h h g g g g g g g g g g g g h h R R h h g g h h h h h h h h h R R R R R R R R R ! E E E ' >.{.i.$.E E ~ E E E ] ] [ $.y.{.>.) E E E E E E ~ / / ` ~ ~ ~ [ L.AXBXK.L.bXL.h./ ~ / ~ ~ E Q Q Q / Q E R E [ [ [ ` ] ` ` ~ ` ] ] ] [ [ [ [ ` R 8 9 ! 8.] / R 9 R ` ' &.&.&.&.&.&.w.&.&.w.&.w.] ( ] ` ] E ! R ` [ [ [ [ [ 7.] E h 9 ~ ` ' [ [ ` ] ] ` ] 8.~ E E E ~ ] ` ` ` ~ ~ ~ ` [ ` Q a K >.$X;.K J h 8 8 8 9 6 6 7 B S P | ;.[.oX=X;X;X;X;X&X%XXX/./.XX$XOX).oX&X:XjXaXpXsXlXlXsXfXdXjXhXyXSXLXLXGXZXmX!.U.b.b.z.k.Q 9 R / h.9.[ w.w.w.h.[ ] ] ] [ ] [ 9.E 9.m.[ [ 9.9.] E ] 8.[ ` ` ] ] / R 9 / ] 9.9.] E E ` [ ] ] 8.h.9.` ~ ] h.9.] ` ` ] [ 8.h.[ ` ` 9.[ 9.] ` ` ] ] ] ` [ 8.] / Q Q Q ! ! h 8 , 4 Z @X3X@.) E E / ! h 1 @ o & y 1 g ^ / / E E / 3.CXFXCX!.!.x.l.l.a.f.v d y y h ^ / ^ ! R ^ / ^ ! ^ ! ! R h h h ^ ! ! ! ^ ^ R ! ! R R ^ ^ ^ R h 1 ; $ # > 3 >.>.E R h R W g h h h ^ ^ h h h h k h g g c c c ",
"g g g g g g g g g g g g g g g g g g g g g g g g g g g g g g g h h h g g g g g g g g g g g g h h R R h g g g h h h h h h h h h R R R R R R R R ^ W ! E E ' t.{.i.$.E E ~ E E E ] ] ' $.y..Xi.' E E E E E E ~ / ` ` ~ ~ ~ ] K.BXBXL.!.mXL.h./ E ~ ~ ~ E Q Q Q / / R E ( [ [ ` ' ` ` ` ` ` ] [ [ [ w.w.[ ~ a 9 h ~ 9.` E h r E ( [ &.w.&.&.&.' &.w.w.m.w.' [ ~ ` ] ] Q R E ` 9.9.[ ] [ 9.] E h 9 E ` ' ' ` ( ` ` ] ] ` ~ / / ~ ~ ` ] ` ] ~ ~ ~ ` ] ` E a K >.XXi.$.E a 8 1 1 9 V I | ;.(.XXoX&X:XaXpXpXpXsXlXlXsXaX:X:XaXjXhXiXaXsXgXhX:X;X;XtXhXaXfXgXlXjXyXSXLXKXGXFX!.^.W.I.J.k.z./ 9 a / g.[ [ &.w.m.m.[ [ [ ] [ ( 9.h.` [ [ [ ` ] ] ( ` [ 8.] ` ` [ [ / 9 R ~ ] 9.8.E E E ` 8.` 8.] 8.` J ~ [ h.9.] ` ] h.` ] 9.] E ~ h.9.[ E ` ] ] [ [ ] [ 8.] E / 8.6.! / h 1 - 2 } qX}.@.[ E / / ! 8 ; & # & d g h ^ / ~ ~ R Q A.FXJXCXCX^.n.n.l.a.a.j d y > p h ^ / / ! ! ! ^ h ! ! R h h R ^ / ^ ^ ^ ^ R ! ! h h ! / ^ ^ h g 1 & $ $ > 3 B.u.E h ! / ^ h R ! c ! R ^ ^ h g h h g p g h g ",
"g g g g g g g g g g g g g g g g g g g g g g g g g g g g g g g h h h g g g g g g g g g g g g h h R R h g g g h h h h h h h h h R R R R R R R R ^ W ! E E ' u.{.y.' E E ~ E ! ! / ] ' ' y..X{.$.` ~ E E E E ~ / ` / ~ ~ ~ ] S.mXCXBXBXBXL.h./ E / E ~ E Q Q ~ ` ~ J E ' [ ' ` ~ ~ ~ ` ` ] ] [ [ [ [ [ ] ! a 9 R ] 9.` E ! W ] ' [ w.w.&.&.&.&.w.w.w.m.w.[ 8.] ] ` ` ~ R E ] 9.9.9.` [ 9.] E h a ~ [ [ ` ` ] [ ] ` ` ] ` ` ~ ~ ] ] ` ] ] ` / ~ ` E ~ ! 9 J ;.@X:.*.$.K 6 1 - N ..].oX=X;X;X:X,XtXaXiXpXpXjXlXjXfXjXpXpXlXzXlXlXlXjX:X7X}.-.{.OX%X-X:XhXjXhXyXSXKXKXAX!.d.d.x.D.J.V.k.^ r R / ] ] [ w.w.9.9.[ ] ] ] ` ( ] 9.9.9.] ` ] ' ` ] 9.h.8.] 8.] 9.9.! 9 / ] ] ] / ~ [ ` ` h.` 8.] E ~ / 8.[ 9.] ] ` ] [ E ] 9.[ ~ 8.9.9.` E ] ` E [ 9.[ 8.8.~ E ` / ] / ^ g 1 - 5 ;.wX,.$.[ ] 8.` ! 8 ; @ # < 1 h z / / / E ! Q D.FXJXCX!.W.n.f.c v j q y y ; u h ^ / / / ! R R ! ^ ! h ! R R / / ! ! ! ! ! ! ! ! ! ~ ^ ^ ^ h g < @ # # > m B.&.E c h ^ R h R ^ z R ! 6.^ ^ ^ h g h h h h 8 ",
"g g h g h h h g g g g g g g g g g g g g g g g g g g d d g g g h h h g g g g g g g g g g g g g h R R h g g g h h h h h h h h h h h R R R R R R ! ! ! E E $.u.{.>.' E E E E ! ! E ` ] ' y.@X.X%.` E E E E E ~ ~ / ` / ~ E ] N.!.mXmXmXmXV.] ~ E / ~ ~ E / ~ ` ` ~ J K ' [ ` Q E ~ / / ~ ` ' [ [ [ [ ] E R 9 J ` 7.w.[ 8./ E ~ ] [ [ &.&.[ &.&.w.&.[ 9.[ [ ` ` ] 8.8./ E E ] ] ] ] ] [ 9.] E h h ~ [ 7.[ ] ] 9.] ~ ] ] ` ` ~ ~ ` 8.] ] ` ` 8.` ] E ~ R 4 V @.$Xy.u.e.' E 9 6 B X.[.*X=XrX;X=X=X=X*X&X&XoX*X=X;X:XhXdX-XiXlXzXlXjXtX+X{.u.*.@.%.>.}.@X7X=XwXqXMXAXKX^.s.y < g j.Q.c./ h 9 R ~ / ] [ w.w.9.] ` 9.[ ] ] ] [ ` ] h.[ ` [ [ ] [ [ ` ` g.] ] 8.] R E 8.9.` E ~ ` [ 8.` ` ` ` ~ E ~ [ ` ] ] ] ] ` ` ] ` [ 9.[ ] 9.] 9.] ] ] ] ] ] ` ] [ ] ] ] 8./ 8.6.^ 8 1 : V y.wX>.[ [ ] E E h 1 & + + 1 g g h ^ / 6.~ ! ! F.AXJXNXQ.D.v q < < s < < & y d ^ / ! ! ! ! R R ^ ! ! ^ ^ R R ^ ^ h R ^ ^ ^ R ! ! ! ! ! ^ k g g ; O # o = Z B.' ! h g h h W ^ ^ ^ R ! / ^ ^ ^ g g h z h h 1 ",
"g g k k c c h h g g g g g g g g g g g g g h g g g d d d g g g h h h g g g g g g g g g g g g g h J R a g g g h h h h h h h h h h h R R R R R R ! ! ! E E $.u.i.@._ E E E E Q ^ E ~ ' ' u.@X.X*.( E E E E E ~ ~ / ` / ~ ~ / [ N.L.Q.T.F.g./ ~ ~ / / / ~ / / ` ` ~ J K ' ( E Q Q E ~ / ~ ` [ [ ' [ ] Q h r 9 E 7.w.w.9.9.] E E ] [ [ [ [ ' [ [ 9.9.[ [ ] ] / ` 9.9.] E E / ] ] ' ` ] ] 9.[ E h R ~ [ 7.9.] ` ] ` ` ~ ` ] ` ` ~ ` 8.] ] ] ` 8.` ` ` ` ! 9 V X.@Xi.*.%.$.9.E J K ..;._.[.OX`.).(.:.:.,.%.D }  .:.$X*XoX`.=XtXhX:X=X$X{.u.B.e.*.&.[ ' $.t.y.].p.5XNXNXG.l & & < s.H.s.r 9 N C ( E / 9.9.9.] / ] 9.] 9.9.] h.` ` 9.9.9.' 9.9.h.9.] / g.9.] ] Q E ] ` ] ` ` 8.] ` [ [ ] ` ` ` ] [ [ ] ] 8.9.` E ` ` ` ] ] ] ] ] 9.9.8.~ E [ [ ` ] ] ~ ~ ` 8.g.] / E h 1 : 2 B .XqXu.' ] ] J R h d & + + 1 g h h ^ 6./ E R ! !.JXFX!.Q.s.q ; & & & & < & y g z ^ ! ! h ! ! ! ! R ! R ^ ^ R h ^ ^ ! ^ ^ h h ^ ^ R ! ! R k g d ; @ # o - U B.' R h h h R ^ ^ ^ ^ ! ! ^ ! z h 8 g c h 1 g 1 ",
"g g k c ^ ^ W h g g g h g g g g g g g g g h g g g g d g g g g h h h g g g g g g g g g g g g h R E E R g g g h h h h h h h h h h h R R R R R R ! ! R ! E $.u.y.$._ ! E E E / ^ ! E ~ ` t.@X}.%.( E E E E E ~ ~ ~ / / ~ ~ ~ E [ N.L.L.h.~ ~ ~ E ~ ] / ~ / ~ ~ ~ R J ` ' ( E E / ~ ~ / ~ ` [ [ ' ] / W g 9 J ' 0.w.w.w.9.] E E ] [ [ [ [ [ [ [ [ [ ] ] [ E / ] ] [ / ! R E [ 9.9.] ] ] [ ] ! h R ~ [ ' [ ] ` ` ` ` ` ` ] ] ` ~ ] ] ` / ] 8.8.` ` ] ` ! g a ..@Xy.@.$.[ 9.` ` ` ` [ &.+.@.*.@.+.) ' &.' K J 9 N T %.@.@.i.{.{.i.;.;.*.e.w.w.e.&.[ ( ( ' ( U m.NX!.A.s.y * * f n.H.a.r 5 C +.%.` / ] ] ] / E R E ( 9.] E 8.` ` [ ] 9.] 9.h.h.9.] ` 9.9.] Q R ` ] ` 9.` ] [ ] ` ] 8.[ ` ` ] ] h.h.9.8.` E E ` ] ] ` 9.] ` ` 9.9.` ` E ~ 8.8.` ` E R ` ` ` ] / / ! h 1 - 2 { 4X3X%.( ] ] R ^ h 1 & # $ 1 z h h ! 6.E R E / NXAX!.J.c.g ; & @ & @ & d s < d ^ ^ ! ! h ^ ^ ! R R ^ g ! ^ h R ^ ^ ^ ^ h h ! / / ! ! R ! h g u < & # + - } B.( ! z ^ ! ! / ^ R h ! ! R h h h g g c g 1 e 1 ",
"g g k ^ 1.1.^ h g g g h g g g g g g g g g h g g g g d d d g g h h h g g g g g g g g g g g g R E ( ` E h g g h h h h h h h h h h h h R R R R R ! R ! ! E $.t.t.' E ! E E E ^ ^ ! R E ( ;.}.}.;.( ! E E E ~ / E / / / E E ~ ~ ` h.V.M.` ~ ` / R E / ` ~ / ~ ~ ~ R J Y +.@.@._ ( E E ] ~ ` ] [ ] ` Q R h V ( $.$.' w.w.[ ` ! ! ] [ [ 9.[ [ [ [ [ [ ` ] ] E [ 8.[ ] Q Q F E [ m.w.9.[ ] [ ` ! h R ` ' ` ' ` ] [ ] ] ` ` ` ] ` ~ ~ / / E Q ` ` ` ` 9.8.^ a a | }.i.*.w.[ ` E ` [ [ [ [ [ &.&.&.&.[ [ [ ] ! g : 8 ` 7.0.&.w.) ) &.&.) &.m.w.&.w.&.[ [ ` 9.] E z.NX^.D.d.d * s f.W.n.^ h 9 U ;. X0.~ E / / Q R R ~ ] 9.` E / / ] [ [ ] 8.h.9.] ` ` [ h.9./ R R ] ] 9.8.~ ~ ~ E ` [ [ ] ` ~ ` ] 9.h.h.9.` ` ` ` [ [ ] ] 9.] ] h.] E E ~ [ ` [ ] / E / / ~ ` ` ] / ! h 1 - N O.4X{.' ` ` [ ] / h < & + & g z h a ! / R E / / Q.!.F.D.^ : $ & & & + & x f s q c R ! ! R ^ ^ ^ h R ^ h h g R ^ R h R ^ a h ^ ^ ^ h a R ^ z g u : ; & & - } u.( ! ! ^ ! Q Q ^ h g h h h h h h g h h g g g g ",
"g g c ^ 1.1.^ h g g g h g g g g g g g g g h g g g d d d d g g g h h g g g g g g g g g g g g R E ' ' E R h g h h h h h h h h h h h R R R R R ! ! R R R E ' q.*.) E ! ! E R ^ W R R E ( *.OXOX;.( ! Q E E ~ / E E / / E E ~ ~ E ` 9.` R E ~ E E E / ~ ` / ~ E ! R C ..:.OXOX_.+.U ( ( E ~ ] ] ] ~ R h J K $.e.&.[ 9.w.[ ~ R / [ [ &.w.[ [ [ [ [ [ ] ] ( ` [ h.[ h.V.V.2.Q [ h.9.[ [ [ [ ` R 9 h ` ` ' ` ( ] [ ` ~ [ [ ` ] ` ~ ~ ~ Q E E ` ` ` ] 9.8.! 8 a +..Xu.' [ 9.` K ` [ [ [ [ [ [ &.&.w.w.w.[ [ ! 8 ; h h.M.e.w.9.] ] [ [ [ [ m.m.[ [ [ [ [ ] [ [ E k.!.CXU.l.c d n E.n.5.^ g r I O.[.q.( E ^ ^ R F r / ] ` E E R R E / 8.9.h.9.` E ~ ` 9.h.] ! 9 Q ] ] ` ` ` ] E E 8.9.] ] ] ` ' 9.m.m.9.9.] ` 8.9.9.8.] E ] 9.h.9.` ~ E / ] ] / ] / / / E E / ` / ! h p 1 4 U }.4X>.' 9.] ] h.Q g 1 & $ $ 1 h h R E E E / E / J.NXU.A.h > & % % + # < n x d 1 g h ! ! ! ^ ! ! h ^ ^ h h g R ^ a h h h h ! ^ ^ h 9 a ! ^ h g p : > o $ - ;.p./ ! h ^ / Q ! R g g c ^ h ! h g g g g g h 1 w ",
"g g c ^ ^ ^ W h g g g h g g g g g g g g g h g g g d d d d g g g g h g g g g g g g g g g g g R ` ' ' ` R h g h h h h h h h h h h h R R R R R R R R ! R ! ' %.%._ E ! R E R R R R R E ` *.OX@X>.( ! Q E E ~ / ~ ~ / / E E ~ ` ` ` ` ~ E E E E / / E E ] / Q ! ! V I :.$XtXtX*X{.$.( ( E E / ] ' ~ J a J ' u.*.$.[ 9.w.' E R / 7.&.w.w.w.' [ 7.7.9.[ ] ] ` ] [ m.mXJXJXY.z.3.h.[ [ [ [ [ ~ R 9 h ` ' ` ` E E [ ` ] 8.[ ` ` ] ` ~ E E E ] ` ` ` ] ~ ` ! g J +..X%.( ` ] ] E ` [ 9.[ [ ` ' [ 7.w.9.9.9.' R 1 = h h.m.M.9.] ] ] 8.[ [ [ h.[ [ [ ` ] 9.9.[ [ [ M.F.!.G.c.x.b.H.W.s.5.s.g 9 N  .@Xp.Y V h h R h h / / E ! ! 5 9 ! E ` 9.h.[ ` ` ` ] [ 9./ r R ] ] ] E ` [ ] ~ E 8.8.` ] 9.] ] 9.m.w.[ 9.[ [ ] ] 8.[ ] E [ 9.9.] ` ` / E ] 8./ / ] ] / ! E ~ / Q R 9 , : 9 ..*X3X&.` 8.] ( h.! a , > $ + < h R ! E E ~ / R Q Q.CXQ.k.g d & + + + + f f.b < 1 h ^ ^ ^ ^ ^ h h ^ ^ h h h g h R g g h h R ^ ! g g g ^ ^ R z g g 1 = o $ 2 i.i./ / ! ^ 6.! R R h h x h h ^ ! g g g r g 1 : 1 ",
"g g c ^ ^ ^ k h g g h g g g g g g g g g g h g g g d d w d g g g g h h g e g g g g g g g g g R ` ' ' ` R h h h h h h h h h h h h h R R R R R R ! R R R E ' %.$._ E R R R R h h R ! E ` %..X@Xi._ E Q Q E / / / E / / E E ~ ` ] 8.` ` ' &.' E E ! E E / / E E ! C | [.;XhXjX:XqX{.+.( E E / ` ` E J J I u.u.@.' [ h.w.` E R E 7.&.w.w.7.[ [ 7.w.w.[ [ ] ` ] h.Q.LXPXPXFXY.N.m.w.w.9.[ ` E h 9 R ` ] ` [ ` E ] ` ] [ ] ` ` ] ~ E E E E ] ] ` ] ~ E E ! g R +..X@.` ] E E E ` [ [ ] ` ~ ~ ` 8.9.8.8.8.8.R 8 1 h ` ] h.[ ] ] ] / ~ [ 9.[ ] ] 8.~ ` [ 9.[ ] m.N.g.k.j.D.U.!.b.1.c f.l.e - 3  .$X#X| m 9 h h h h R J a h h r 9 ! E E ] [ ` ` ` h.9.] ] / r ! ] ] 8.` ` ] ` 8.~ ] ` ` ] 9.` ] [ 9.9.[ ] ] ] ` ] 9.] ] 9.h.8.] 8.8.] E / ] g./ E / ] ~ E / 8.] / h 8 , - 3 @.wX<Xm.E ~ ~ E h.! a u > + # < h R R ! / 8.8./ / U.NX!.A.j.1 & & & & & x f.j ; 1 h ^ ^ ^ ^ ! h ^ ^ h g h h h 9 h ! ! ^ ! ^ h 8 g h h ! ! R ^ h g 1 O + < 6 {.u./ s.^ ! ^ ! R ^ h h h g c ^ c g g g r g 1 : g ",
"g g h c ^ ^ k h g h h g g g g d g g g g h g g g g g d e g g g g g g h h g g g g g g g g g h ! ~ ' ' ` J a h g g h h h h h h h h h R R R R R R R R R ! E $.q.$.( E ! R R h g h E ~ / ( $. X$X}.) E Q E Q ~ E / / / ~ ~ ~ ~ ~ 8.' E ' y.}.y.' E r R E ! ! R ! R C  .$XtX;X,XtXtX*X;.T ~ / / / / R 9 K %.{.y.&.` ] 9.9.] ! R E ' [ [ [ [ w.&.[ 7.9.[ ` ] ` ] N.BXIXPXJXFX!.N.m.9.9.9.9./ ! g 8 R ` ` ] 7.` ] ` ] ] ] E ~ ` / / ~ Q / / ~ / ` [ 8.` E ! r R $.(.%.( E R R E ] 9.9.8.~ E E E ` 9.` / ~ 6.a : 1 ^ ~ ` [ ] ] ~ / / ` 8.8.` [ h.~ ~ ] ] [ [ ( 9.k.W k k 2.A.U.1.h h a.^ 1 = 5 ..XX>X/.S V 9 9 h a 9 9 4 9 r 9 9 J ~ 9.9.` / ] E [ 9.] W R R ! / ] / ~ [ ~ E / ` ` ` 8.9.] ` ] ] ] 9.` ] 9.] ` 9.] ~ ` ] E ` ` ~ E / / / ] ] / / / / / ] 8.` 6.W 8 1 - 2 Z }.eXi.[ ~ / ] ` / a a u $ # # < h ! R Q g./ Q E / U.^.D.c.x.1 ; ; q j n n f & $ : h R / / / ! R h ^ ^ ! ^ h h h ! ^ ! ^ ^ R g h R g h ^ ^ ! ! g d < O O = 7 p.*.Q ^ h R h ! ^ h g h h z c c h g g g 8 g 8 g h ",
"g g h k ^ ^ k h g g g g g g g g g g g g g g g g g g e e g g g g g g h h g g g d g g g g g h ! E ` ' ` R h g g g g h h h h h h h h h h h R R R R R R ! ( $.%.' E ! R R h g g h E / / E $.{.@X.X+.E Q E E Q E / ~ / E ~ ~ E ~ ` ` ( +.}.*XXX;.C 5 9 R R R ! z R C ,.$X=X%X+X=XtX=X[.U E / Q / W h V .. X X;.$.] ] [ 9.] E R E ] [ [ [ [ [ w.9.[ 9.[ ] ] ] ] N.ZXLXGXCXBXL.M.9.` ` ' ` / W 8 8 E ` ` ] [ ` ] 9.8.] ` ] ~ ` ` / / / E E E ~ ` 9.9.` E ! 9 F +.{.%.E R R R Q [ 9.] ` / ~ E R ~ ] ` / / 6.p 1 8 R ~ ] ] ` ] E / ] / ` ` ` ] 8.~ E / ` [ ] ( h.k.! g h k U.!.s.d.v a.h 1 8 9 U XX,X=X(.| M m V V 9 9 9 9 N B U T ' [ 9.` [ ] ( [ 9.Q h R ! E ` ~ / ~ / E E ` 9.] ] 9.] ` ` E ` 8.9.9.9.9.8.9.] ~ ` ` ] E ` / E / / / / ] ` ` / / / E ~ ~ / Q h r 1 8 2 } 3X<X*.[ ` E ` / ! R h 1 & # + < h ^ ! / 8./ / Q / A.b.k h a.k j j c a.f.x & & ; d c R ! / R h ! R ! ^ ^ ! a R R ! ! ^ ! R h g ! ! h ^ ! R h a 8 q ; & O - K B.+.E ^ R R R ^ ^ h h z h h g h g g g e e 1 g h z ",
"g g h h k h h h g g g g g g d g g g g g g g g g g e e e g g g g g g h h g g d d g g g g g h R E ` ' ` E R h g g h h h h h h h h h h h h R R R R R R R ( $.$.' E ! R R h g g R E / ] E $.y.@X@X$.E E ! E Q E / ~ E E ~ E E ` ] ] _ +.XX,X=X{.| B V K E V R r V U {.OXOX_.(.XXwXrX$X@.E E / E h 9 ( y.1X{.%.' [ ] [ 9.] ~ R ~ ] [ [ [ [ [ w.[ [ [ [ ] ` ] h.L.KXGXZXNXT.N.h.9.E E ~ Q ^ h 8 9 ~ ' ` ] [ ` ] h.9.` ` ` ~ ~ ` ` / Q E E E ~ ` 9.9./ / ! 9 F +.{.e.J 9 h R / 9.9.] ` ` / E R ~ ` E / 6./ g < : h / 9.] [ [ E E / ` ~ ` ` ] ` E E ] ` ( ( ] ] ` ! h f.!.^.DXW.I.n.a.h g 8 5 T [.:XiX=X).-. .@.+.S C I ) @.;.@X{.$.( ' [ 9.[ ] [ ] ! 9 R / / ` ~ ] E E E E ` ] ` ] 9.9.9.[ ` ] 9.] 9.] 9.h.h.9.8.8.` ` E / / / / / ] ~ ` / / E E ~ ~ ` ` / ! g 8 1 8 N ,.qX,.) 9.E E ] / ! ^ z 1 & & + > h ! R / / E ` / ^ s.r ; ; x c v f.f.l d & # # $ u h R ! / h h ! ! h ^ h a ! / ^ ! h ! h h h a g a h R a h ! R a < $ ; O 2 ' B.U ! R R ^ ^ / ! ^ ^ h g 8 8 8 g g g 8 e g h h c ",
"g g g h h h h g g g g d w w g g g g g g g g g g g e g d d d g g g g h h g g d d g g g g g h R R E ' ' E R h h h h h h h h h h h h h R R R R R ! R R R ` $.$.' ! R R h g g h ! E / / E ) t.@X@X@.( ! ! E E E Q Q E E E E E ] / ] _ @.OXrX=X@X,.@.| +.@...) V S | OX@X{.>.>.].$XrX*X].+.E / E 5 C %.@X@Xt.$.[ [ ` [ w.[ ] E ~ ] [ ' [ [ [ [ [ ' [ [ ` ` [ h.BXPXKXFXT.C.N.h.9.] ] / R h h 8 a ~ [ ] ] [ ` ` 9.] ] [ ` ~ E E ~ ` / / / / ` 8.[ ` ` / ! 8 V U  X*.J 9 9 R / 8.] [ ] / ~ / / ` ~ R Q 6.^ h ; = W / ] ` [ ` E ~ ` ` ~ ` ` ` ~ E ` ` ` ] E ` ` ] 8.^ b.^.CX^.!.x.a.j 8 h a F I ;.&XjXhX:X;X&X%XoX`.).XX$X*X=XtX>X,.U ` 9.[ [ 9.[ ~ R 9 ! / / ` [ ] E ] ` ` ] ` 9.9.9.h.9.] ] ] ] ` ] ] ] 9.9.] [ [ ` ] ` 8.8.8.] ` ` ~ ` ` ~ J E ] ` ` g./ R a 8 1 6 B }.qX>._ 8./ 8.8.R R ^ h 1 & $ + > g R ! / / E ~ / R ^ g ; < c g g a.a.1 ; + % % o : h ^ ^ ^ h ! ! h h ^ h h ^ R h ^ ! ^ h ^ 8 8 8 9 R h h ! ^ ! g < $ & O 7 *.u.) Q R R Q ^ ! ! z h 8 g p 8 8 g h g g g k g g g ",
"g g g g g g g g g g d d w w g g g g g h h g g g g g g d d d g g g g h g g g g g g g g g g h h R E ` ' ~ R h h h h h h h h h h h h R R R R R R ! ! R E ' $.$.` ! h h h g h ! Q E E ~ ` ) t.@X@X>._ E ! ! E ! Q E E E E E E ~ / ] ' ;.OX*X$X}.{.{.{.].}.{.;.@.=.(.$X.X>.*.*.y.{.*X=X$X,.( E K C | ].$X}.@.' [ [ [ w.w.7.] ~ ` ] ' ' [ [ [ [ ' ` [ ' ` ] ] h.mXLXGXZXY.C.K.m.] ] / Q h g r 8 a ` 7.[ ] ` ` ` ] ` ` ] ` ` ~ E E / / / / Q ~ [ [ ` ` / ! r 9 U  X$.R h 9 R / ` ] [ ` / / / 8.` ` E Q / ^ g ; : ^ / E ` ] ] ` ] ` ] ] ] ` ` ~ ~ / / [ ] ] h.[ 9.h.8./ j.W.c.D.l.c 1 h ! ! R N D `.:XaXaXjXjXdXdX:X;X;X,XiXjXjXtXOX@.[ h.] ] 8.` ! 9 R ` [ ` ` [ ] ` ] 8.h.` ] 9.8.` ] ` ] ] ] ] ] 9.h.9.9.9.` ` [ [ ` ` [ [ ` ~ ` ` ` ` [ ] E E ` ] 8.[ Q R 8 1 1 5 { 1X1X&.` ` / ] ` V ! ! h 1 & # # > h ^ / / E E / R ! s.g ; ; v g x a.k ; < & + % @ 1 c ^ ^ ^ ^ ^ h h R R h ^ ^ h h 6.^ h g h 8 8 ^ ^ ^ ^ h ! ! h h u < + O C y.*.` 8.R R ^ ! h g g g p g g 8 g h z h g g g e g 1 ",
"g g g g g g g g g d g g d d d g g g g h g g g g g g w g w w g g g g h g g e g g g g g g g h h h R ` ` ` E R h h h h h h h R R h h R R R R R R ! ! R E [ $.$._ R h h g g R ^ / E E E ( ' u.1X4Xy.( E ! ! E ! Q Q Q Q / ! E / [ [ $.>.@XOX{.,.{.1X1X$X7X*XXX).OX$X$Xi.$.) ' e.t..X*X=XOX..K K U O.XXOX,.$.' ] [ [ w.w.9.] ` ` ] [ ' ' [ [ [ [ ` ' ` ` ] ] 3.T.KXGXZXbXNX!.k.[ ] Q W h h r 8 J ' 9.[ ] ` ] ] E ` ` E ` ` ` E E / E ~ / E E ] 9.9.` E ! h V U  X' ! h 9 R / ] ] ] / ` ` ` ` 8.8./ / / z 1 ; 1 ^ Q E ] ` E ] ] [ [ ] ] ` ] ` ` 8.] ] ` ] [ ( m.h.8.R j.D.g.l.l.c 1 R / E R 5 B -.%X:XiXpXlXgXfXdXiXaXaXsXsXjXhX=X:.[ 9.8.8.~ / R V ] ` ` ` [ 8.` ` 9.[ h.` 8.9.] ] E ` ] ] ] ` ] 9.9.] ] ` ` 9.9.[ ] ] ] ` E E ] ` ` [ [ ] ~ ~ ] 8.8.] / ^ 8 = - B (.4X{.) ( ~ E E / R ! h z u $ o o < h R / Q R R E E ! s.^ h c v.w g f.a.g @ + + % s g c h h ^ ^ h h h h h h R ^ ! R s.h g h h 8 g h ^ ^ R ! ^ h g h y < O = I  X$.` / R ! ^ ^ ! h g g 8 8 h h ^ c ^ c h g 1 1 1 u ",
"g g g g g g g g g d d d d d g g g g g h h g g g g g g d w w w g g g h h g g e g e g h g g g g h R ~ ` ` E R h h g h h h h h h R h h h R R R R R R ! E ' %.$.( h g g a g ! ^ E ~ ~ ~ ` _ $..X1X{.) R E / Q Q Q E E E ! ~ E / 8.' X.].[.{.i.*.*.p.<X}.OX*X*X$X7X$X{.*.] ` ] w.e.>.[.=X*X:.T I O.oX*X<X*.[ ] ` ' [ [ w.7.` E E ] [ [ [ [ [ 9.[ ' ' ` ` ` 9.h.C.FXCXT.NXCXS.g.k.g.! g g h 8 4 E [ [ ' ` E ] g.` ] E ~ E E ~ E ~ E ~ / / / E ` ] ` E R ! h 9 ( u.( a 4 9 R E ] ] ` ` ] ` / / ` 8.] E E h 1 < e h ! / h.` E ] ] ` [ [ ` ~ E ~ ` ~ ~ E ` 8.] ` [ ] 8.E z.A./ s.d.g 9 ! 8.] ! ! R B ;.XX&XiXjXjXdXdXdXzXjXpXhXdXjX:X_.) E ` 8.E ! 9 V ` ` E ] [ ` ] h.[ E ` 9.` ` h.] E ` ] ] ] ] ] [ 9.9.` E ` 9.] ] 9.8.E ` h.] ` ~ ` h.` ~ ` ] / ~ ~ / ! h , - 2 A @X2X@.( E 8.` E / E ! g h < + # # y h ^ ! / Q / Q Q / s.z.j.D.!.w 1.W.v.x < & % % s g h ^ h a R ! h ^ h h g R ^ ^ R h g k h h h h g R ^ ! ! h g g p < O o - U .X&.E / / / ^ ! R h g g 8 g c c ^ ^ h h x e = : 1 j ",
"d d g g g g g g d g d d d d g g g g h R R g g g g g g d w w g g g g h h g g g g e g h g h g g h R E ~ ` E R h h g g h h h h h R h h h R R R R R R E E ' %.$.( r g h h h ! ! ! E ~ ~ E ` $. X@X{.' R E / E Q E E E E ! E E ~ ` ` X.{.{.y.*.[ &.e.B.i._.}.}.}.OX{.u.[ / ~ / g.w.>.{.7XwXXX . .}.*X@X>.) ] ] ` [ [ [ 7.] ~ E E ` [ [ [ [ [ w.7.' ` ` ` ` 8.N.C.!.Y.C.L.Y.k.g.g.! r 8 g g g 9 E 7.' ] ` E ` ] E ~ E E E E ` ] ] ~ ] ] / E ~ ` E ~ E R ! a 9 E $.` 9 9 9 E ~ ] ] ~ / ] ] ` / ~ / / E ~ l < < 8 R E ~ ] ] ` ` ` ] ` ] ] ` E ` ` ~ ~ E ] ] ] ` ] ] 8.g.k./ ! ^ ^ h ^ 8.8.8./ ^ ! 9 C ..[.%X9XtXhXhXhXhXrX%XoX=XtXhXOXD E 6.8.! a 9 E ] ` ~ ` ` ` E ] ] ` ] ] ` ~ ] ~ ` ` ] ` 9.] ] 9.9.] E E ] 9.8.` ` ] ~ ] 9.9.8.~ [ [ ~ ~ ] [ ` / / / R 8 - - 3  .qX{.&.] ~ ~ g.E ` Q 9 p p < $ # # 1 z / ^ ^ / ^ R ^ / 6.g.g.A.W.x f.W.1.g d & % & s g ^ R g g ! ^ ^ ! ^ h R R ! ! R h 8 g g h h z ^ ^ R ^ h g g g p y $ O 2 @.y.` / 6./ ! ! h 8 8 8 8 g ^ ^ ^ ^ h g g g : = g d l ",
"d d g g g g g g d d d d d d w 8 g h h R R g g g g g d d w d g g g g g g g g g g e g h h h h g g h R ~ ` E R h g g g h h h h h R R h h R R R R R R R E ' %.$.E r g R R ! ! ! ! E ~ ~ E ( ' i.@X.X$.E E ~ E E E E E E ! E E ~ ~ I %.p.i.%.' ' [ [ w.*.*.>.@.=.>.u.w.] / E Q ] [ *.,.@XwX*X/.-.$X$Xy.$._ ] ] ` ' [ [ ' ` E E E ` [ [ [ [ [ [ [ ' ` ` ] ] ] h.N.C.k.3.3.k.g.8.Q 9 9 8 9 R R R ` 7.` ` ` ` E E E ~ ~ ` ` ` ` E ~ ` ~ ~ E R E ~ E / / / 8.R h R ' E 5 R 2.E E ] ] ] / / / ~ ` / ` / / / h < 1 g E / ~ ] ` ` ] ~ ` ` ] ` ` ~ ] ] ` ` ` ` ] ` ` ] 8.[ ` ` R R h h W ] 9.8.g.8./ ^ g 8 J $.;.).+X7X=X=X%X_. .{ ).;X:X+X@.( Q ! ! g R 8.8.] ] ~ E ~ E E ] ` ] 9.] E ] ] ` ] 9.] 9.] ` ] ] ] E E ] ] ` ] ` ` ] ] 9.9.9.` ~ ` [ / / E E E E ! 9 1 : 4 Z }.3Xy.m.` ` 8.` ~ g.! 9 ^ g < $ + # < h ^ / / 6.! a / / / R R g.R.g c d.k a.a.s # & q g ^ g 8 g ! ^ ^ ! g R ^ h ^ ^ ^ h 8 g 8 g h ^ ^ ^ h h 9 h k h u < $ = 5 >.;.` / / ! ! ^ h 8 8 g 8 g z h ^ ^ c g e 1 : g g j l ",
"d d g g g g g g d d d d d d w e g h R R R g g g e w w d d d g g g g h h g g g g g g h h g h g g g R E ` ` E R g g h h h h h h R R h h R R R R R ! E ( ' %.$.K r g R ! E ! ! ! E E E E ( ) i.@X@X*.E E ~ ~ ~ E E E E E E E E E ( $.e.e.$.) ' [ [ &.w.&.$.) ) &.m.[ ` ` ~ ~ ] [ &.*.,.OX&XoXXX3X<Xu.' ` ` ] ' ' [ [ ` ~ E R E ` ] [ [ [ [ [ [ ` ` ] ] ` ] h.h.3.k.F.C.A.k./ g 9 8 4 R E R E ' w.` E ~ ` ~ ] E ~ ] [ ] E ~ E ~ ` E E E Q E E ] / / ` 8.R g a K E <.NXAXS.] ] [ / / / ~ E ~ / / / Q ! g < 1 h / ` ` ` ~ E ] ] 8.[ 8.] ~ E ~ ` ] [ [ / ~ 8.` ` ] ` ~ ` ~ R R W / ] [ h.9.8./ R g g E [ &.&.@.;.%.%.*.#.C C  .7XtX=X-.( ! R h h Q h.9.[ [ ` ] ] / ` ] ~ E ] ` ] h.] ` 9.] ` ] ] 9.9.9.] ` ] ] ] ] ] ] ] ] 9.9.] ` ] 8.` ] E E E E Q Q R 9 = : 2  .3X}.$.[ 8.8.8./ ` ` R h h g > o o # 1 h ^ ^ ! ^ ! R / ! R R Q / d.8 k k c v.n & + & 1 h h 8 p g g h ^ ^ 9 h a ^ 6.^ g 8 8 a h h h ! h h a g h R h 8 y > $ = V u.*.` 6./ ! ! h g k g g 8 g h z ^ ^ h g g 1 1 w g g u ",
"d d g g g g g g d d d d d d g g h h R R a p g g w w w w d d g g g g h h g g g g g g h h h g g g g R E ` ` E R g g h h h h h h R R h h R R R R R ! E ` ' %.$.E r h R R E E ! E E E E ` ] _ y.@X@X;.~ K ~ ~ ~ E E E E E E E E E ( $.$.&.[ _ ' [ [ [ [ ' ( ( ) [ 9.] ` ` ` ` ] m.m.*.>.}.%X=X8XOXy.$.` ` ` ] ' ' [ [ ] ] E R E ] ] [ [ [ [ [ [ ` ` [ ] ` ] h.h.3.C.NX!.Y.g.^ h g 8 9 E ` E ~ 7.e.` E ~ ` ] ] ~ E ~ E ~ ~ ~ ` ` ` ] E E Q R E ] / / ' ` ~ h 8 5 Q CXIXLXbXM.] ( Q / / / ~ ~ ` ` / / ! h 1 1 ! ` ` ` / ` ] ] ` ] 9.h.] ~ ~ E ` ] ` 8./ E 8.8.] ] ] ` ` ` ` / / ] ] ] h.] ` / ^ ^ Q [ ` [ h.[ ` E Q h.k./ V Z }.rXyXXXU E h p ! ` ] ] ` ~ E ~ ] ` [ ] ~ E ] ` ] h.[ ] ] ` ` ` ] 9.9.] ` ` ] 9.] ] ` ` 9.` h.9.` ] ] ` ~ ] E E E E Q ! a p = - 3 _.wXy.' ` 9.h.h.` ] E R h g g > o o o 1 h h R R R ! / ! a ! 6.! g 5.^ n.1.j c l ; < d g ^ h h ^ h g ^ ^ h a h g ^ ^ h 8 8 g h / R ^ h h h g ^ ^ ^ W g u y $ = S B.+.~ 6./ R g r g c g r 8 h ^ z g h g g g g g w g 1 1 ",
"d d d g g g g d d d d d w w g h h ! R a 9 g g g w w w w w d g g d g h h g g g e g g h h h g g g r a E ` ' ` R g g h h h h h h R R h h h h R R R ! E ` ' %.$.( h h R R E E R E E E E ` ] ` ;.}.@Xu.` K ~ ~ ~ E E E E E E Q E E ( $.$.' _ ( _ ` [ [ [ ' K C _ ] ] ` ` ] ` ` ' m.m.e.u.}.+X9X&X:.+.' ' ` ` ] ` ' [ [ 8.] Q R E ] ` ` [ [ [ [ ' ` ` 9.] ] ] ] [ Q k.Y.Q.F.g.! g h p R ` ' ~ E 7.w.[ ( ` ` ] ` ~ E ~ E ] [ ` 8.~ E ~ E E ! R E / / ` ' 8.E g 8 R !.PXIXJXbXN.] ( E / ` ` / / 8./ / / E p = 1 ! 8.8.` ] ` ] ` ` E [ 9.] ] / ~ ` ` ` ` E E ` ` 8.8.~ ` ` 8.8.~ Q E ` ] h.9.' ~ E ! ] 9.] h.h.] ( ] 8.k.h.~ R J *.&XhX*X| J 8 g / ] 9.[ ] E E ~ 8.g.] [ ] ` ] ` ] ` ` 9.9.] ] ] ] 9.] ] 9.9.] 9.h.9.E ` ` ` 9.9.[ ~ ~ ~ E / E Q / / ] Q a p : 4 S OXqX%.' 7.9.h.3.` ~ E R 9 h u > # # # < h g h ! / Q ! R h ! ^ c h ^ l.n.c v l j < < 1 g ! ^ ^ h h h h h g h R h R h g g 8 h h ^ / ! a h h h h ^ R h g y y O - U u.( E ! R 8 8 8 g h h g g h h a g h g g e 1 1 g w g d ",
"d d d d d g d g d w d d d w g a R E R g g e w w w w w d d d g g d g h h a g 9 g g h h h g g g g g h E ` ' ` E h g h h h h h h R h h h h R R R R ! E ( [ $.$.E R R R R ! E ! ! E E E ~ ] ' @.{.OXi.( K ~ ~ ~ E E / ~ E E E E ( ' $.' _ E E ( ( ] ] ] / J V _ ] ] ] ` [ ] [ &.&.[ w.e.i.XX=X&X,.) ` ` ' ` ` ] ] [ [ 9.[ E R E ] ] [ [ [ [ [ ' ` ` [ ] ` ` ( ] / ] k.g.g.s.h 9 a R ~ ` ` E K ` 7.] ` ] E ~ ` E ~ ` ` ` / / ` ~ E E R R ! ! E E E ~ ` 8./ g 9 N.KXIXLXVXL.C.[ ] ] ] ` ` / / / / / / ^ 1 ; 1 R ] ` E ` ] ~ ` ~ ` ` ] / / ] / ] ` E ~ E ~ ` ~ ] ` E ` ` 8.8.~ E E ] ` 8.8.9.` / 8.h.9.[ 9.8.~ ` 9.h.k./ ! ~ R U `.tX=X@.V p h 8.9.] ` / ~ ` [ ` ~ / ` ] ` ] ~ ] E ] h.] ( ` ` ` [ 9.[ 8.] E ] [ E E ] ` ] ` ] ` E Q R ! ] / / 8.^ R h p , : 5 | 3X2X&.` 7.8./ E / E Q 9 R h p y + # + : h ! R / 6.! ! ! R ! ^ z ^ h j.n.a.v d d < = 1 h R ^ h g h R ! ! ^ R a g / ^ h 8 8 h R ^ 6.! a h h h ! ^ g r g u $ O - +.*.] R R h 6 8 g h c c g g c g 8 h h 1 1 e 1 1 1 1 j g ",
"w w w w d e g g w 1 d d d g r J E E J g d w w w w w w w g g g g d u u g g h R R W k h g g g g g h h ! ` [ ' ~ R h h h h h h h h h h h R R R R R ! E ( ' $.' ~ J R R R ! ! ! ! E ! E ~ ' ' $.i.+X{.) E ~ ~ E E ! / ~ ~ E ! E ( $.%.' ~ E Q ~ ~ ` ` Q ! h E ' ` ] ] ] ] ` ] [ [ [ [ &.>.}.=X&X,.) ` ` ' ' ] ` ` ` ' [ ` E R E ` ] [ [ [ [ [ ' ` [ [ ] ( ( E ] [ [ / ^ s.^ g 6 J ` [ 9.[ E E ~ ] ] ` ` E E E ~ ~ ~ ~ ~ E E ~ ~ E E ! R ! ! E ~ / ] E ~ R 4 F bXKXGXCXY.F.N.] ] ] ] ` ` ] Q / / ~ / ^ 1 ; 8 Q ~ E R E ~ [ [ ~ ] / ] ] E ~ / ] ] ~ ] ` ` [ ~ ` ` ~ 8.8.] ` ` / / ` E / / 8./ / 8.] 9.9.9.` E ~ E ~ / ^ / R 6 B -.8X;X:.B i 6.9.[ ] E E E / ` ` ~ ~ ~ 8.] ` E ] ] ] ] E E ] ] ] [ h.9.[ ` E ` ] ` ] [ E ` E ` 8./ h 9 Q / E / 8.! h h p , - m :.3X}.' ` 9.8.R ~ / / R 9 ^ g g d o o + u z ! ! R ! ^ / ^ / ^ ! R h h h a.c 1 < d = = g h h h h ! h ^ ^ ^ ^ h 9 ^ ! ! / 9 ! / R ^ 6.R ^ / ! ! ^ ! 9 h g 1 > O 2 q.e.] R h h g h ! ^ a.h 8 g g g g h g g g 1 : 1 1 1 g g ",
"w w w w d e w g w w d d d g g R ~ E R g d w w w w w d w g g g g d d 1 p h ^ s.g.s.^ k g g p g g h h R ` ' ' ( R h h h h h h h h h R R R R R R R ! E ( ' $.' ` J R ! R ! ! ! ! ! ! E ~ ] ' ) ,.@X}.+.( ~ ~ E E E / ~ ~ ~ E E ' %.0.' E E Q ~ ~ ] ] E R R ` [ [ h.[ ] E E E ` [ [ [ w.@._.*X8X,.) ' ' ' ` ` ] ] ] ' ] ] / E ~ ] ] [ [ ' [ [ [ [ [ [ [ ] ] ` ] [ ] / R h h a 9 E ` 9.9.9.` E ] ] ] ~ ~ ~ E E ` ~ ~ E ~ ~ E ~ / Q Q E ! ! ! ! ~ ] ] ` E R 9 Q BXLXVXY.F.!.N.] ] ] [ ] ~ / ~ / / ~ / ^ < ; g / ~ E ~ ~ ] [ [ ~ E E ] / E / ` / ~ ~ ~ ` ` ` [ ` ] ` ] ] ~ ` ` ~ ` ] E Q R E E E / ] [ ] ` ] E E J E / ^ ^ h 8 V @.7X9X}...~ 8.` ] ] E E / E J E E ` 8.9.] ] ] ] [ [ ( ( ] ] ` ] [ [ ] ] ` ` ` ` ] ] ] 9.9.E [ ~ E R R ] ` E E ! R R h p : - S @X3X;.' ] 8.~ ~ 8.J a a 9 W g h d o o O < h h R h ! / / ! / ^ ! ! ^ h h g g < ; $ = 1 h g g h ^ ! h h g ^ R ! h h ^ ^ h 9 ^ ^ h h ^ ^ ^ h a g g g g k h < O = 9 u.$.E Q ^ ! h h ^ ^ ^ g 8 h h g g h g g g 1 < : g j j 1 ",
"d d w w d d w g g w d d d g g ! ` ~ R g d w w w w w w w w w g g d g g g ^ g.c.A.c.s.W h g g g g g h R ~ ' ' ` ! R h h h h h h h h R R h R R R R ! E ( ' $.' E J R ! ! ! E ! ! ! ! E ~ ` ` ) ;.OX@X;.( ~ ~ E E ! Q ~ ~ ~ E E ' e.&.` E Q Q / ~ / / E R K ' &.h.N.h.3.~ Q E E [ 3.[ &.$.;.$X8X{.$.' ' ` ` ] ` ] ] [ 9.[ ~ E E ` ] ] [ ' ' ' [ [ [ [ [ ] ] ] ] ] 8./ ! p 8 a ! 8.` ] [ ] ` E ` [ ` ~ ~ E E E / ~ ~ E ~ ~ / / / / E ! ! ! ! E ~ ] ] 9.~ R 8 2.AXLXmXk.g.S.C.h.[ ` ] ~ E E / / Q / / h ; ; h / ~ E E ` ] [ [ ` ~ E ~ E ~ ` E ~ ~ ~ E [ [ ` 8.` ~ [ [ ] [ 8.~ / ] Q E ! R E E / ] ] ] ] 8.] E ! R E ! R h g h 9 S OXrX7X{.w.8.E ] ` E ~ ` E E E ~ ` 9.] ] 9.] ( ] ] ] ] ( ] ] [ [ [ [ ` ` ] ' ` ] 9.h.9.E E 9.~ E ~ ~ ] ` ~ / R ! ! p p - 2 X.$X}.+.[ 9.8.8.8.9.J a ! ! W h h < o # + < h h ^ ^ ! ! R / / R ! ^ h g h h h g 1 < 1 g ^ h g ^ ^ h h a h R 9 ! h h ^ h 9 h ^ ^ ^ h h h g 8 8 8 h h h h g : O = V e.' E / ^ ! h ! h h ^ h h k g g h h g g w 1 1 g j g g e ",
"d d w w d g w g g w d d d g g ! / E R g u w w w w w w w w w g g d 8 g g 2.A.J.Q.D.j.W h h g g h g h R E ' [ ` E R R R R R h h R h ! R R ! ! R R ! E _ ' $.' ` J R R R ! E ! ! ! ! E E ` ` ) %.OX$X(.) E E E R W Q ~ ` ~ E ( ' 0.[ ( E Q Q / ~ / ~ ! R I w.w.m.k.N.h.] Q ! E / ] [ [ ' >.2X7X{.$.` ' ` ` ] ` ` ' ` [ ] ~ E ~ ] ] ] [ [ ` ' ' [ [ 9.9.] ` E ` [ 9.] h g 8 a ~ 8.] ] ' ` ~ J R ] E ` ` E R E / ` ~ ~ ~ E / / / / E R ! R R E ~ ] 3.[ E R 8 s.CXNXz.F F 3.V.3.] ] / E / ~ / / E / / h ; : h / ~ E E E ` [ ] ` / E R ~ / ` / / / ~ ~ [ [ ` [ / ~ [ [ ] h.8.] / E E E E / ] ~ / ] g.] ] 8.Q ! E E / Q ! h k g 8 N :.8XyX@X0.8./ E ~ E ` ] ] ] E ` ] [ 8.] ] ` ( [ [ 9.( ] [ ] [ [ h.9.] ` ] ] [ 9.` 9.[ E ] ] ] ` ~ ` ` ` ` 8.E / R , 1 - B {.$Xy.) [ 9.~ ~ 8.] E J / W / h 8 < & o + = 8 g ^ ^ / / E / ^ ! ^ g h g g g ^ ^ g h h g h h h h R R h h ^ ! g h h h h h g h h h h 8 h g g g g h ^ z h g 8 < O - ( &.( / g.^ ! ! 6.h h h g h h g g g g g g w 1 1 g g g x g ",
"d d w w d d g g g w d d d g g R Q ! h g u w w w w w d w w w w d g g r h g.D.Y.Y.V.s.h h g r g h g h h E ' [ ] Q ! R R h R R R R h R R R R R R R E E ( [ $.' ` J R ! R ! E ! ! ! E E R ~ ] ` @.}.3X}.' E E ! R W E ~ ~ ~ E ( &.&.' E E Q / / E ~ E R F ' e.M.M.k.N.h.h./ W ! E ` ( ` ' u.@X*Xi.$.` ( ` ` ` ] ` ` ` ` ] ] E ~ ] ] ] [ [ ' ' ` [ [ [ [ ] E ~ ] [ 9./ g g 9 J ~ 8.] ] ` ] ~ R R / E 8.8.R R E 8.8.` / E R ~ ~ / / E R R ! R ! E ~ / / / ! 8 j.!.Q.2.R ^ c.A.] E ~ / / / / / Q E / ! g ; 1 h E ~ E ` ~ ~ E E ] ` ~ E ` / / ] / ` E E / / ` ] ~ ` ] E ] [ 8.[ ~ E / R E ] 8.] ] ] / E / ] E ! 8.g.g.g.R h ^ 1 1 9 o.rXyXOX$.[ E ~ [ ` ~ ` ` ` ` [ ] 8.h.] ` ] ] 9.[ [ ] h.h.` ( _ [ 9.] ] ] [ 9.m.[ ` ' ] 9.` ( [ E E ` [ 8.` R ! h 1 : 2 } @X.X*._ E ` / / ] ~ J R / ! / a 1 ; + o @ ; g h R h / ! R / / h g h r : h ^ ^ h h c p 8 ^ h 8 h R ! a R ^ ^ ^ ^ h a h ^ ^ ! g h 8 8 ^ h g g R ^ h z h g 1 > O 2 ' w.` / ^ r h R ^ ^ h g g g g g g h x g g 1 : e g g h x g ",
"d d w w d g g g g w d d g g g R ! R g g u w w w w w d w w w w w g r g W j.A.J.D.j.^ h g g 8 g h g h h R ` [ ] ] / Q ! R R R R R h R R R R R R R E E ( ' $.' ~ J R ! R ! E ! ! E E E R ~ ` ] +.{.@X}.' E E ! ! R Q ~ ~ E E ) *.&._ E Q Q / Q E E E R R &.e.w.M.k.M.h.9./ ! R E ` ] ( ' >.OX*X{.$.E E ] ( E ] ] ` [ [ [ ` ~ ~ E ] ] ` ' ` ' [ [ [ ` ` ] ] ] ] [ 8./ g 8 h E ` ] ` ] ` ` ~ R R Q E ` / E ! ~ ~ ~ ~ E E E E E E ~ E E E ! ! R E E E E ! h 1 b.CXCXc.g.A.!.A./ E ~ / E ! / / E ! / ^ g ; 8 R / ~ ~ ~ E ~ E ] ` ~ E E / ] ] ] / ] ~ / / / [ ~ E ` ] ] [ ] ` ` E Q / E / / / ] / R Q Q ] / Q / g./ ^ Q 9 r ^ p 1 6  .8X9X).) ] E ` [ ` ~ ` ` ` 8.8.] ] ] ` [ ] ] [ ] ] ] [ [ ] [ [ [ ] ] ] [ [ 9.9.[ ` ] 9.h.] ` ` ( E ` ` ~ E ~ R 8 < : 3 O.@Xp.$.( ( E ~ ~ ~ ` ~ 8.` ! ^ a g < # o o $ g g h ! ! a R ! R R ^ h r 8 h ^ z a z ! z h h g g h R ! ! ^ ! ^ ^ ^ R ^ ^ h ^ h a g g a ! h h ! ^ / h h ^ g : $ O 3 &.&.E E R r ^ ^ ! 8 8 g g g h c x c c g g : : g g h g g e ",
"w w w w w g g g g w d d g g h ^ W h g 8 d w w w w w d w w w g g g 8 g ^ j.A.A.z.2.W h g g r e g h h h R E [ m.N.V.N.2.^ R ! R R h R R R R h R R E E E ' $.' E R R R R ! E ! ! E E E E E ~ ( ) ,.OX}.$.E ! ! W ! Q / E E E @.>.$.( E Q Q / Q E Q R F E &.e.&.h.k.m.m.[ ` E E E ] ] ~ I >.3X8X}.$.E / ] E E / ] ` [ 9.] ` ~ ~ ~ ] ] ` ` ` ' [ [ [ [ ] ` ] ~ ` ' ` ! g g ! ~ ' [ ] ] ] ` E J R E ~ / E E E ~ E E E E / ~ E ~ ~ E E E E E / E E E E E ! h 1 l.CXNXU.U.^.Q.g.Q Q / / ! ! / ~ ~ E / ^ g : g / ` ~ / / ] ` E ` ] ~ / ~ / ` ` ~ / / / ] ~ ` ` ~ ] ] ` ` [ ~ ~ E E E / / / ] / ] ~ R Q W Q / / 8.8.Q ^ R 9 E / c g 6 } *X=X(.) ] / ` 8.[ 8.h.] ] ] [ [ ] ` ` E ` ` [ [ [ ] [ ( ` ] ] ` ] ` ` ] [ [ ` ( ] [ ] ] ` 9.] ] E Q Q E ~ E a 1 : 2 Z |..X&.( ` [ ` 8./ E ` ~ / / R R ! z < & o # $ w g g h R h ! h R R g h h c g z ^ h h ^ ^ a g h h h ! / ! ^ ^ ^ ^ h h ^ h 9 R h ! R ^ a h h ! ^ ! ! h ! ^ g 1 $ O C *.` E ! R R ^ h g 8 8 h h z z c h h g w 1 1 g g g g g g g ",
"w w w w w g g g g w u d g g h ! W h g 8 g w w w w w w w w w g g g g h 2.j.z.k.s.h g 8 r g g g g h h h R E 9.Z.Q.!.L.k./ R ! R R R R ! R R h R ! ! E E ' $.' E R R ! R ! E ! ! E E E ~ ~ / E ) >.}.}.$.E ! ! Q ! E ~ ! E ) >.y.$.E R ! ^ ^ ! ^ Q ! G ( e.*.[ h.h.M.m.9.` E ` ` [ ] E U ,.8XrX@X@.( E E E E / ] ` ] ] 8.` ~ ~ ] ] [ [ [ [ [ [ [ [ [ [ ] [ / / ` ! h r g E ` [ [ ] ] ] ` E J R E ~ E ~ E E J E E E E / E E E E ~ ~ ~ E Q / E / Q W E ! z 1 ^ U.A.c.U.U.j.W ^ / / E ! / / / / Q / ! 8 = 8 ^ / ~ / ~ ] ] E ` ` ` ` / ~ / / E E E ~ ` ` ` / / / ] ~ ` 8.[ ` E E / ] E Q ] ` / E ~ / ! ! Q E / ~ Q Q h R ] ` z d , } +X7X,._ ` ` 8.8.` ] ] E ] ` 9.` ] ` E ` [ ` ] [ ] [ ] ] ] ] ] ` ` ` ] ] [ [ [ ' 9.[ ] ` [ h.E / ! R Q E E a 8 1 1 N ..1Xy.' ] [ ] ` g.E E E ~ E / R ! ^ h 1 & # # ; g z g g ^ ^ ^ h ^ ^ g g h k W ^ ^ a a ! ! a ^ ^ h W R R R ! R h h h 9 h h a 6.^ h h / h R R Q g.Q R ! ! ^ h 1 $ = U u.` E R R W h 8 8 g c ^ ^ h g g g h g 1 1 g h h h h h g g ",
"w w w w w g g g g w d d g g h R k h e 1 d w w w w w w w w g g g g g k 2.j.z.g./ g 8 8 g g g g g h g g h E h.K.BXZXmXS.6.! R R R R R R R R h h R ! ! E ' ' ' E R R R R ! E ! ! E E E ~ ~ / ` ) ,.OX}.@.( E ! ! E E E R E +.}.{.&.E R ! E ! ^ ^ ! R K +.u.%.' h.h.h.h.9.] ` ] ` 8.` E ) }.rXtX7X,.' E E E E E / ] ] [ 9.] E E ` ] [ [ [ [ [ [ [ [ [ [ [ 9./ / Q h 8 8 g / ` [ ' ` ` ] ` E J R E ~ E ~ ` ~ J E E E ~ / E E E E E / / ~ E ^ ! / Q E R ! h 1 g / W W A.H.W ! ! Q / Q ! ^ / / / / / h : : 8 ^ 8.8./ ~ ~ ` ~ ` [ [ ] / E / / R E R E ` ] ] / / / ` ` ` ` [ 8.~ E E / Q ] 8.~ E J ~ ` Q Q / ~ / E / R h R 8.~ g 1 - | 3X6X,.( ~ ` 8.` ~ E ~ ` 9.9.[ E E E E 9.[ ] ( ` [ [ ] ` ] [ ` E E [ 9.] 9.h.[ ` ` E ] ] [ ] E E R R / E J 9 e 1 6 A :. X$.[ ] ` ` 9.] R Q E ~ ~ / ! Q ^ g 1 # # o ; g z h g ! ^ ^ ^ ^ ^ h g h W h h h a 9 8 h ! ^ h g h R R ^ ^ h a h h 9 ^ ^ ! / h 9 R ^ R h ! 6.g.R R ! h g g ; $ - U u.( ! ! / ^ g 8 g k ^ h z g 8 h h 8 e 1 e g h g g h h g h ",
"w w w w w g g g g w d d g g h h h g e g g 1 w w w w w w w g g g g g k ^ s.j.6.! g g g g g g g h h g g h Q N.Q.AXAXBXL.g.! R R R R R R R R R R R ! ! E ` ' ` E h R R ! ! E ! ! E ~ ~ E E ~ ` ' y.OXOX*.` E ! ! E E E E ( ;.$X<X*.E E E Q Q ^ ^ R V I >.p.%.' 9.h.h.h.[ ] ] ` ` ` ] _ @.+X0XdXrX}...E E E E ! Q / ] 9.[ / R R ~ ] [ [ [ [ [ [ [ [ [ [ [ [ Q ^ h 8 1 1 h Q ` ] ' ` ' ] ] ~ J R E ~ ~ ` 8.~ ~ E R E / / ~ E E E E E ~ ~ E ! ! E E R R ! h < 1 r 2.j.D.U.j.Q ! Q / / ! ! / / Q / ^ h = : g ^ / / ~ E ~ ~ ` ] [ ] / / ~ / ~ E E E / ` 8.] ~ / ~ ~ 8.[ E ~ ` / E ! g./ / / ~ E E ` [ / / / E ` ~ / h R R / Q p 1 - U 3X7X;.K K ~ ` ] ` ] ] ] h.[ ( E E E ] h.] ` ( ` ] 9.] ] ] ] E E ` ] ] ` ] ] ] ] ` E ` ` ] ] ~ R h ! / E ! g 1 2 m | {.B.) [ ] ` ] 9.` ! ! R a R R R Q ! g 1 # # + ; g ! ^ a a h ^ h h h 8 g ^ h g h g h 9 a h R ^ g r g ! ^ / ^ h h h R h ^ ^ ! h R h ^ ! h h ^ / ^ R R R h g u & $ - +.>.E R ! ^ h h 8 g h h h g p g h h g g g g g g g g h h h h ",
"w w w w w g g g g w d d g g h h h e w d g 1 1 w w w w d g g g g g g k ^ 2.s.6.^ g g g g g g g h h h g h Q N.nXAXZXBXL.k.Q R R R R R R R R R h R ! ! E _ ' ` E h R R R ! ! ! E ~ ~ ~ ~ ~ ~ ~ ' y.OX2X>.' / ^ ! E E ~ E $.{.*X.X$.E R E E ! ^ ^ h V ) i. X*.&.w.h.8./ / ] [ / / / E ' ,.%XdXlXhX>Xy.( R ! ! ! Q / ` ` ~ ! R R ~ ] ] [ ' ' [ [ [ [ [ ] ] ] ! h 8 1 1 8 a E ` ] [ [ [ ] ] ~ J R E ~ ~ ` ` ~ ` ~ R E ~ ~ ~ E E ~ E E E E E ! ! E E ! ! ! h < : W A.D.A.D.z.! E / / / ! ^ Q Q E ! ^ g : : h / ~ E E / ` ~ ` ] ` ~ ~ E ~ / E E E E / E / ` ~ / ~ ~ ` ` ` [ ` ~ ~ R ] / E / / / ~ ] ] ] ] / E ` / ^ h R R Q ^ p 1 - D +X7X:.( ~ ~ ` ] ] ] ] ] [ ] E ` ] ] [ [ [ ] ] ( ` [ 3.[ ( ] ] ] ~ ` ] ] ] ] ] 9.9.] ] ] ] / / R R ~ ~ ~ / g : 2 B y.@X*.( [ 8.8.8.` ` Q R R a E R Q / h g < + o @ = h ^ R g 8 8 h g g h g h h h R R R ^ ! z ^ h h g h h h ^ ^ h h R 9 h h ^ ^ ! h ^ g ^ h 8 h ! ^ ^ ^ R a ! h 1 & O 2 %.;.~ R ! h h k 8 h h h ^ 8 h h z h p g g g h h h g h h h h ",
"w w w w w g g g g w u d g g g g g g w d d 1 1 1 w w w g g g g g g h ^ ^ ^ ^ ^ h 8 8 g g g h g h h g g h / A.bXBXnXbXL.z.Q R R R R ! R R h R R R ! ! E ( ' ` E h R R R ! E E E ~ ~ ~ ~ ~ ` ` ' ;.OX2X,.) / ^ ! E E ~ ( @.@X*X}.+.C J R R ! ^ ^ h J +..X<X*.&.m.h.8.Q Q ] ] / / E K $.}.9XjXlXlXtX@X+.K E E ! E / E E R V R E ] ] ` ` ` ` ` ' [ [ ] ] / Q R 9 : 1 1 8 9 ! ~ ] [ [ [ ] ` ~ J R E / ~ ~ E J ~ / R E E ~ / ~ ~ E ~ E E R E / E E Q Q R h h < : ^ D.A.D.b.s.! E / / Q E Q ^ Q ! R z g : 1 R / E E R ~ 8.` ] E ` ` E R ~ / E / E / / E / ` ~ E / / ~ / ` ] ` / g./ / ` ] E E / ] ` ~ Q / E ] ` 8.R h h R / h 8 1 8 U +X*X,.` ` ` ` ( ] [ [ [ [ ( E ] [ [ 9.` ] ( ( ` [ [ ] ] E E [ ] ` 9.h.] ] 9.[ ` ] ` ~ ` ~ ~ ~ E ~ ` ` ~ ! w : 2 } .X}.$.` ] E ` 8.` ` R 9 ! E ~ ! / ^ a g < # o @ $ c / h h h 8 8 8 8 g h ^ R R ^ ! ^ ^ h g z g 8 8 k h 8 h h 8 g R 9 R ! ^ ^ h 9 h 8 ^ a a h ! / ^ ^ h a h 8 = + O 7 e.*.] / 6.W W g g g h h h h h h z g 8 g g g h c c h g h c h ",
"w w 1 w d g g g g g d u u g g g g d d d d d d u d d d d w e e g g h ^ ^ z z z h g g g g g g h h g g h R g.N.L.L.L.L.S.g.! R R h h R R R R R R R ! ! E ` ] ` ! R R R R ! E E E E E ~ / ~ ~ ` ( $.}.$Xi.) E ! E E E ( $.{.8X8XXX=.( R R R ! ! W ! ' y.}.i.*.[ [ [ ] Q Q / / / ! E ) {.7XhXkXlXlXjXtX+X;.( ~ ( ( ] Q E R R R E ` ' [ [ ] ` [ [ ` ` ] ! h r 9 9 h ! g 8 a ! ~ ] ] ] ` ~ 8.E R J R ~ ~ E E E ! R E / ` ` ~ ~ ~ E E ! ! R R E E Q / ^ ! h 1 < u h / j.G.j.R R ! Q Q Q ! ! ! ^ Q ! z 8 : 8 R / ] E R R / ~ ~ E / ~ E ~ ` E ~ ` / / E / / / E E E / E E / / E / / / E / / E ! / / / Q ! R Q E E / ! / R R / h 1 1 1 | =X=X:.E R ] ] E Q ] ] ] ] [ [ [ ] ] E E ` ` ( [ ` E / E E ( ` ] E ] h.[ [ ] E E K E ` ( E ] ~ ~ ~ ] E ! g 8 2 m ].4Xu.' ( ` E ` / E 5 J ` ` 8.E Q Q h p 1 & + o # $ g R ^ ^ W R h h 9 9 R ^ / / ! h R h h h h a 8 8 g 8 1 1 8 g R ! a ! R h ^ c g h h h a R a R ^ ^ h 8 g g , > O - K e.' ! 5.z r r 8 8 g c c ^ g 8 8 8 g g g k c h h h g h h h h ",
"w w 1 w d g g g g g g u u d g d d d d d d d d u d d d d w e e g g h z z h h h g g g g g g g h h g g h R / k.S.S.C.C.N.g.W R R h h R R R R R R R ! ! E ` ` ~ E R R R R ! E E E ~ ~ ~ / / ~ ` ` $.{.2Xi.) ! ! E E E U ;.+X9X8X+X).@.E h h ^ ! ! E %.{.}.u.&.[ ] [ ~ E ! E / / Q E $.@XrX:XtXhXjXaXaX0XOX;.' ( ` ] E E E ! R R ` [ ' ` ` ] [ 9.` ~ ! h 9 g h R R ! R 9 9 ! ~ ` ] ` ~ ~ / ! R a R E E E E R ! R ! / ` ` ~ ~ ~ E E ! ! ! E ~ E Q ^ ! h g < > , h ^ / j./ a h R ! / / / ! R ! / ^ c 1 : 9 E ` ~ E E E / ~ ~ / ` / E E / E E 8./ E ~ ` ` E R E ~ / E E E E / E E Q E E Q E R R ! / ^ ! ! ! R R Q E ! ! ! 6.^ 8 : 1 X.>XrX,.E E ` ] E ] [ [ ] ~ E E / ] ] E E [ ] ( ] [ ] ] E ( ] ] ] ~ ] [ [ ] E E ] ] ` ] ] ` h.8.` ] 8./ R 8 6 7 P XX.X$.[ ] ` ` 8./ R R R ` ` ~ R Q ! R h y # X . o > g R ^ Q ^ R R ! R a R R / ^ R R R R ^ ^ h h ^ R R c g g k ^ R ! R ! ! h h g 8 h z ! R ^ R ! ! g g 8 g u < > = - Y $.( E 5.g r r 8 g c h g h h g g g g g g h h z c h h h h c h ",
"w w 1 w g g g g g g g u u g g d d d d d d d d d d d d d d e e g g h h h g g g g g g g g g g g h g g h R / k.A.S.N.C.N.g.Q ! R R R R R h R R R R ! R E ` ` ~ E R R R R ! E E E ~ ~ ~ E ~ ~ ` ` $.i.2X{.' E E Q E E ..[.=XrX*X*X+X{.$.F h z h J ) ,.1X}.*.[ ] ] ] E E R E / ] Q ( ;.3XrX=X%X*XrXhXjXhXrXOX@.( E ` E E ~ / ! E ` ] ` ` ` [ ] ` E R 9 9 J E E ` ~ ~ ! a 9 R / ~ ` ` ~ E / R R a R ! E E ! R R R ! ~ ` ` ~ ~ ` ~ E R R R E ~ ~ E ! R a p 1 = , R ! R / ^ ! h R ^ ^ ^ ! ! ! ^ Q ^ z 1 : a ~ 8.~ E E E ~ E / 8.8./ / / / ~ E ~ / E / / / / E / ~ E E / / / / E E E R ! ! ! ! R R ! R ! ! ! E Q / / ! / ! / ^ 8 < - | =XwXi.] / ` ` ` 8.h.g./ ! h r ! R E E E ] [ ] ] 3.[ ] ` ( ( E E / ] [ ] ] ] ] E ] ( ] [ [ 7.' ` E ` / 9 6 9 C >.$X].' 7.] ` 8.` ~ R Q ! ` E E / / R ! c 1 # . . o = h ^ Q Q Q ^ ! ! / ! ^ h ! h h ^ ^ ^ ^ g h R h h ^ ^ h g g h ! ! ^ ! ! h 8 g p h 5.^ R ^ ^ ^ h h c e : < > $ O 2 U $.` ~ ^ g g 8 g h h h g 8 h g g g g e g h h h z g g h h h h ",
"w w 1 w g g g g g g g p p g g d d d d d d d d d d d d g d e e g g h g g g g 8 8 g g g g g g g h g g h R / z.S.C.C.L.F.z./ ! R R R h h h h h h R ! R R ~ ` ~ E R R R R ! E ~ E ~ ~ ~ E ~ ` ` ` $.y.2X}.$.E ^ ~ / ) ;.$XrX=X[.XX$X$X{.) h g h J U (.1X<X*.[ [ [ ] ` E R ~ ] 8.E ' y.$X*X+X}.}.+XtXhXjXjX;X[.@.( ~ ~ E E Q E ~ ` ' ` ` ` ' ` R h 8 9 J ` ] ] 9.] ` Q 8 a R / ~ ` ` ~ E ~ ! R a R ! E E ! R R R E ~ ` ` ~ ` ` ~ E ! R R E ~ ~ E ! R a h u = 8 ! ! ! 6./ ! R ! ^ ^ ^ ! ! ! ^ Q ^ h 1 : h E 8.` E E E ~ E / 8.8./ / / ~ / E E ~ E / E E / / / E R / / E 8.` E R J E ! R R Q / E R R R R / / / Q R ! ! R / R 1 : - } *X;X{.` E E E 8.8./ / ! J 9 J R J ! R R ] 9.[ ] ] ] ] [ ` ` ] Q ~ [ 8.[ 9.9.` E E E ` 9.9.[ ` ~ K R R 9 6 7 } }.$X,.' ` ` ` ` ~ ~ R R ! 8./ / / ! R h h < o . o + = h 6./ E / / Q 6.^ R 6.R 9 a R h ^ ^ h a ! ^ ! ^ ^ / R h 9 g c c ^ h g p h h h z s.! ! ! ^ z p h c 8 : u $ + O 3 %.&./ E h h r g g g g h h h c p 8 g 8 g h h h g g h h h z h h ",
"w w 1 w g g g g g g g 1 p g g d d d d d d d d d d d d g g e g g g g g g g g 8 e g g g g g g g h g g g h W g.N.N.N.K.F.N./ R R R h h h h h h h R R R R ~ ` ~ ! R R R R ! E E E ~ ~ ~ E ~ ` ' ` ' ,.2XOX@.~ ~ ~ ` %.}.=X*XOXO.y.}.*XOX;.K h h K @.}.}.u.[ ] [ [ ] ` E E ~ ` ] E ) u.}.}.{.,.i.{.+X9XhXjXdX;XOX@._ E E ! ! R ~ ' ` ] ] ` E R J 9 9 J ~ 8.' ] [ 8./ ! 8 8 R / ` ' ] ` ~ ~ ! R h R ! E / E ! R R E ~ ` ` ~ ~ E E ! ! ! ! E ~ ` ~ E E R h p 1 a ~ / ! / ! R R ! ! ^ / ^ ! R ! / ^ c 1 : h ~ 8.` E E E / / ~ ` ~ / / E ~ ~ ~ ~ E / ~ E E / / ~ / / 8./ E / ~ ~ / ~ ~ R R ! / / / / R R E Q / Q Q R R ! ! ^ h 1 1 8  .=XrX].) K R ! ^ ! R R R h a a a V E E [ [ [ 9.` ` ` ] ] ` ` 8.[ ] ] ` ` 9.9.` E ` ` ` 9.9.` K E ~ R R a 3 B O.$X}.%.` ` / ~ E ] ] R R Q / E ! Q R R ^ h < + o o + = h Q E R Q Q R ! R R ^ ^ h g h h ^ h h h ^ / ! ^ ^ h a R a g 8 8 8 e g h h ! ! ^ ^ R ^ h ! a h ^ c 8 8 < & $ - I i.&.W E R h 8 h h p h c h z ^ g g g g h c g h g g h h h h h h ",
"w w 1 w g g g g g g g 1 p g g d d d u d d d d d d d d g g e g g g g g g g g e e g g g g g g g h g g g h R ^ ] [ N.S.A.k.Q R h h h h h h h h h R R R R ~ ` ~ ! R R R R ! E E E ~ ~ ~ E ~ ` ] ` ' ,.$X@X@.` ~ ~ ' (.7X8XOX:.+.+.;.}.$X[.*.E 9 ) i.OX,.&.] ] ] ] _ E E E ~ E E E ( %.u.>.*.*.u.i.{.OX8XhXjXjXrX}.@.I R h h R ~ 8.] ] ] ~ R V J R ~ ~ ~ ' ` ` ` 8.~ R 8 8 R / ` ' ` ` ` ~ E ! R R ! E ` ~ E R R E ~ ` ` ~ E E E ! ! ! ! ! E ` ` / 6.R a 8 8 a ~ / ! ! ! ! R ^ ! ^ ^ ! ! R ^ Q ^ c 1 : h 6.8.~ E E ~ / ` E E E ~ E E ~ ~ ` E R / E E E E / E / 8./ / / / 8.~ ` 8.E R E / Q Q Q ] E E ~ ~ Q Q / a a R ^ h p < ; 8 } =XtX[.U K h z z g a a h a g g 9 5 V V [ ' 7.9.` ] ] ] ` ' ' ] ] [ ` ` ~ ] ` E ~ 8.] ` ] ` E J E / 9 a a N P [.$X,.' ` 8./ E ] ] ~ E R Q ^ / a h h R ^ g < + o # $ 1 ! E R / / ! R a h ^ ^ ! h 8 g ^ ^ h ^ ^ ^ ! R ! h 9 9 R ! 9 8 8 1 8 p h h ! R h R ^ ^ ! R h ^ ^ g 8 , < & O 3 U i.[ ^ / ^ g r h h z ^ z h h h p g g g g h h g h g g h h z h g ",
"w w w w g g g g g g g g g u d d d d d d d d d d d d d g d g g g g g g g g g g g g g g g g g g g g g g h h R ( [ m.N.k.g.Q R h h R h g g g g h h R R R ~ ] ~ ! R R R R ! ! E E ~ ~ ~ ~ ~ ] ] ` ' y.2X$X;.` ` Y ;.+X9X=X{.+.' ' ) >.}.XX].@.S @.@XOX;.' ( E E ` ` E E E / Q ! R ( [ $.) &.e.e.u.B.<XOX9XdXlXkXyXOX| V h g 9 ~ 9.8.` E 9 5 R ~ ] 9.8.` ~ ~ ` ' 8./ R g g R ~ ' ' ` ` ` ~ E ! R R / R E ~ ~ E ~ 8.~ ~ ~ E ~ ~ E E ! ! ! ! ! E E Q / R p : 1 R E E ! ! ! ! ! ! ! ! ! ! ! ! ^ ! ! h 1 1 z / ~ E / ! E 8.~ E / R R E ~ / / ` ~ E E / / / / E R ~ 8./ E / / g.~ / / E E / / E ! ! / / 8./ E ! ! R a h ! ^ h h 1 : - } =XtX)...C 9 h g r 8 9 2 2 9 V 5 V N V ( ` ~ ~ E 8.] ] ] 9.] ` [ ` ` ` E E E ~ ~ ~ ~ ` ` E E E Q Q a 6 6 B O.*XOX*.] ` 8.Q ~ ] ~ J R / ^ ^ ! i 9 h R R 8 u & # # $ g ^ E ~ / E ! Q R ! ^ h h a 9 ^ ^ ^ R ! ! ! R a a a R R / / h h h p p 8 h z ^ h a ! ^ ^ h 8 h z h g 1 = $ O = A t.e.] W ^ g e z z c c z h h z p 8 g g h h z h h h h h g c ^ k g ",
"w w w w g g g g g g g g g u u d d d d d d d d d d d d g d g g g g g g g g g g g g g g g g g g g g g g h h R ` [ w.[ / Q ! R h g g h g g g g h h R R R ~ ] ~ ! R R R R ! ! E E ~ ~ ~ ~ ~ ` ] ] ' ;.OX$X,.) ' @.[.=X;X+X;.[ [ ` ( $.y.XXXX).-.).$X}.@.` E E E ` ] E E E / Q ! R E [ ' ) [ &.&.e.B.B.<X2X9XjXlXkX,X).U R h a E ` ~ E J 9 R ~ ] 9.7.' ` ~ ~ ` ' 8.` R a g R / ` ' ` ` [ 8./ ! R R ! ! E E E E ~ 8.` ~ E E ~ / E ! ! ! R R R E E ! ^ z p : 8 R K E ! Q Q ! ! R ! ! ! ! ! ! ! R R g : 1 h E ~ / / ! E ~ E ~ ~ R J R E E E / R E ~ / / / / / E / 8.` / E E ` ` / ~ ~ E E / / E Q ` ~ 8.8.Q R 9 9 a ! ! ! h ^ g 1 - P %XtX+Xo.Z M N V N V V m B ) +.@.$.S S C V 9 ! / ` ` E ] ] ~ ` ` ' ] ] ` ~ ] ] ` E ] ] ] ` ` Q / ! 9 8 7 A XX$X{._ E E E R R ] E J Q s.h a a a R R ! ^ z g < # o $ h R E E R R Q / / 6./ h R ! h ^ h h g 9 h h a 9 R ! ! ^ ! R R R R ^ ^ a 8 8 g g g h g g 8 8 g g g g < O O = 3 @.t.[ E W W r g ! h h h h h h g 8 g c g h c g h z h h g 8 c c g g ",
"w w w w g g g g g g g g g u u d d d d d d d d d d d d g d g e e g g w g g g g g g g g g g g g g g g g g h ! ` &.&.( R h h h h g 8 g g g g g h h R R R ~ ] ~ ! R R R R R ! E ~ ~ ~ ~ ~ ~ ~ ` ` ' +.{.$X{.+.+.].&X:X=X}.+.[ [ ] ] ` %.{.*X=X=X&XOX>.' ` / E ~ ` ] E E E / Q ! R ~ ' ' ' [ [ ' 0.B.B.i.<XOX9XjXzXjX;X_.) R a R R R V V E ` ] [ 7.7.' ` ~ ~ ` ' ] ~ ! h a R / ` ` ` ` 9.8.E R h h h R R R E ` ~ ` ` ` E E E E ! ! ! R R R R E ! R ^ h p , 9 E I ~ ! Q ! ! ! R R R R R R R ! R h g ; : h ! E E ~ / E E ` ~ E ~ E R E / / E R / E E / / ~ E E E E ~ E E E E 8.E E E / ~ 8./ E ~ ~ / / E / Q h ! ! R ! R a ^ g 1 , A *XhX;XoX)./.-. .| | | { o.XXoX&X*XXX_.| N 9 r ! E / ` ~ E ~ ] 9.9.` ` ] ` ` E ] [ 8.E ` h.~ R ! 9 4 9 I ;.$X}.@.) ` E R R E ` / E ! ! ! 9 a / / Q Q ^ h p ; o . + h ! / / E Q / R R ! ! ! ^ ! R h ! h a ! ^ R R a R R ! ^ ! ! Q / / / ^ h 8 8 1 1 e 8 1 : = w 1 1 < < < ; = 2 C {.t.E ! W h r g g g h h h g g g g h c p h ^ g h h h g p g x g e g ",
"w w 1 w g g g g g g g g g u u d d d d d d d d d d d d g d g e e g g w w g g g g g g g g g g h g g g g h g R ' e.0.( J a g h h g g g g g h h h h R R R ~ ] ~ ! R R R R R ! E ~ ~ ~ ~ ~ ~ ~ ` ` ` $.i.$X[.@.=.+X;X;X+X>.' [ ] ` ` ~ ) >.$X;XtX=X[.$.` ` ~ ~ ` ` ] E ! E ~ E R R ` ' ' ' [ [ ' [ e.B.B.B.i.OXtXzXzXzX=X_.U F h a 9 9 R ` [ 7.[ 7.[ ' ` ` ` ` [ ] ` ~ R a R ~ / ` / ] 9.` R g g 8 8 a a J E ` ` ` 8.` E E E E ! ! R R R ^ Q / Q ^ z h p 1 9 ( T ` E Q ! R R R R R R R R R ^ ! h g : 1 z R E E E / / / 8.E E 8./ E E 8./ E E / E E / / E E ~ E / ~ R R E E / R E ` / / / E R E ~ / ` E R R R / / ^ ^ R R ! g < , P +XjXjXhXhXhX;X=X=X*X*XoX%X,XaXjXkXtX9X[.U N V F ! / E E ~ ~ ~ ` 8.` ` ` ` ~ E ` ` ` E ~ 8.E J a 9 9 N | }.7Xi.' ( ` ` ~ 8./ ~ / ~ R h ^ h ! g.! E ! h h u $ o . + g ! / / / g./ ! ! ! Q / / a a R R R h ! R h h R R R ^ ^ R ^ 6.Q R / ^ ! h h 8 8 8 = = = = : < ; $ & & O - m *.<X*.Q ^ R 8 r g g h ! ^ h g g h g h g g h h g h g g g p g e e g g ",
"w w 1 1 w g g g g g g g g u u d d d d d d d d d d d d g g g e e e g w w w d g g e e g g g g g g g g g h h R ' e.q.` R h g g g h h 8 g g h h h h R R R ~ ` / ! ! R R R R ! E E ~ ~ ~ ~ ~ ~ ~ ` ` $.i.$XXX-.).&X;X*X].$.' [ ] ] ] ~ E +.}.=XtX7X,.' ` ` ~ ~ ` ` ` Q ! ! E ! R ~ ' ' ' [ ] [ [ ` [ m.B.B.u.:.+XhXzXzXfX%X=.C 9 9 a J E ' 9.w.7.' ' ' ` ` 8.` ] ` ` ~ ! a R ~ ~ ` / ` 8.~ h g 1 : 8 8 9 R Q / ` ` ` ~ ~ / ~ E E ! ! R ! / ` ] / / h g 1 8 9 ' %.' E ! ! R ! R ! ! ! ! ! ^ ^ ! h g 1 d z R ~ / R Q / E E E E E E / / / ] / / E E E E E ~ / ~ E ~ E E / / E E E ~ / / ~ E R E / ` E R R R h R Q ^ ! ! R ! ^ z 1 : A +XaXlXzXzXzXzXlXjXjXjXiXpXlXlXsXzXlXjX;X[. .B V 5 E V ` ` ~ K ~ 9.] ` 8.` E E ~ E ~ E E ` 8.R R R V Z (.*X1Xe.[ ` ' ] ` / E ~ ` E a ^ h ! ! / a E R R ! 1 $ o . $ g h ! E ! Q / Q R ! Q ! / R R / ! ! 9 a h R R ! ^ ^ ^ ! h ^ ! 9 R / / ! a g g h g 8 c g 1 g g 1 ; $ $ O 2 A {.B.) Q ! h 9 h h g h ^ ! z h g g g h g g g h g h h h h p 8 8 g g g ",
"w w 1 1 w g g g g g g g g u u d d d d d d d d d d d d g g e e e e w w w w e e e e e g g g g g g g g g h h R ' q.q.( R g g g g g g 8 g h h h h h R R R ~ ` / ! ! R R ! R ! E ~ ~ ~ ~ E E ~ ~ ` ` ' y.*X%X`.&X-X;XOX*.' ` ] [ ] ] ~ E ( #._.%X}.%.` ` ` ~ ~ ` ] ` Q ^ ! E ! J ` ` ' ] ] ] ] ` ` ] w.M.M.*.@.:.%XdXlXzX0X`.+.V i R E ] ] [ [ [ ' ' ` ` ` 8.Q E ~ E ! R a R ~ ` ` ` ` ~ R 8 8 g l c h 8 9 ! E ` ` ` E ~ ` / Q Q ! ! ! ! ~ ` ] / ! h p 1 8 9 0.u.` ! ! R ! ! ! ! ! ! ^ ^ ^ ^ R h g 1 d h ! 8./ R ! / E R R E R R / ~ R E E E E R E / / ~ E E E E / / / / / / E E 8.8.E E / / / ` ] / Q Q ! R ! ! / g.R J ~ x < = A +XjXlXzXlXzXzXzXlXgXjXaXaXsXsXsXzXlXlXjX,X$X .S N E E / ` ~ ` 8.9.~ ~ ` / R J E E E E E ~ E 9 9 h I -.=X=Xi.$.[ 9.9.9.~ E E 8.] J R ^ 9 h / 8.E E J ! z u $ o . @ g ^ ^ ^ ! R ! ! R ! R R ! R 6./ / / ^ / / ^ ! ! R h h a h R R a ^ / R R h ^ h h R ^ s.h g h z u < > > , M ;.}.*.` / ! R h h h g h ! ^ z g g 8 g h h h g h h h z h h g g g g g g ",
"q q 1 1 w g g g g g d d d u u d d d d d d d d d d d d d d g g g g d w w w e g g g g g g g p g g g g g g h R ` 0.$.E h g g g g 8 8 8 g h h R h h h R R ~ ~ E ! R R R R ! ! E ~ ~ ~ ~ E ~ ~ ~ ~ ` ' >.*X;X&X:X0X*X,.[ ] ( ] ' ] ` ~ E E ) *.{.y.$.` ` ` ` ` ` ` / Q Q ^ ! R R ' ` ` ] ] ] ` ~ ` ` 9.w.w.e.$.@.).;XlXxXzX9X,.S J ` ] [ ` ` ] ] ] ` E E ` ] E ! ! R R h 9 ! ~ ` ` ` ~ ~ R a / b.G.D.j.h 9 h E ~ ~ ~ E ~ 8.` / / / E ! E ~ ` / E ! h g 8 1 9 $.i.) R ! ! / / ~ E E ! ! ! ! ! R h 8 ; 1 h / / ~ E E E / E R E E / 8.~ E ~ E E E R R / / / ~ ~ / / 8.8.~ ~ / Q E ~ / ` E / 8./ ~ ~ / / ! R R R ^ / 6.6.R ! ^ g < : P $XjXzXzXlXfXlXzXjXpXjXsXsXlXlXsXzXlXlXlXkXtX$X=.S V R a J E ` ] ` ~ / E V V J J a 9 R a 9 9 3 N S :.%XhXwX>.' ` ] E J / ] Q ! R J a h R R E 8.6.R R ! z g + . . + g ^ ^ Q Q R R R ! / ! ! 6./ / / a R s./ R h a h a 9 R ^ ! h R ! ! a a ! h h a R ^ ^ ^ h R h p 1 = = - 3 +.{.<X[ W ^ h h g g h k k g h g p 8 h h z h g h c h h h g g g g g g g g ",
"d d d d d g g g g d d d d 1 d d d d d d d d d d d d d d d d d d d d w w w d g g g g e g p g g g g g g g g R ` ' ' R g g g g g p p g h h h h h h h R ! ~ E ! R R R ! R R ! E ~ E E E E E ~ ~ ~ ` ' ;.+X0XfXiX=X{.+._ ] ] ] ` ` ~ ~ ~ E ( $.u.e.' ` ` ` ` ` ` E / Q Q ! R R E ` ` ` ` ] ] ` ` ` ' [ w.w.m.&...;.$XhXzXxXdX`.D C ` [ ` ` ] ] ` ` ~ E E ~ ` E R R ! ^ g 8 R ~ ~ ` ` ~ E ~ N.mXGXKXCXF.g.p a E ~ E R R E / 8.` ` ` E E / / ~ E ! ! z h 8 1 8 T }.+.E ! ^ / ~ ~ ~ ~ Q ! ! R R R ^ g = e ! ~ / 8./ E ~ E E E ~ ~ ~ ` / / / ~ E E R E ~ / 8.8./ ~ ~ ~ / ~ E E ! ! E E / / R / ` ~ ~ ` / ^ R h a ! / / / ! h h 1 ; ; D *XjXjXhX:X=X;X9X;X;XrX,XhXkXjXlXzXlXpXjXaXjX:X`.-.U 9 9 a R E E ~ E E F F E / R R g p i i a V D (.&XhXhXoX@.' ` ] ! R ^ R R R 9 R R E / E R ! ! ! Q / ^ 1 o . . $ z ! R R h h ! a / / R / / ! ! / R ! ^ ^ h h R R R R 6.6.6.^ h h ! ! Q R h h g h g g R 9 g h h y $ = 2 I {.{.*.Q r W h g g h h h g 8 g g 8 g h g h g 8 z h h h h h g d 1 w g g 8 ",
"d d d d d g g g g d d d u u u d d u u u d d d d d d d d d d d d d d w w w d g g e e e g g g g g g g g g g h E ` K h r g g g g g g g h h h h R h h R ! / E ! R R R ! R R E E E E E E E E ~ ~ ~ ` ` %.XX0XjX;XOX;.) ( ] ] [ ] ` E E ~ E ( &.e.&.' ` ~ ` ` ` ` E E E E E E E ~ ` ` ` ` ] ] ` ` ` ` [ 9.w.m.[ ' +.{.rXlXxXlX=X:.) ' ' ` ` ' [ ` ` ~ ~ E ~ ~ E R ! E / h 8 h E ` ` ` ] ] S.AXPXPXKXBXL.k.h a / / E R R E E ` ` ` ` E ! / ~ R R ! ! h R 8 : 8 ' 1X>.E R ! ^ E ~ ` / Q ^ ! R ! ! ^ g ; e R / / 8./ / / ~ E ~ ` ` ` 8.8.~ E E E E E E ~ / / ` ~ ~ ~ E / ] ` / ! E / / / / R E / / ` ` E Q ! h ! 6./ R R h 8 : < $ = U *XtX&X/.-.=.@.@.>.,.@.| ,.*X,XsXlXaXaXlXaXjXjX:X;X[.Z 9 6 6 R R E R J R R ] ] R h 8 1 , 9 V } XX;XhXjX8X,.&.w.[ [ ] W h h / ! R ! 8./ R R R 6.a E 8.Q ! 1 o . o ; z R ^ ! a / 6.^ h R ! s.! R 9 a ! h R ! 9 9 ^ ! Q Q ! ! ^ h a a ! R h h ! R g 8 8 W W h ^ h y ; $ - m ;.<X@.) E h g h h h k h g 9 r h g g h 8 g g h h h g g h h h g 1 1 w g g 8 ",
"d d d d d d g g g g g d u u u u u u u u u d d d d d d d d d d d d d w w w d g g e e e g g g g g g g g g g g R K K 9 r g g g g g g h h h h h R h h R ! / E ! R R R ! R R E E E E E E ! ! E E ~ ~ ` @.`.;X:X+X,.' I ` ~ ] ] ] ` ~ ~ ~ E ( &.e.$.' ` ~ ` ` ~ ~ E E ~ ~ E E E E ` ` ` ` ` ` ] ~ ` ` ] 7.9.[ [ [ &.u.OXtXzXlX0X[.@.' ' ` ` ` ' ' ( ~ E R E ~ E R ! E / ! p h ~ ` ~ ~ E 3.bXLXIXPXGXnXN./ h ! / ~ E R R R R ~ ~ ~ ~ E ! ! ! ! ! ! z h ! h : , T <Xy.Y ! ! / ~ / ` / Q ^ ! R ^ ^ ^ g < e R ! E / ~ E ~ E E E / ` 8.8.8.E R E R R E / ` / E ~ E ~ / E ~ ~ / 8.E ! ! / Q ! ! E R E ~ ~ E ! R h ! ! R R ! ! 8 d s > - } wXyXOX@.+.&.[ _ &.[ E V N D [.;XhX:X9X;XtXhXlXzXjX;X[...N a h R E J E ~ E ~ E 9 8 4 4 6 3 | OX,XjXlXhXOX@.[ 7.` ` ! 8 g R R ! R ! E Q ! h h E R / Q R h 1 o o o = z ^ 6./ R ! / R h R ! R a R h a ! 9 h h h h R / / E ! a a 9 h R ! h h h ^ h 9 9 h ^ h g g 1 > + = 4 D }.{.+.E ! R h R ^ ^ h h h h c h g h p g z c z c h 8 h z h e 1 1 1 g g g e ",
"d d 1 d u d g g g g g g u u u u u u u u u u d d u u u d d d d d g d w w w w g g e g g g g g g g g g g g g e h K K V 9 p g g g g g h h h h h h h h R ! / E ! R R R ! R R E ! ! E ~ E ! ! ! E E ~ ( @.OX&X%X,.) ` ~ ~ ~ ` ` ` ` / ~ ~ E ( &.*.' ` ~ ~ ` ~ E E E ~ ~ ~ ( E ( ` ` ` ` ` ] ` ] ` ` ` ` [ [ [ ` ` 9.w.>.XX0XjXtX%X:.$.` ` ` ` ' ' ` ` E R E ` ~ E R ` / ! g h ~ ` ~ ~ ] C.GXPXIXPXHXcXN.6.R R / E E R R R R ~ ~ ~ ~ R R ! R ! ! R R R ! z u 1 C {.{.+.~ E ~ R E ~ Q Q Q ! ! ! ^ z w 1 g R ! ! ! R R E E E ~ ` 8.` ` / E R E E E E ~ / / ~ ~ ~ E E / ~ E / g./ E ! ! Q ! J J J R ~ ~ / Q ! R R a R R ^ h 1 s y < 6 | wXwX{._ ) [ ] _ [ 9.Q a 8 9 I :.$X*X[.o.XX0XjXzXlXpX;XOX@.V h E E E E ~ ~ E R a 4 3 N S } @XtXjXzXhX7X,.) ' [ E E R 8 g h R ! R E Q g.! a R / E ` / ! 5.d # . o > z ! ! ^ R R / ! 9 ! ! R R ! R R ! R ! R ! R ! / / ~ ! R a a ! / ! ! ^ h h g 8 W ^ ^ R g 1 < & + = V ,.@X*.' E ! R ! ~ / ! ^ h a ! ^ h h z h z ! ^ z h h h h h g 1 e 1 1 w 1 g g ",
"d d 1 1 u d d g g g g g u u d d d d u u 1 u d d u u u d d d g g g d 1 w w e g g g g g g g g g g g g g g g w h ` ' E 9 8 p g g h h h h h h h R h h R ! / E ! R R R ! R R E ! ! E E E ! ! ! ! E E ) ,.$X*X).+.( ! ~ ~ ` ` ` ` ` ~ E ~ E ( $.$.' ( ~ ~ ` E E E E E E ~ E ( ` [ ` ` ` ' ] ] ] ` ` ` ` ] ] ] ` ` 9.7.$. .`.;XtX=XXX@.` ` ` ` ' ' ' ` R R ~ 9.' ~ E 8.8.! a h E ` ~ ~ h.mXLXLXPXPXHXbXN.z./ R ! R R ! ! ! E ~ E E E R R R R R R R ! ! / h g 1 V ;.@X,.` ~ / R R E E Q ^ ! R h ! h 1 1 g ! ! R ! ! R E E R E ` 8.8./ E J R ~ / / / E E / / ~ ~ E R E ~ E ~ / E R R R R R h R J E ` ~ / Q Q ^ ^ / ! ^ ^ 8 1 < < y 4 X.qXqX>._ E ` 9.[ [ / ^ g d g 8 V ' ' I S } XX:XsXgXgXjXtX+Xo.C E E E J J R a J V V A  .[.*X,XiXaXjX=X,.$.I ' ' E E r 8 h R ! R 8.8./ 8.R h ! E ` 8.E E 6.d + . o < ! ! R ! / / 6./ ! / R R ! R R ! R a ! ! / 6.! R R E ! R a R ! Q ! ! ^ h h g g h g R h 8 < & $ o - | }.}.T ] ] / R R R ^ z z h a R h a g z z h ! ! z h c ^ h g 8 8 g 1 1 1 w g g ",
"d d 1 1 u d d g g g g d u d d d d d d 1 1 d d d u u u d d d d d d d 1 w w w w g g g g g g g p g g g g g g 8 J ' &.( V 8 p g g h h h h h h h h h h R ! / E ! R R R R R R E E ! E E E ! ! ! ! ~ ( ;.OX*XOX;.) E R ^ / ` ` ` ] ` E E E E ' $.$.' E ~ ` ~ ~ ~ ~ E E ~ ` ` ( ` ' ` ` ` ' ] ] ] ~ ~ ~ ` ` ` ] ` 9.9.` ( S  .OXrX,X+X;.` ` ` ~ ` 7.9.~ R R ` 9.' ` ~ ` ~ R 9 a E ~ ~ ~ N.ZXPXPXPXKXGXmXV.g.! h a ! R ! / / ~ ~ E E E R R R h R ! ! ! R Q h u = V *.@X].) ` ` ! / / Q ! R h a g h g 1 1 g R ! R ! ! Q ! R R E ~ / / E J R E ~ / / / E E ~ ~ E E E E E E ~ / E E ! ! 9 ! ^ / Q ! / ~ E E / / R R R ! ^ h 8 p 1 1 : 4 ;.qX1X$./ E ~ [ 3.3./ h < < d 1 1 1 g a J K | $XhXjXgXlXlXhX%Xo.S V V N V C B U U o.[.*XtXtXhXaX:XtX}.&.] ~ ` ` / W r h / E E E h.] / E R h R ~ ] ~ ~ 6.^ y # o # < ! E ! ! / / ! a ! Q 6./ ^ ! ^ ^ ! a R / 6./ a a ! / ! R Q / ! / 6.! R h 8 h k h h h 8 : y < = O N ].$X,.' / Q ! R J a ! h p h h a g 8 a z p h h h h h h h g g g 1 1 w 1 1 g g g ",
"d d d d d d d d g g d 1 u d d y 1 1 d d d d d d u u u d d d u u u u w w w w e w g g g g g g g g e u 1 1 1 8 J $.t.$.J g g g h h h h h h h h h h h R ! ! E ! R R R R ! ! ! E E E R R R R ^ ! K $.].*X7X_.@.] ! ! ! E ~ ` ( E ~ ~ E E E ' $.*.' E E ~ ~ ~ ~ ~ ~ ~ ~ ` ` ` ' ` ` ` ` ` ` ` ] ] ` E ~ ` ] ] ~ ` ` ] ] E ) ;.OXwX$Xy.' E ~ E ` ] ` E R ~ ' 7.' ` E ` ~ ! 9 a E ~ ~ ~ N.ZXPXLXKXHXZX!.N.8.R a a / ! R ! ! / / ~ E E R h h h h R R R J ! g 1 > 9 +.@X@X+.( ` / ! ! ! ! R h h h h z 1 1 g ! / ^ ! E ! R R E / / E ~ E R ~ / ~ E ~ / / E / / E E ~ E E ~ ~ / E Q ! a 9 Q Q ! Q E / ~ ~ E Q ! ! ! ! h h g p g g : : 2 ;.wX<X&.[ / E / ] [ / g < < < ; : 1 a ~ E a V $.3XtXjXzXlXjXiX&X-.S C C S } O.).oX;XiXjXjXpXaXhX;XOX*.[ ` J ! ~ E 9 R E ] 8.] ` ` ' ~ ~ E R ~ 9.] E ~ 6.z > o o + 1 / / R E / R R R ! ! 6.6.R ! R R ! ! ! ! / ! R R Q 6.Q / g./ ! 6.8.R h 9 g c h k ^ h 9 , < < = 2 | $X@X@.( / / ! ! ^ ^ h h g z h a h g h ! h ! ! h h h g 8 1 g 8 1 e g 1 w g g g ",
"d d d d d d d d g g d 1 1 1 u u d d d d d d d d u u u d d d u u u u w e e w w w g g g g g g e e e d d u g a K %.t.$.K h g g h h h h h h h h R h h R ! E E ! R R R R ! ! E E E ! ! R R E ! E Y >.+X=XOX;.$.] E R ! E ~ ( ( E ~ / E E E ' 0.&.` E E ~ ~ ~ ~ ~ E E E ` ` ` ' ` ` ` ` ` ` ` ` ] ` ~ ~ ` ] ] ~ ` 9.M.k.g.[ $.;.}.@Xu.' ` ~ E ~ ` ~ R R ~ 7.7.' ' ~ ` ` / h h E ~ E ~ S.AXHXZXHXGXbXS.N.z.] R ^ ! R R R R ! / E E E R h h h h R R R R R g 1 > 9 ) @X3X;.) ~ / / Q ! R R h R h z h 1 1 h ! Q ! ! E ! ! ! E 8./ E ~ ~ R E / / E E R E E E E / E / E E ~ / ` / E ! R R E E ! / Q E ~ / Q ! R ! ! ! a a 8 g g g 1 1 9 ,.qX,.) ] / E ] Q / R p < & ; < : g ^ ^ ! R h R +.[.;XlXzXlXlXjX;X).o.-.).%X;X,XiXaXsXlXsXaXpXtXOX%.&.[ E J ! E ! R ! ~ 8.[ ] 9.m.' ` ~ ~ ` ` ] ' ] ` ^ p > o o $ 1 E E E 6./ R ! ! / ! R ! a ! R ^ R R h R / / R R ! ! R R ! ! ! / / ! R h h h h ^ k 8 p p > = - B ].*X,.) ] ` ` / ! ^ z g g h z a a g h g h h ! h h h h p 8 8 8 1 e g j g g g g g ",
"d d d d d d d d g g d 1 1 1 p g d d d q q q d d u u u d d d u u u u w e w w w w g g g g g g w w w d u p g g K %.y.%.( h g h h h h h h h h h R h h R ! E E ! R R R R ! ! E E E ! ! ! E E E K ..{.*X*X(...) ` E R E E ~ ( ( E ~ / E E E ' q.&._ ! E ~ ~ ~ E E E E E ` ( _ ' ` ` ` ` ` ` ` ` ] ` ~ ~ ` ` ` ~ ` M.S.k.z.k.[ U ;.y.e.' ~ ~ E E ~ E R R ~ 7.7.7.8.` ' ` / h R ~ ~ E E N.ZXZXbXBXmXk.! 6.A.k.! R R R R h h ! E E E ! R h h h h h R R R R h y > 9 U {.4X{.' E Q / / ! R R R R h ! h 1 1 h ! E ! ! E ! E / / ` / E ~ ~ R E / / R R E E E R E ` ` 8.~ ~ / / 8.8.E E R E E E E / / E / / E ! R R R R h h g g x g 1 8 V {.qX;.) ` ~ Q Q R h z u > & ; ; = h 1.^ R ! z g r Z (.kXzXzXzXlXlX:X;X:XiXaXjXjXzXzXsXpXaXpXhX$X@.) [ ` J a ^ ! ! / / ` [ ` ` 9.h.] ` E K 9.[ ` ] [ E a p > o o $ g / ` / / / R ! / ! R a 9 h ^ R ^ h h R R R ! R R ! R R a R ! / ! ! R a a R ! ^ 1.h 8 h p = = 2 } $X@X+.` ] ] ` E ! ! h g g g h p a h h a h ! ^ h h h g 8 g g e g g g g g g g g g ",
"d d d d d d d d d d g p p p p p g d d q q 1 1 d u u u d d d u u u u w w w w w w e e e e e e 1 w u d p p g g E $.t.%.( h g h h h h h h h h h R h h R R ! E ! R R R R ! E E E ! ! ! R ~ E E U >.@X*XOX@.' ` ~ R R ! E ~ ~ ( E ~ / E E E ' q.&.( ! E ~ ~ E E E E E E ~ ( ( ` ` ` ~ ` ` ` ` ] ` ` ` ` ` ` ~ ( ] N.N.g.g.g.` E ( ' ' ` ~ ~ ~ ~ E R R E ` ] 7.9.` ~ ` 8.^ h R ~ ~ ~ E m.BXBXK.K.S./ 9 ! G.S./ R a ! ! h h ! ! E ! R R R R h h h R R R W h u < p ( :.3X}.$.E Q / / ! R R ! ! ! ! h 1 1 h ! E ! R ! ! ! / / / / ~ E E E E Q Q ! E E E E / E ~ / ` / E ~ ~ ` / / E R E E ~ / E ~ ` / / ! R R R R ^ ^ ! 8 g ^ p g 8 C <X3X+.] ~ ! h h g g l g < & & @ = k / Q R Q ! a p 4 T }.tXlXxXlXlXlXjXlXsXsXlXzXzXlXlXlXjX:X*X,.B ` 7.` J 8 R R R ^ R E ] ] ] ] ` E E ( ` ] m.` ] ] J a p < # o + g / 8./ ~ E R R / ! R a R ^ ! h 8 h h h R R R R h ! ! R R ! R R ! R a 9 a R h h ^ ^ h h 1 ; - N /.>Xi.) / / / E ! R h g g g g h g h h h a z ^ ^ h h h g 8 g g g h h e 1 g g g g 1 ",
"d d d d d d d d d g g p h R R a p p u < q q 1 1 u u u d d d u u d d e w e e w w e e e e e w q 1 u p p h h g J ' t.%.( a h h h h h h h h h h R h h R R ! E ! R R R R ! E ~ E ! ! R E E E ( @.}.*X$Xy.) ` ~ ~ R R R ! E ~ ~ ` ~ / E E E $.e.&.( ! E ~ ~ E E E E E E ~ E ( ` ` ` ~ ` ` ` ` ] ` ` ` ` ` ~ E ( [ N.M.` / g.g.R J E ~ E E ~ / ~ E R R E ~ ` ` ' ` ~ ` ` ! p h E ~ E E M.nXBXT.K.z.^ h s.Q.L.g.R h ! ^ h h ! R R R R ! ! h h h h R R R W h y < p _ @.OX@X%.E E ^ ^ ! ! ! Q ! ! ! h 1 1 h R E R R ! R R / E E / ~ ~ E R E / E ! E / E ~ / / ~ / ` / E / ~ / E ~ E R E ~ / ` ~ ` ` / Q R h R ! ! / ^ R a h ^ p g 4 S <X}.[ / E ^ h r h g g j y & + @ 1 ^ ! ! ! ] E R p p R U [.rXzXlXsXsXlXlXsXlXlXgXgXpXjXhX9XXX,.) 5 ~ 7.` R 8 g a h h R E ~ / / / ~ J E ` [ 9.w.` ] J R ! p < % o $ h ~ ` / ~ E ~ E R ! / R ^ / ^ R 9 h R R R h ! ! 9 h h h R R R R ! R ! R ! R ^ h ^ ^ z p 1 ; 4 D XXqX$.E Q Q E ! ! R h g 9 g h h g h h h h z g p h g g g e g g g g g 1 1 e g g g 1 ",
"d d d d d d d d u p p a R ~ E a g g y < < 1 1 1 1 u u d d d d u u u e w w w w w e e w e e w 1 1 u p p h g g a ( *.$.E a h h g h h h h h R h h h h R R ! E ! R R R R ! E ~ E ! ! R E ! E ) ;.+X*X}.%.` ~ ~ ~ E R h ! ~ ~ E ~ / / E E E $.e.&.E E ~ ~ E E E E E E E ~ E ( ` ` ~ ~ ~ ` ` ` ] ` ` ` ` ` ~ Q ~ [ M.h.] / g.g.h 8 a R E ~ ~ ~ E E E E E ~ E E ~ ~ ~ ` ~ ! p 9 R E E E h.bXBXbXT.V.! g s.Q.D./ ^ h ! ! h ! ! R R R R ! ! R ! h h h R R h g > > p ] | _.@X>.E E R ! ! ! ^ / ^ ! ! g : 8 h ! E R R ! R R ! ! ! E ~ / E J E / ! E ~ E E / E / ~ E ~ E ~ / ` ` E J E E E / ~ ` ` ` ~ E Q R a R ! ! / ! R a g h u u 2 T 1X}.' Q / / h r h g g g < # $ 1 h / E R / ] / / h u h R ) @XtXjXaXlXlXlXlXlXlXjXjXaX:X7X}.>.&.Q 8 R 8.E a 8 g h ! R Q ~ ~ / / E R ~ ` ' 9.9.[ ] ~ 9 R h g < # o & h ~ 8.8./ E E E 6./ / a a / R h g h ^ R h h ^ h a g a ! ^ R ! Q / / Q ! h h 6.R ^ ! 8 , 1 ; 2  .7X$X_ R R Q ^ ^ ^ ^ ! h 9 R ! ! h h h c ^ z p h h 8 8 g g g g g 1 1 e e g g w g g ",
"1 1 w w 1 1 1 w d 8 J Y ' ' E h e q < q d y s s s d p u u d d q 1 8 p u u u u u u 1 1 1 1 1 1 1 e g g g g e 9 ` q.q.' J a g h g r h h h R h h h h R ! / / E R R R R R R E E ! E E E Q ( @.OX*X$X>.' ` ~ ~ E R R R R E E E Q Q E E E ( $.$.' E E ~ E E E E E ~ ~ ~ ~ ~ ~ ` ~ ` ` ~ ` ` ` ` ` ` ~ ` ` ~ E E 8.N.k.] / / 6.! h h R E E ~ ~ E E E E ~ ~ ~ ~ E ~ / ~ ~ R h a R E ~ E ` N.!.Q.L.A.2./ A.Q.s.g 8 h h ! ! ! h h h h h h h h h h h h h h h g : = p ~ ' >.OXi.( R a R ! R ! ! R h h 8 : g h ! ! ! R R R R ! Q E / / ! J J ! R E / / R E ~ / / E E ~ ~ ~ ~ / ` K E E E ~ ` ~ E / / ~ E E ! ! R ^ ! R ! / h p h u : 3 @.1Xt.E ^ R W R h g R ! g < & ; h ! R ! ! / R E 8.z 1 < 8 E $.}.*X,XhXlXlXpXjXkXkX:X7X}.>.>.u.&.~ h a ~ J 9 8 R / E ! / ] ] ~ E ~ ] ] ` ' ' 8.9.8.E 9 ! R z > # o + h / E ~ / / R R 6./ ! 9 9 ! a R 6.^ ! a 9 R R R a a R ^ s./ ! ! / 6./ ! h h ^ ! c p 1 e w - m (.7X{.E Q / / R h ! h g g g h h h h h h h c h p c h 8 1 1 g g g g 1 1 e g g e e g g ",
"8 e g w 1 1 q w g a K $.%.' E g w q q 1 d y s s d u p p d d d q 1 8 p u u u u u u 1 1 1 1 1 1 p p g g g g e 9 ( q.t.' J a g g r g h h h R h h h h R ! / / E R R R ! R R E E E E E E E ) ,.*X*X}.+.~ ~ ` ~ E R R R R E E E Q E E E E ( ' ' ` E E ` ~ E E E E ~ ~ ~ ` ~ ~ ` ~ ` ~ ` ` ` ` ~ ` ` ~ ~ ` ~ E E 8.z.k.g.^ s.k.5.h a R E E ~ ~ E E E E ~ ~ ~ ~ E / ` ` ~ ! h g ! E ~ E / k.F.V.k.C.J.Y.Q.J.^ 8 8 g h ! ! ! h h h h h h h h h h h h h h z g : - a / 8.*.@X{.) ~ R ! ^ ! / E R ! h 1 : g R R ! ! R R ! ! E Q Q E E ! R R E R R ! E ~ E ~ ~ ~ E E ~ ~ ~ ~ ` 8.~ ` ~ ~ ~ ~ ~ E E ! E E E ! R h ! R h ! ^ a g h u : N >.<X@.E R R W ^ ! ^ Q ^ h s & $ g ~ / / z h R E 6.h 1 < 8 h E $.i.OX*X9XaXaXtXrX%XOX{.u.*.*.B.w.E 4 9 ^ ^ , u z ~ ~ E E / h.` ~ ` ` ` 9.8.` ` 8.8.R ! / R g > $ . + h / E R E 6.E ! 6./ ! a ^ ^ h / / h R a h ! R R a R ! ! Q Q E Q / E a h h ^ ^ z p , 1 1 1 - Z XX3X@.E / / / ! ! h g g g h h h h p g ! h g g g x g 1 1 g g g g g 8 8 g g g g g 8 g ",
"g g g w q q q w g R ` 0.%.` R r w q 1 u u 1 1 d u p p p p u u 1 1 1 u u u u u u 1 1 1 1 1 1 w g p g g g g g 9 K %.y...K a g g g h h h h h h h h h R E / / E R R R R R R ! ! ! E E ~ E +.}.*X$X>.) ~ ~ ~ / E R R R R E E E ~ E E E E E ' ' ` E E ` ~ E E E E ~ ~ ~ ` ~ ~ ` ~ ` ~ ~ ` ` ` ` ` ` ~ ~ ~ ~ E E 8.k.k.g.! 6.j.^ g a R E E ~ ~ E E E E ~ ~ ~ ~ E ~ 8.8.` Q h g ! E E E E ] k./ W g.V.F.A.j.! 8 p a h ! ! h h h h h h h h h h h h h h h h e : - g / 8.$.}.}.@.` E E ^ ^ ^ E E ! h 8 8 h ! ! ! ! R R ! ! E / Q R R E ! E Q R R R E ~ ~ ~ / E J E ~ 8./ ~ E / 8.8.` ~ ~ ~ ~ E R R R E E ! R h R h a ! ! a h p 1 : V i.<X..K R ! ^ ! ! ^ / ! g s & ; h / ! R h z h ! ^ h 1 d h g R ] &.*.;._.8X=X+X}.;.>.>.%.$.&.[ [ R 8 8 ^ z 1 y h R E Q Q ` 9.8.` ` E ` 8.E E E ~ E E ~ E h y $ # . $ h / E E E ~ E / 6./ R h ^ h ! ! a a R h h ! ^ ! h ! ! ! ! ! Q / Q R 6 h ^ ! ! h p l g : - - U +X@X@.[ / / ^ ! h h h g h z h h g 8 g h h g h h g 8 1 g g g h g g g g g g g h g 1 1 ",
"g g g w q 1 w e h E ' $.' E a w q q d u u 1 u u u p p p p p p 1 1 1 d u u u u u u u 1 u u u d g g h h h g g r K %.].O.T h g g g h h h h h h h h h R E / / E R R R ! ! R R R ! ~ ~ ( ( >.$X*X}.+.( E E E E E ! R R R E E E E E E ! E ` ' 7.` E ~ ` ~ E E E E ~ E ~ ` ~ ~ ` ` ` ` ` ` ` ` ` ` ~ ~ ~ ~ ~ ~ ~ 8.k.g.g.! ! ^ g p h R R E ~ E E E E E E E E ~ E / 8.8.` / h a R E E E E ~ / Q W Q 3.z.k./ / h h p h ! ! h h h h h h h h h h h h h R ! h 8 ; - h / / ) ,..Xy.I E ! ^ ^ ! R R ! h 8 8 R E E ! ! R R ! ^ E Q E R R E ! E ! R ! E ~ E E ~ ~ E E E E ~ ~ ~ ~ E ~ ` ~ E ~ / / / Q ! R E / / / R R R R ! ! g c g y : V {. X) E ! / Q R R ! Q z u < & 1 c R J h h h h h h g d g h E ~ [ 3.m.) @.1X.X,.*.&.e.w.[ ' [ ' ~ ! g , z u O < g ^ ~ ! ~ ' ] 8.` ~ E ~ E 9 R E R E ~ ` R h ; + # # $ h ~ ~ ~ 8./ ~ / Q Q ! ! R g ! R R R ! ! ^ ^ ^ ! R R ! / Q ! ! ! R h a R ^ h h h p z g : : 2 @.*X}.$.[ ~ Q R h h h h h h c g g g 8 g h h h h g 1 1 8 h h h g g e g g g g e g g e g ",
"h g g w q 1 w g R ( ' ' ( a 8 1 q d d u u u u u u u g p p p p 1 1 1 1 1 y 1 u u 1 1 u u d d g g g h h h d d r K ;.[.].%.E g g h h h g h h h R h h R ! / / E E R R ! ! R R h R E ` ` +.}.*X+X:.( E ! R ! E ! R R R R E E E E E E E ~ ` w.w.' E ~ ` ~ E E E E ~ E ~ ` ~ ~ ` ` ` ` ` ` ` ` ` ~ ~ ~ ~ ~ ` ~ ~ 8.8.] Q R h h 8 8 g h R E E E E E E E E E E ~ E ~ / 8.~ Q h a R E ~ E E E R E / g.k.F.A./ s.^ g 9 h ! ! h h h h h h h h h h h h h ! ! h 1 = : z 6./ _ @.@X.X` E E ! ^ h g h R g 1 8 R E E R ! ! ! R ^ E ! ! ! ! ! R E ! R Q / ~ ~ ~ E R ~ ~ ~ ~ ~ ~ ~ ~ ~ ~ ` ~ ~ ~ / / / / Q R ~ / 6./ ! R ! ! ! ! h h g u = C {.p.' ~ Q E R R ! ^ / z 1 < & d z h a h h g c h g 1 g h ~ ` ' ] [ h.[ %.B.B.e.w.w.w.] ` ` ' ` E ^ g : g < $ ; h ! E E ` ] ] 8.] E / E ! a ! E ~ 8.] 8.Q c < # # # > a ~ ` 8.8.~ E / R R R ^ ^ ^ ^ R ! ^ ^ ^ h h ^ ! h R / 6./ ! R R R R h ! ^ ^ h h p h p 1 - 3 ;.=X{.) ] ] / R ^ h h h h g h g g g 8 g g h h g 8 g 1 g h h p h 8 g g g g g 1 1 e g g ",
"h g g w q 1 w g R E ` E J 8 1 1 1 d d u u u 1 q q w w 8 8 8 1 1 d d 1 1 1 1 1 1 1 1 u d g g g g g h p p d d r ( ,.OX@X].) R g a l h g h h h h h h R ! / ` E E R R ! R R R R R E ` ' ;.OX*XOX+.E ! ! ! ! ! R h R R ! ! E / ! ! R E ~ ' e.e.' ~ E E E E E E E ~ E ~ ~ ~ ~ ` ` ` ~ ` ` ` ` ` ~ ~ ~ ~ ~ ` ` ~ ` ~ E ! a h ^ g 1 p h R ! E E E E E E ~ ~ E ~ E ~ / 8.E ! g g R E E E E E E / 6.g.G.Q.N./ j.s.9 8 h ! R h h h h h h h h h g h h ! ! ! h 1 = : ^ 6./ ( +..X1X` E E / ^ ^ h h h e ; e R R J E / E R R ^ ! R R Q Q ! R Q ! ! Q E E / / E E E ~ ~ / / ~ R E E E 8.8.` ~ ~ E E ! E Q 6.6./ R h R ! ^ ! h 8 p g u - C .Xi._ ` E R R Q / R ! g 1 ; & d h g 8 a g h h h g 1 g ^ E 8.7.' ' w.7.w.p.e.w.w.7.' ` E ` ' K ! h 1 : 1 1 ; ; 1 a K ` 9.] ] 8.] / / R R R E ~ ` ` 8.8.R 8 ; # o o > a ~ ` 8./ E R R R a h ^ ^ ^ h h h R R ^ a h h h h R / / ! R R ^ ! ^ ^ ! ^ h 8 8 g g 1 : - M }.wX,.[ ] / ^ h ! h g h h g g g p g g g h h g 8 8 g g g h h p h 8 e e g g g 8 1 g g h ",
"k g d w w 1 e g R E E J 9 8 1 < 1 d g u y 1 w q w 8 8 9 8 p d q d 1 1 1 1 1 1 1 d d d d g d g g g p p p l u 8 Y y.@X$XXX>.( a h h h h h h h R h h h ! / ` ` E R ! ! ! R R R R R ~ ' (.*X*X_.( J R ! ! ! ! h a h R R ! E E R ! E E ` ' e.0.' ~ ! ! E E E R E ~ ~ E ~ ~ ` ` ` ~ ~ ~ ~ ` ` ~ ~ ~ ~ ~ ~ ~ ` ~ ` ~ E ! R ^ ^ 8 : 1 h ! ! ! E E E E E E E E E R E ~ ` E R g 8 R R E ! ! E E / / / N.S.g.2.A.l.h a h ! R h h h h h h h h h h z z h h R h 1 = : ^ / E ~ ( {..X) E E Q ^ R g 8 g < ; e h R J ! / / ! R R R R ! / / ! R ! ! ! Q ! E E ~ E E E 8.8.~ E R R E ~ E ~ E ~ E E ~ E ! ! Q / ~ ! R R ! R R ! h 8 g 1 1 : I @Xu.E ~ E R ! / ^ h g 1 u < & u h g g h h g h h p 8 g ^ ~ ~ ` 8.] ` E m.r.$.' 9.` ` ~ E / E a h 1 < < < < $ & p h J ~ 8.8.8.` E Q ! 9 ! E / ~ E ~ 8./ a 1 = + o o > J E / ~ ~ / R J h h ! h h h h 9 h R h g h ^ R R R R ! ! R R ^ R h ! 6.R h h 8 8 g d 1 = 2 } 3X3X+.] / ^ h h h h h g h g g g 8 g h h h h e 1 1 g g g g h h p 1 g e g g g g e g g h ",
"k j d w q w e g h R R h r 1 1 < u d g d d 1 1 w r a J J a p d q s y 1 1 1 1 1 1 d d d d d d d d g g p p g p 9 T y.OXoX$X[.@.K a g R h h h h h h h h ! ` ` ~ R V R ! R E E R R R E $.OX*XOX@.E R R ! ! ! ! R a a a R ! E / R ! E E ` ' 0.' ` E ! E E E E E E E E E ~ ` ' ` ` ~ ~ ~ ~ ~ ` ~ ~ ~ ~ ~ ~ ~ ` ` ` ~ E ! ! ^ h p : 1 h ! ! R ! E E E E E E E R R E ~ ` E R a p R R E ! R E E / ! ! g.g.g.z.J.z.h 9 h h h h h h h h ! h h h h h R R h a g : = 1 ^ / / E E ;. X[ E Q ^ h 8 8 : ; ; ; d z ! J R E ~ E ! ! R R Q / / ! R ! ! R R ! ! E E E ~ 8.8.8.~ E R E E ~ ] / R ~ ~ E ~ / E R R R R R R R ! R R ^ h g g u 1 9 ) 1X;.E ~ / E R ! R ! g 1 d < $ , h g g h ^ h ! h h a a ! ^ R R R ! R 9 ` [ ' ' 9.` ~ E / Q h h q $ @ & + $ & + 1 h ! ~ / 8.8.! ! R h 9 R E ` 9.` E ~ ^ h 1 = $ O o > J E ` ~ / R a a a ! ^ h h R 9 a h R h R R ^ ^ R R ! ! ^ ^ ^ W h 9 h R 9 g h 8 g h g = - V /.qXi.) g./ k g h g g g g g 1 g g 8 g h g g g e g g g g g h h h p 8 g g g g h g g g g g ",
"g g d d q w e g h h h g e 1 < < u g g g d 1 1 8 R ( ' T K a 1 q d d u u u u 1 1 d d d d d d d d g g g g g 8 V $.y.].).oXXXy.Y J h R h h h h h g h R E ] ] ` ] / R R ! R E R R R ( @.+X*X].) R R R R ! ! ! R a a a R ! ! / E E E E E ~ ' ` ~ E ! ~ ~ ~ E E E E E E ~ ` ' ` ` ~ ~ ~ ~ ~ ~ ~ ~ ~ ~ ~ ~ ~ ~ ~ ` E E ! R h z h 1 u h ! ! R ! E E E E E ~ E R E E ~ ` E ! g p R E E ! R R R ! ! ! Q E g.J.Q.j.^ 9 h h h h h h h R h h h h h g h R h a 8 : = 1 h ^ / h R +. X&.G h g 1 1 : = : < < g ^ ^ R ! ! E R ! / R R ! ! ! ! R R ! R a ! / / E E ~ 8.8.~ E E R / ~ / ` ~ E ~ / 8./ E ! ! ! ! ! / ! / ^ ! / ^ h g : d 1 5 $.1Xe.~ ~ E R ! ^ 6.^ e 1 y > < p h g g g ! ^ ^ 8 9 R R / R ^ h h h 8 8 ! ` ` ` 9.` E Q / R g g q o o @ @ @ & + & d c ^ ! h g g h h 9 ^ ~ / 8.8.E E R ! g = > = > + > i E ` / ~ E ! ! ! ^ h h ^ ^ a h R R ^ 6.h h h 9 h ! R ! h h 9 R R h 9 h h h g ^ 8 1 = 2 D oXqX*.] / ^ h g g g g h g 8 1 g g 8 h h g h c h g h g g g g p h h g g g g g g g g g g 8 ",
"g g w d w w e g g g g g w 1 q 1 d g h h g 8 8 9 E ' %.$.I a 8 1 u g p p g p p 1 g g d d d d d g g g g g 8 9 K %.y.;.o.(.OX}.*.( R h h h h h h g h R E E [ N.L.L.k.E ! E E E R R T :.$X$X;.E R R R R R E Q ! R R R R R ! R ~ ~ E ! ! E ~ ~ E ! E ~ ` ~ ~ E E E E E ~ ` ` ` ` ~ ~ ~ ~ ~ ~ ~ ~ ~ ~ ~ ~ ~ ~ ~ ~ E R ! R h z g u u h h R R ! E E E E E E E ! E ~ / ~ Q ! a p R E E ! R R R R ! ! R R / A.b.^ h h R R h h ! h R R R R h h h g g h a a p ; ; j c ^ ^ g a ' <X*.m : : < ; = = , 1 1 g z ! ! R ! ! R R R R a R ! ! R R R R R ! ^ / / E E ~ ` ~ ~ E E R ! E / ~ ~ / ~ E / / E R R R R R ! ! R R R ^ ! g 1 : 1 : 3 >.1X@.! ~ E E Q ^ ^ c 1 1 < $ y z ^ ! h h ^ / h 8 g ! E E R R ! h h h 8 R / E R E R R E ! R g 1 O O @ O O @ @ o @ ; 1 p 8 , , 8 h h h ^ ! ^ 6.8.R ^ h 8 = O : 8 h < 1 R 8.~ / R ! 6.^ ^ R h h ^ ! ^ R h ^ / ^ c ^ g h ^ ! ! h h R R ^ R h h ^ h 9 g h 8 1 - M :.7X@X[ / Q R g g c g g g 1 1 g g g p h h g h c h g x x g g g h h h g g g g 8 e g g g g h ",
"g j d d 1 1 g g g g g g d s q 1 g g h h h r 8 J ' $.%.T K a 8 1 p p p h h g p 8 g g d d d d d g g g d g 8 9 T t.t.$.U @.[.@X{.+.V h g h h h h h h h R E N.BXGXGXY.3.! E E ! ! E ..).*XOX+.J R E E R E E Q R h h R R R ! ! ~ ~ ! ! ! R E E E ! ! ~ ~ ~ ~ ~ E R R E ~ ~ ` ` ` ~ ~ ~ ~ ~ ~ ~ ~ ~ ~ ~ ~ ~ E E E E R ! ! h h h p u g h h R ! E E E ~ ~ E ! ~ E E ~ ~ E ! p 8 ! ~ E ! R R R h R ! a R ! / ^ g g g h h a h h h R h h h R h h h g a a h g ; < j c h 8 g 8 K p.,.S 2 - 8 g 8 8 a a g h ! ! R R R ! E R R R R ! ! ! R ! ! ! R ! ! ! / E E ~ ` ~ 8.~ ~ R R ! / E E / E R / ] / ! R R J R R ! R R R ! R g 1 w w : 3 y.@X+.! / / R R R h 1 < 1 < > g z h h h h ! / g h h ^ / R ! h ! R R h 8 W g./ R / ! R R R a 8 ; @ = g ^ a.w O o @ + O ; > ; < < 1 u 8 8 8 g h h g h p : O ; , a a > < h ! R E R R ^ R a h h h / ! R h h ^ h g g g g R ^ ! R h R ^ ^ ^ R R ! h h ! h 8 8 6 3 } $X3X>.` Q Q R h z z g g g : 1 g g h h g g h h g 8 h k h g e 1 h g z h g g g g g g g g h g ",
"g g d w 1 1 g g g p p p u s s 1 g h J E R g 9 K ' $.' K J g g p p i p h l h p 8 p g g d d d d g g d d g 8 J $.t.t.) C ) ,.@XOX%.C r h h h h h h h h V E L.GXPXPXNXk.Q R R ! ! E @.OX*X}.) R R R E E E E E R a h R R R ! ! E E R ^ ! R E E E ! ! ! E ~ ~ / E R J E E ~ ` ` ` ~ ~ ~ ~ ~ ~ ~ ~ ~ ~ ~ ~ ~ E E E E R R ^ h h g 1 1 p g h R ! E E ~ E ~ E ! ~ E E E E E ! 8 r ! / E ! ! R R h h R h R R h R g g g h h a h R ! R h h h R R h h g h h R g ; < g h 8 - 1 1 7 u.1Xy.P B ` 7.` 8.9.E a R E E J R R R ! R ! ! ! ! / ! R R ! R R R R ! E ! R E ~ ~ ~ R R R ! / / E E ` ~ E / / R R R ^ R R R R R ! / / ^ g 1 1 1 : N i.}.+./ ~ ~ ! / ^ 8 = ; 1 ; < l z a h h R R ~ ^ ^ h ! ! a 4 g h ! ^ a 9 / 6.! R ! a h h h p 1 $ = c.JXAXCXb.w O & @ + > $ + $ ; = = < = = : 1 - : 1 > ; & ; a E a = > h ! Q E ! ^ h a g 8 R ^ / J a ! ^ h 8 8 8 h h h ^ ^ ! ^ ^ W h R R R a R / 6.^ 8 8 4 M ).rX}.+.` Q ^ h h z p g h g 1 1 8 h c h 8 g z ^ ! g g g h 1 1 g h g g 8 8 g g 8 g g g g g 8 ",
"g g d w w 1 g g r p p p d d q q g h R E E J J Y $.' K a p p 8 p p p a h R h p 8 g g g g d d d g e g d e a I ;.y.t.( V K @.}.OX,.) R h h h h h h h r F ] !.KXPXLXBXV.! R R R E ( ;.+X$X,.( R R R ! E E E ! R a R R R R R R ! R ! ^ ^ E E E E ! ! R E ~ ~ ~ ! R R E E ~ ` ` ` ~ ~ ~ ~ ~ ~ ~ ~ ` ` ~ ~ ~ E E E R R R / ! h g 1 1 8 g h R E ~ ~ ~ E ~ ~ E E E R R R ! ! r g ! / ~ ! ! R R R R R R ! h ! h 8 g h ! h h R ^ ! h h h h h ! ! h g h R R 8 = ; q 1 1 : < < 4 ' {. Xq.$.0.Y K 8.' ~ J J R R ! R R h a R ! / ! R ! ^ R h R ! R R ! ! R R R R ~ ` ~ J J R / / 8.8.` ~ E ` / ~ ! ! ! Q E R ! R ! ^ ! ! h 8 : < 1 8 I <X.X+.E ! R R ! h 8 1 d 1 $ $ p h h h h h h R R h ! ^ ^ R h ^ h ! ^ 8 8 ^ Q R h h h z h g w : = c.LXUXLXAXA.^ 0 @ & @ $ = = : : < < < < < < = = = = : : g g ! h , > < h ! / E / ! a R ^ R ^ ! ! / ^ ^ ! z 8 8 8 ^ ^ h ! R R a h g 9 ^ g.! R ^ ^ ! 9 6 2 N O.wXrX>.] E ! 6.^ z z p g 8 1 8 g g x z p 8 h h g h h 8 e g 8 8 g g g g g e g g g g g g g g h ",
"d d 1 1 d d u u 1 8 g g d q 1 1 1 8 h R ~ K ) %.%.I a p d p 8 8 p 1 p R E E a 1 u u p p g d u 1 8 g e 8 J +.{.,.+.E a J U ,.OX}.@.E R h h g g h h h E k.NXKXLXJXNXz.R R R R E T ].*X).@.R R R h R R ! ! R R h h R ! ! R R R ! ! ! ! ! R R E E ! R E ` ] E ! ! R ~ ~ ~ ` ` ` ~ ~ ~ ~ ~ ~ ~ ~ ` ` ` ~ ~ E E E ! ! ! R ! ! h u 1 w h h h E ~ ~ ~ ~ ~ ~ ~ ` Q ! R h ! ! g g R ~ ~ E ! ! R J R R R h h h h p g ! h h h h h h c h g h h h h h g g h h 8 = ; < d 1 ; & ; 1 J ' 0.$.` ` R a R E ` E a g h a h R h h h ! ! ! R ! ! ! R Q ! R R ! ! R R R E ~ E ~ E E ~ E ~ ] ` ` ~ E ` / E R R ! ! E R ! Q / / ^ ! 9 8 , d g 6 | 1X X) ! ! E R a h g g g < ; < e R R R h g g ! h R ^ Q R R Q R ^ ^ z p 8 h ! J h a ^ z p 1 : = D.IXIXKXmXNXA.1.w O O ; 1 1 8 ^ r 8 - = < < ; $ > > 1 p a ^ h 8 ; o + 1 h R E ` E ! ! 6.! ^ ^ a R R h g g g 8 h h ^ R R ^ / ! a R h h / g.Q R ! c c 8 2 3 { oXwX{._ Q ! ^ ! h h p h 8 1 8 g h g h z g p h h h c h h 8 g g g g x g g g g g g g g h g g h h ",
"d d 1 1 1 d d d 1 1 e g w w 1 1 1 8 g R ~ ) %.q...K p d d d 8 8 w 1 g R ~ E a 8 u u p p p d d d e g 8 9 Y >.}.,.) R g J ( @.}.OXi.' R h h g h h h h ! V.BXGXHXFXmXk.R R R R K ..}.$X:.) R R R h R R R R R h h h R R ! R R R ! ! E ! ! ! R R ! R R E ` ] E ! R R E ~ ~ ~ ~ ` ~ ~ ~ ~ ~ ~ ~ ~ ~ ` ~ ~ ~ E E E ! R R ! ! ! h 1 1 w g g R E ~ ~ ~ ` ` ~ ~ ` E ! h h h h g p R E E R ! ! ! R R ! R h g g p p g ! h h h h h h h h g h h h h g a a h a 8 = ; ; < 1 ; ; ; 1 9 J ( K E E ! R R ~ 8./ a a h h R ! R h a R R R R ! Q ! R R R R R ! ! R R ! ! ~ E ~ ~ ~ ~ ~ ` ] ~ ` ` ` 8.~ E E R R R R E Q ! R ! ! R a p , u g 9  .3X X) R R / 6.^ ^ g 1 u < < w h R R R g g g h h h ^ ^ R h R h h h g , , g R R R ! ^ z , g 1 1.JXUXLXBX!.^.H.^ e ; : 8 ^ / / 8.` ` E R p p : O > ; + = : 8 : ; & o o > g R ` ] E R ! ^ a ^ ^ h R R ^ g p p h h ^ ! ^ / / / R R ! ^ ^ / E ! a a p g 8 - M -.=X3X+.] ^ ! ^ z h h g g 1 8 g g g h ^ h g g g g h g g h g h g g g g g d g g g h h h g g h z h ",
"d d 1 1 d d d d 1 1 e g w w q q 1 8 a R K %.t.q.T a u s s d 8 8 1 w g R E E a 8 u u u p p d j g d g 8 V ..].}.;.( h h R E +.(.OX}.%.K h h h h h z h ! V.bXBXZXNXJ.g.W R R J K ;.@XOX@.( R R ! ! R R R R h h a h R R ! R R R ! ! E ! ! ! R R R R ! ~ ~ ] / ! R R E ~ ~ ~ ~ ` ~ ~ ~ ~ ~ ~ ~ ~ ~ ~ ~ ~ ~ ~ E E ! R R ! ! h p 1 1 d e g R R E ~ ~ ` ~ ~ ` ` E R R a h g 1 g R E E R ! ! ! ! ! R h g g 1 8 h h R h h g h h h h h g h h h h h h h h g 1 $ & ; < : = : 1 1 8 ! ~ ~ E ! ! E E / 8./ g g h g R ! h h a R a ! ! R ! R R R R ! / / ! R ! E E ~ 8.~ ~ ` ` ` ` ` ` ` 8.` ` ` ~ E E E ~ E ^ ! h R R R R h z p 1 1 9 ;.qX X) ! R E 6.5.^ h u g 1 < g h ! J a h h a 8 a a ^ R h h h h a h h g 1 h a a a ^ ^ g 8 8 k CXLXIXAXNXF.F.c.1.k 8 a ~ 9.9.9.w.7.9.9.8./ ^ h < & & o O O = @ o + . o = a R ` 8.E ! ! ! R ! ! ^ R R R ! ! ! ^ ! / ^ / ^ Q Q Q ! R ! W / ~ ! a h p 1 : - P +XqX X' R ! R h h h h j g g g 8 g g ^ ^ g g h g g g 8 g h 8 p 8 g g g e g g g g g g g g g h z h ",
"d d q q d w d d 1 1 e g w w q q 1 1 8 g K %.%.$.K 8 d s d u p 1 q w g R R R a 8 u u u p g d g g u w 8 I ;.}.{.$.R h h R E ( =.}.OX>.Y a h g h g h h ! V.mXBXbXS.g./ h h R R Y ,.OX{.) E R R R R R R R R h h h h R R R R R R ! ! ! ! ! ! R R R R ! ~ E ` E ! h R E E E ~ ` ~ ~ ~ ~ ~ ~ ~ ~ ~ ~ ~ ~ ` ` ~ ~ E ! R R R R h p 1 1 w 8 g R R E ~ ~ ~ E ~ ` ~ ~ R R a h a g g R E E ! ! ! ! ! R R h p 8 1 8 h h h h g g g h h h h h h R R R ! R R z h 1 @ @ < > , g g 1 1 g R ^ ^ ^ ! R R R R R R g g g a R R h h R ! R R R h R R R R ! ! ! ! ! R ! / E E ` ~ ` 8.` ` ` ` ~ ~ ` / ~ E E ~ ~ ~ / ! ^ / h h ! R ! R z h 1 < 4 ,.qXy.) / ~ ! ^ z g p g g 1 < p ! / R R ! ! h h h 8 g h R h h ^ g h g 1 g h h a 9 ! R g 8 4 c.LXIXIXFXbXV.V.j.s.^ r R ` 7.' ' 9.' 7.7.L / ^ h 1 ; ; < ; 1 1 ; o X . . $ p a R R R ! R ! J J ! Q R / / / / ^ ! / / h R ! Q ! Q ! R E / / / ! g z , < 1 N O.>X{.) E ! Q R h c h 1 1 w g e 8 h ^ h h g h h g h h g h h 8 1 g g g g g g g g g g g e g g h h h ",
"d d q q q q 1 1 1 1 g g d w q q 1 1 8 g J Y T K a 8 1 d u p p u q w g h R J p 1 u u u g d d g g u 1 9 +.(.}.i.' 9 g h h R E +._.+X{.) J h h g g g g R k.mXZXmXL.k.^ g g h R +.{.}.;.( R R R R R ! ! ! ! R h h h R R R R R R R ! ! ! ! ! R R ! R R E ~ ~ ~ R h R E E ~ ` ` ` ~ ~ ~ ~ ~ ~ ~ ~ E ~ ~ ` ` ` ~ E ! R R R R h g 1 1 1 8 g R R E ~ ~ E ~ ` ` ~ E E R R ! h g g R E E ! R R R R h h g 8 8 8 p h R h h g a g h h h h h h ! R ! ! ! ! z g < @ & q > p z g : 8 h R R R R ! ! R R R R h p 8 8 g R R h R R R R ! ! R a a R R R R R ! ! R ! ~ E ~ ` 8.` ` ~ ~ ~ ~ E E ~ ~ E R E ~ ~ ~ ! R R ^ h ^ R ! / ! z h u : 9 }.wXi.' ` ] E h 8 8 8 g g : 1 h / / / / / ! ! ^ h a g R ^ h 9 h h h g 1 g h ! R R h a h 4 2 !.IXUXLXZXT.K.L.j.d.1.9 9 ~ ` ' ` ` ' ' ` E ! ! 8 - g g h 9 ! ^ g @ o . o + y p 9 9 R / / / R ~ ` ~ / / E J ! / Q ^ R a a ! ^ ! ! ! E E ` / E R h g : = - Z @X>X+.E Q Q R h h h g 1 1 g 8 8 h ^ z h g 8 g h c h g g g g 8 1 h g g e e g g g g g g 8 g g h g h ",
"1 1 1 1 1 1 1 1 1 1 d g d 1 1 q < 1 u g g J J 9 8 1 1 u u p u u q w 8 a h a 8 1 u u u g d d 1 p u 8 V @._.{.$.E a h h h h E ) :.OX}.+.J a h g g g h h / L.NXNXmXA.^ g 8 R I ;.}.{.$.E R R R J R ! ! ! ! ! h h h R R R R R R R ! ! ! R R R ! E R R E E ~ Q R h R E ~ ~ ~ ~ ` ~ ~ ~ ~ ~ ~ ~ E E E ~ ` ` ` ~ E ! R R R ! h g 1 ; 1 8 g R ! E / ~ E ~ ~ ~ ` E E E ! ! h 1 8 h ! R R R R R R h g g 1 8 g g h R g g a a g g h h h h h ! R z ! R ! z g < & < d : p c 1 1 h ! ^ ! ! R h h h h ! R h 8 1 8 h ! ! R h a a ! R R R h R ! ^ ! R R / / ! R J E 8.` 8.` ` ` E E / ` E R J R E / E / ~ E R ! h g h h R / ! ^ g 1 1 V @XwX>.( ` ` E h g g g h 1 = g ^ / E E / ~ E ! h R h h R ^ h h h h c g : h h h a R R h ^ h ^ AXPXPXFXZXGXAXmXc.d.1.8 g 8.' ` E E ` ` E ! 9 8 a a R 6.` ` 8./ h : $ # o o < 1 : 1 R / ~ E E ~ ` ` ` E J J E E Q ! R R h ! ^ Q R R R R / Q 9 9 h j : O 2 X.eX@X) E ! ! a h h p g g 8 g 1 g c h h h g g h g h h g h g 8 g g g 8 8 g g g g g g g g e g g h g g ",
"1 1 q d d q 1 1 1 1 1 u u d d q q q 1 1 8 8 8 1 1 1 1 u u u u d d d g g g a g e u u u g d g e g p a ) ,.{.;.I J h h g h h R E @.}.}.%.J 8 g g g g h h ! V.!.mX!.A.^ g g J +.}.OXy.' J R R R R R R R h R ! h h h R R ! R R R R R R R ! R ! ! E E ! R E E ! h g R E ~ ~ ~ ~ ~ ~ ~ E E E E E E ~ E E E ~ ~ ~ E ! R R h R h g e 1 1 8 8 R ! E E E E E ~ ` ] E E E / ^ h 1 8 h R ! R ! ! ^ ! g 8 8 e g g g a R R g 8 8 g h R R R h h h R ^ ^ R R h g ; @ @ < 8 z g 1 1 g ^ / ! R R h h h h g h g g 8 8 8 h R h R ! R R R ! R a R ! / / ! R ! ! ! R R E E ~ 8.` ~ ~ ~ E / ` E R E R / ! 6.g./ E h h g h h h R ! h z p > 8 C @X8X>.I E ` E h h h h h p : g / E E ! R ~ ` ! a h h R ! ! ! R R ^ h 8 , g z h R ! E ! ! 9 z.CXZXGXBXZXLXPXCXH.d.e 1 g / ` E E ] 8.~ E ! 9 R / E ` 9.9.` ~ E 6 8 1 $ $ O $ 1 < w R E J Q R R E E E Q R R E J R R R h h ^ h 9 h h ! / / h g ^ x 1 = - B [.#XX.V W h a h h h g g g g h h h g h h g g h h h g 8 g g g g g g g g g g g g h g g e g h g g g g g ",
"1 1 q q d q y y q q 1 u u d d q q q 1 1 u q q q q q 1 u y y y d u 1 e g g g g w u u u d d d w e 9 K @.{.,.$.R h h h g h h h E +._.}.;.K 8 g g g g h h R k.J.G.z.s.h 8 9 I ;.@X}.@.K J z R R h h R R R h h h h h h ! R R R R R R R R ! R ! ! E ! ! R R E ! h g R E ~ ~ ~ ~ ` ~ ~ E E E E E E ~ E E E ~ ~ E E ! ! R R h h g w 1 1 8 a R ! E E E E E ` 8.8.~ E E ! ! h 1 g R ! ! ! R R ! h g 8 e g g h h h ! h h g h h R R R h h h h h ! R R h g 1 ; < 1 1 g h g : 1 g ^ W R R R h h h h g h h h g 1 g R h h h ! R R ! ! R a ! ! ^ ! R R ! ! R ! ~ E E ~ ` ~ ~ ~ E ~ / / / E E E E / 6.6./ ! h h h R h R ! R h g , > 8 ) 7X=X%.( R ~ R h h h h z 8 1 a ! ~ E ! R E E R h R h ! ! ! ! ! R ! h 8 8 z h h ! ! / / h 8 j.NXbXZXCXGXCXY.j.d.d.8 8 h ~ ` ` ] 9.] ` ~ E V ~ ~ ` w.w.` ~ ~ J a ! u O o # + > = d p a J h 9 r R Q / ! ! ! ! ! Q h h ^ ^ h 9 8 R ^ ^ ! R g h x u < = 2 U oX.X' J R g 8 8 h h 9 9 g g h g g h h g p g h c h 8 g g g g g g e g g g g g g 8 h h g g g g g h g e ",
"y 1 1 q 1 1 1 1 d q d u u u d q q q 1 1 q q q q q q q d q d d d u u e g g g e 1 u u u d d d w 8 J $.,.{.;.) R g h g g h h h R _ >.i.*.E g g g g g h g R j.b.j.^ h a a J ..[.$X(.U J a z h h h g h R h h h h h h h ! R R R R R R R R ! ! ! ! ! ! ! ! ! E ! h g R E ~ ~ ~ ~ ~ ~ E E E E E E E E E E E ~ ~ E E ! ! R R h h p 1 e e 8 g R ! E E E E E ~ ` 8.~ E E ! ! h 1 g R ! E ! R R h g 8 8 r h h h h h R h R R R R R R h h h h h h R R h h g < : 1 h h g h g : 8 h ^ W W R R R h h h g h ^ h g 1 g h R g h R R ! ^ ! R a ! ! R R R R R ! R ! 6.6.~ ` / E E E E ` ] ` 8.~ R J ! / / / ! R h h h ^ R R ! R h p 1 > 9 $.wX7X@.` R R R R h h h h , 8 R E ~ ! R ! E J R / ! h ! ! R R Q R h h 8 8 h ! h R ! / ^ h - j.!.Y.T.!.CXA.k e k a.e 9 R ~ ' ` ] 9.` E ` ~ ~ ` ` ' 7.9.~ / ! 9 ! ^ , O o o # $ $ < 8 6 9 9 9 r W W R r R R ^ ^ / h h h h g 8 g ^ ^ h h 9 8 g u > > - m ;.$Xi.~ 9 g g e 8 h R J a 8 g g p g h h g g g h h g 8 g g g 8 e g g g g g g g g 8 h g g g g g g g g g ",
"y 1 q q 1 1 1 1 q q d u u u d q q q 1 1 1 q q d u u d d q d y u d u e g g g w 1 u u u d d d 1 9 E *.{.i.$.E h g g g g h g h h E $.e.$.E r g g p g g h h 5.s.6.! a 9 a E ;.}.OX;.K a h z h h h g h h h h h h h h h R R R R R R R R R ! ! ! ! ! ! ! ! ! E ! g g R E E ~ ~ ~ ~ ~ E E E E E E E ~ E E E ~ ` ~ E E ! R ! h g 8 1 w g r g R ! ! R R R E ~ ` ` E E E ! R g 1 e h ! ! ! R R h p 8 r g h R R R h h h R ! ^ ! R R R R h h h R ! R R R g ; 1 s.j.^ r h e 1 g ^ h h k h R R R h h h ! ^ z h 1 9 g h h h R R R ! ^ ! a R ! h h h h R ! R ! / 8.~ E E ~ / E ! / [ 8.8./ R J ! ! R R h h h R h R W ! ! ^ ^ h g $ 6 @.wX7X+.] ! R E ~ ! ! h 1 : h ~ ~ / ! h J ! R ! / h 9 R ^ R ^ / R h h 8 p ^ / ^ E E / ^ h : z.Y.F.F.D.c.h : 0 c v.^ h ~ ~ 9.` E ] ` K ( [ ` ` 8.8.9.9.~ E J J ! h < o . + + $ = : - 6 7 N 3 G R r r h h R h h h h h g g g p h z h h 8 p e 1 u > , 2 A }.@X*.! 8 h h g g h R R g 8 g g 8 g g g h h g g h 8 8 g g g 8 g g e g e g g e g g g g g g g h g g g g ",
"1 1 1 1 1 d d q 1 q 1 1 u u u 1 q q q 1 1 q 1 1 1 1 1 d q y u d d u w d g d w 1 u u u d d d g R ) ,.y.*.( h g r g g g h g h h R ` ' ' E r g h g g h g h z z z h p 9 a ` >.}.{.$.J g h h h h h g 9 R ^ / ^ a h h h R R R R R R R R R ! ! ! R R ! ! ! ! E ! g r h ! E E E ~ ~ ~ E E E E E E E ~ E E E ~ ` ~ E E W R R h h g 1 8 g g g R ! R R R R R E ~ ` E E E R h p 1 8 h R ! ! ! ! h p 8 g R R R R R h g g h R ! ! ! R R R h g g h R R R h r : 1.^.!.g.r h 1 1 p h h g R R R R R h h h h ^ h g 1 8 a a g h ! R h R R R a R ! h R R R h R ! ! Q / E E E E / Q E / [ 8.` ~ E ! ! ! h h h g h h g h R R R ^ ^ x d $ 7 ;.rX7X+.E W R E E E / h : 1 R ~ ~ / ! a R E ! ! ^ h g h R ! ! R R g g 1 h ^ / / 8./ ~ ! 8 - n.Q.F.Q.J.1.8 0 w a.W.j.E ` ~ 9.] E E ] ] ] ` E ` 8.] 8.` E E J J R p > o . X & g p p - 9 ` 0.+.) E F ! W R R 8 8 g 8 g g e 8 1 p h h a 8 8 : 1 , > , m ;.4X,.' h g z h g g c h 8 g g h g g g g h h h g h h 1 e e g g g g e 1 g g g g g g g g g h 8 g g g g g w ",
"1 1 1 1 1 y d q 1 1 1 1 1 u u 1 q q w 1 1 d y u 1 1 1 y 1 u u d u u 1 d d d 1 1 u u u d d d a E $.,.;.' R g g r e g g h g h h R E ~ E E 9 g h g g g h h h g g p 8 8 a ` ;.>.@.K 9 g h h h h h a R k.G.D.j.9 h h h h R R R R R R R R ! ! ! R R R ! ! ! ! ! g r h ! E E E ~ ~ ~ E E E E E E E ~ E E E ~ ` ~ E E ! ^ R h h h 1 1 g g g R ! R R R R R E ` ` ~ R R R h a 8 g R E E ! ^ ! h p p h ^ ! R J R h 8 g h h R ! ! R R h h h g g h ! h h e : j.NXNXz.R r 1 p p g h h R R R R R h h h h h g g 1 8 h g g g h R h h a a a ^ ! R ! ! ! h h ! / / ! R ! Q ! ! Q Q ~ ` ] ~ E E E ! Q ! h h h g h h h h h R ^ ^ z d @ 7 ,.yX+X) G R ^ ! J R ! a : g ~ 8.~ ! ! ! Q Q ^ ! ! h h g h R h h ^ h 8 : h ! E E / E ! h = = n.!.J.Y.U.c w 1 w a.R.g.E ` ` ~ E J E ] [ 8.~ E ~ ~ E ` ` ~ R R R / p > o . o y ^ ^ ! h J T i.{.t.' K R h h g 8 8 1 : g 1 1 1 , p p 9 a 8 1 , , , = 2 P #XqX@.K a h h 8 p h x g d g h a g g g h ^ z g h k g 1 1 g g g g e g g g g g g g g g g g g 8 g g w g j g ",
"1 q 1 1 q d d d 1 1 q q d d 1 1 1 1 1 d d y y u 1 1 1 1 1 u u u u 1 1 d g d u 1 1 u w d d g J ` &.&.' J g g g g g g g g g g h h R R ~ E a g g a a h h h g g 8 8 8 8 a E ' ' E 9 g g g p g g h R z.VXFXVXS.E V h h R h h R h R R ! ! ! ! ! ! R R R R ! R h r g ^ ! ! E E E ~ ~ E E E E E E E E E E E E ~ ~ ~ ~ / Q R h h h 1 8 g g g R ! ! R R ! E ~ ` ` ~ R R R R ! / ! R E Q R ^ ! g 8 g h ^ R R h R h 8 h g g R ! ! ! R a a g g g a R R g e 0 j.Q.Q.N.h 8 8 g h h h R R h h h h h h g R R h g g 8 R ! a a h R h h a a R ! ! ! ! ! R R h h ^ ^ R a R ! R R ! R E / ] ` E E E Q / Q h h ^ h h h h h g h c h d < @ N }.rX).H V R ! R a ! R p - R ] 8.~ E E ~ E ! / ! h h ! h ^ ^ R / Q h 1 ; h ! ! ~ ` / z 1 @ O f.W.b.D.H.r : 0 k n.b.a J ` ' E R E ~ ~ ` ] E E E E J 8.] E J E 8.6.g $ o . $ h / / R h h V +..X@Xi.U 9 8 8 8 p 8 p , 1 : 1 < 1 p t 6 i 8 1 , 1 1 - B O.4X X) J 8 g p p g h h 1 g h h g h h h ^ h h h g e e e w g g g g 8 8 g g g g g g g g h g 8 8 g g g g g d ",
"s d 1 1 1 d d d u 1 1 q d d 1 1 1 1 1 d d 1 1 1 1 1 1 1 1 1 d d 1 1 d d g g u 1 1 q q d p p K ` [ ] E h g g g g g g g g g g h h h ! ~ E a g g g g h R R g g 1 8 e 1 a J E E R 9 g g g g g g 9 / !.LXPXHXBXC.Q R h ! h h R h R R ! ! ! ! ! ! ! R R ! ^ h 8 8 g ! ^ ! R E E ~ E E E E E R E E E E ! ! E ~ ~ ~ ~ / E R h h h 8 8 g g h h ! ! R R R E ~ ` ` ~ E ~ R R g.J.A./ ! ! h h h g 8 g h h h h h h h h g g g h ! ! ! R a a g g a a J J g 1 k !.CXL.8.9 : 8 g ! ! h h h h h h h h g g R R h h h 9 R E a g ! h h h h h R ! Q E E E E ! R R ! h h h ^ ! a R ! a R E R / / / ~ / Q Q h h W ^ ^ h g h h r h g y & O B +X8X(.( V R ! R h ! ! g 6 R 8.8.` ` ` ~ ~ R ! R ! h ^ ! ^ h h ` E g 0 : h ^ Q ~ ~ ! g ; @ @ n s.^ s.c.2.k n.I.W.1.- J ` [ ~ E E ~ E ~ ~ J E E ~ ~ 8.E E R E ~ / y # X . $ h / / R a R R ) y.$XqX;.C a 8 , 8 g 8 , - = = > 1 , , 6 i 9 6 6 7 3 3 ;.$X@X*.~ h 8 g h h g h g 8 8 h h h h h h h g g g 1 1 e g w g h h g p p h g g g g g g h g g 8 g j g g d d d ",
"s s d d 1 d d d u 1 1 1 d d 1 1 1 1 d d d d 1 1 1 1 1 1 d d d d 1 1 d g g g u 1 1 d d d g p J E ~ E R g g g g g g g g g g g h h h R E E a g r g g g h h h g 1 g d w a R E R h 9 9 a g h h g 9 k.ZXIXIXLXZXbXN./ R ! R R R h R R ! ! ! ! ! ! R R R ! ! h 9 4 9 R ! ! R E E ~ E E E E E E R R E E ! ! E ~ ~ ~ ~ / E R h h h 1 8 h h h h R R R R ! E ~ ~ ` ~ ~ R R / A.!.D./ h h g g g g a p g g h h h R R h g 8 8 h R ! R h h h h h h R ! R a 8 c.CXAXL.] g : 8 g ! h h h h g g g g g g h ! R h h g a R R a h R a h h ! ! ! ! / Q ~ E E E ! R h a h ^ ^ R R R R R ! ! J ! / Q / Q Q ! h h h h R h r h h g h z u ; O S 7XrX(.( J R R R ! ^ h 1 4 R 8.8.` ` ~ ~ ~ R R a ^ R R ! h h h E E h e e h ^ ^ R h 8 < @ O O j c g h 2.D.U.CXI.1.8 4 E ] ` / / ~ ~ ` ~ ~ ~ ~ ~ ~ ` ~ K / E K J h ; o X . ; h Q Q ! h ^ W F S O.$X$X(.U m 5 5 9 9 7 2 2 2 4 9 8 p 9 N K K Z U } o.OX*X{.) R k 8 8 g h g h h g p h h g g h h h g p 8 1 e g g g g h h h g g h h h h g g g g 8 e g g j g g d u d ",
"s s q q 1 d d d u 1 1 1 d d 1 1 y u d d d d d 1 1 1 1 1 1 1 d d 1 1 d g g g u 1 1 d d d g g J R R a 9 8 g g g g g g g g g g h h h R E ~ R g r g g g h h h g g g g g h E E R a 9 9 a g g g g 9 D.GXPXPXLXZXBXL.8.R R ! ! R h R R ! ! ! ! ! ! R R R R ! R 4 4 9 R ! ! R E E ~ ~ E E E E E R R R R ! ! E E ~ ~ E ~ Q R h h h 1 8 h h h h R R R R R E E ~ ~ ` ` R R 6.V.J.z./ R a g a g g 9 9 g h h h R ! ! h g 8 8 h h h h h h R R h R R / ! 9 r !.AXmXY.c.h , 8 h ! h h h h g g g g g g ! ! R h g 8 h R h h h R a h R ! ^ ! ! ! ! ! E E ! R R h a R ^ ^ h R R h R ! Q R R ! R / Q ! R R R h h h h g g h h ^ c g < - | 8XyX:.H R ! R R ! Q h 1 h / ` ` ` ` ~ R E E R a R J J ! h h ^ E ~ ! h g ! ^ h g 1 ; @ @ = = ^ s.8 k ^ j.c.I.^ 8 - h / ` K E E ~ ~ ~ ~ ` ~ ` E ~ ~ E ~ ` ~ E E h & o . o < h R R ! R ^ ^ h 5 S ].*XwXOX .{ +.| } } X. ...$.' ` K N I 0.e.%.{.OX%X=XOX*.G r h 8 8 g h g h h h h h h g g h h h h g g g h h g g h g h h g g g g h h g g h g 8 g g g j g d g 1 1 ",
"q q q q d d d d u 1 1 1 d d q 1 1 q d d d d d 1 d q 1 q 1 1 1 1 q q d d g g p 1 1 u d d d g h h h 9 8 8 e e g g g g g g g g g g g h E ~ R g e g g h h h h g h h g g R E R J a h a a h g g 9 R Y.GXLXKXHXZXZXL.g.R h R R R h R R ! ! ! ! ! ! R R R h ! R 9 r R ! ! ! R E E ~ ~ ~ E E E E R R R R ! ! E E ~ ~ E ~ E R h h g 1 8 h h h h h R R R R R E ~ ~ ` ` E R Q g.k.k.g.^ h g a h h a 9 h R h h h ! ! h h g a h h h h h h R ! R ! E / R 9 R J.Y.F.F.j.g , p h h h h h h h h g g g g h h h R h a R a h h h R h ! R R ! R R R R R ! ! ! ! ! h h R R ^ h R h h h R ^ R R R h R ^ R R ! Q R ! h h h g R R R z u : 2 =.8XwX:.E ! / 6.E ! ! g 1 R / ~ ~ ~ 8.` R E / ! h a R E ! h g ! E ~ ^ g e h h g 1 ; O O ; : 8 j.j.h b.2.W W c.g e 8 R E ` ~ ` ~ ` ` E E ~ ~ ` E ` ` ] ` E ~ E E h $ . . X < h h a a h ^ ^ h r R ) ].wXrX*XOXOX@X@X@X@X@X@X.Xi.e.) N C ' ' U  .[.rXwX_.) F r h g g g h h z h h h h g g g g g g h h g g h h g 8 g h g p g g g g g g g x g 8 g g g g j d d g u 1 ",
"q q 1 1 d d d d d 1 1 1 d d q 1 1 q d d d d d 1 d d q q 1 1 1 1 q q d d g g p 1 1 u d d g g g g g g 8 8 g g g g g g g g g g g h h h E ~ R g e g h h h h h a J R a h ! E E a h h h h ! h h h / !.JXGXBXBXBXZXL.k.! R h h R h R R ! ! ! ! ! R R R h h R / k.D.D.g.E E R R E ~ ~ ~ E E E E R R R R ! ! ! E E E E ~ E R h h h 1 8 c R h h h R R R R R E E ~ ` ~ / ! ! / g.g.g./ h g 9 h R h a a R R h a R E ! Q R h h g g g h R ! ! ! ! Q ^ h 9 Q L.Q.Q.D.k 8 8 h h g g h h h h h h h h h h h h ! ! h J J h g h h h ^ h h R a R R ! ! E E Q / R a h R h h h h a 8 g R ! R R R h h ! ! R ! / / ! h h h h ! ! R h 1 1 3 (.rX*X@.E Q / 8.E ! R p , a E E E E / E E ~ E / h h / ~ ! h g R ~ / ! g d h g < ; & O O 1 h / k.z.l.I.1.<.D.U.1.k h R ~ ` ` 9.' ` ] ~ E ` ~ ~ ~ ~ ` 8.~ J R E R 1 o . . . < g h h h h c ^ h g k 5 U ,.@XqX*X$X@X1X1X{.u.u.*.) ` E 5 r 8 2 4 m  .rX*X@.( ^ R a p c h h g ^ ^ ^ c h g p e e g g g g g 8 p p 8 g h h g g g g g g g g g h g g g g g g g 1 d g 1 1 ",
"1 q d d d d d d d q 1 1 1 d q 1 1 1 d d d d d 1 d q 1 1 1 d 1 1 1 1 u d g g g p 1 1 d d g g g g g e 1 1 d g g g g g g p g g g g h h E ~ R g r e g h h h h a R R a R E E E a h h h R ! R h r ] mXAXBXK.Z.cXmXK.k.! R h h h h R R ! ! ! ! R R R R h R Q A.CXJXAXF.Q R R E E E E E E E E R E E E R ! ! ! E E E E E E R h h h 1 e c ! h g h h h R R R E E E ~ ` ~ R ! g.z.g.g.s.h a 9 h ! ! h h R ! R 9 a ! / Q R h h g g g h R R ! ! R R h g a g.mXNXNXQ.W 8 g h g g h a g h R h h h h h h h h ! ! a J R h g g h h ! h h h a R ! ! Q E E ! ! R a h ! ! h h g 8 g g h ! ^ ^ h g p h ! ! ! / 6.R R h h ! ! Q ^ ^ p 8 B }.rX$X} E Q Q ~ E Q z 1 1 R E ~ ~ E E R / / R ! R R Q / R g h ! ~ E g : < 1 ; + @ ; = 1 h / 8.] Q s.j.l.j.!.b.h h R E ` ~ E ` ~ E ~ E E ` ` ~ ~ E ~ ` E K ~ / a 1 @ . . . ; g h h h h h ! ! h e 8 2 M | >.;.;.@.%.$.) ( E E R E E h g , = 8 7 @.wX@X' ! ^ R h 8 g g 8 g z h h h h h g 1 8 g h g 8 g g g g g h h h g g h h 8 g h g e g g g g g g g u 1 1 d d 1 ",
"< < 1 1 d d d u d d 1 1 1 1 q 1 1 1 d d d q 1 1 1 1 1 1 q q 1 1 1 1 u u g g g g 1 1 u u u g e w w 1 1 1 w g g g g g g g g g g g h h R ` R a g 8 8 a a h h h ! R a R E ` E a h h h R R R h 9 / Q.AXBXK.K.mXmXK.g.! R R h h R R R ! ! ! ! ! R R R h h k.CXLXPXKX!.g.E R E R R E E E R R R E E E R ! ! ! E E E E E ! h h h h e e h ! R h h h h h R R R R E ~ E J R / D.G.g.g.6.h g a h ! Q ! R R ! R a h ! ! R R h g h g h h h h h R R ! R g 9 j.L.!.!.H.h 4 8 h g h h p a h h h g a h h h h h R R a E E a g 8 a a a h ! R a R ! R ! ! ! R R ! R a R ^ h h g 8 g h h ^ ^ h h h 8 h h R ! ! ! h h h h ! ! Q Q ^ g 6 U +XyX@XU R ! / ! E E h : , Q ~ ~ ~ E R J E E a R R h R ! 9 h ^ / / ! g ; O O @ o $ 1 8 ! ~ ~ ` E ! 2.D.!.V.!.j.h 9 R / / ! J E ~ J K ` ` ] ` ` K ~ ` ~ E ` ~ R 9 = o . X o < h ! a a ! ! h h h 1 : 1 9 E ] _ ( _ ] E R E R h h ^ ! R ! z i 6 M o.>X].E h 5.^ ^ g 8 8 g h g g g h h g 1 g g h g 8 g h h g h h h h h 8 e g g e e g e g g g g g g g 1 1 1 1 u d d ",
"< 1 y y q d d u d q q 1 1 u u 1 1 1 1 d d 1 1 1 1 1 1 1 q d d q 1 1 1 u g p g g 1 1 u u u d d d d u u u d g g g g g g g g g g g h a J ~ R a a 9 9 K ~ K J R R h h E ' ' E h h h h R R h h 9 ^ F.CXCXmXmXBXBXL.g.R h R R R R R R ! ! ! ! ! R R R h Q L.LXIXIXLXBXk.~ E R ! E E E E R E E E E E E ! ! ! R E E E E ! R h h g 1 1 h ! h h h h h h R R R ! E ~ E R R s.D.S./ ^ ! h h h a ! ! ! ! ! R R a R R R ! R a g h g h h h h a R R R h g g z.A.Q.A.1.r 8 h ! h h g p a h h h g g h h h h h h h a J ` K R g a a h h ! R h R ! R R R R ! h R h 9 h ^ g g 8 8 g ^ ^ R R g g h h ^ h R ! ! R a g g z ^ R ! R h , 6  .7XyX}.) F R Q / ! ! e : 8 / ` / / / ~ R R J R / R 9 h g 9 h E E R R 8 @ O o O O : h ^ ` ] ] ] ` E Q A.S.3.g.^ ^ a J E / ! J ~ ` ~ E ` ` ` ~ ` ~ E 8.~ ~ ` E / h = o . . . ; h h a h R R h g < ; 1 h ^ / / ` ` ] ] E J h p 8 g ^ ^ ! ! ^ p , m =.*X(.E R ! h h 1 : 8 g g 8 g h g e 8 1 g g g 8 g g h g h h h g h g 8 g g g g 8 e g g g g g g g d 1 1 1 d u d < ",
"< 1 y d q d d u d q q 1 1 u d 1 1 1 1 d d q 1 1 1 1 1 1 q q d d 1 1 d u g g g g 1 1 u u u d d d d d u u d d d g g g g g d g g g h h R ~ J a 9 V I $.$.` E R h h ! ` $.$.E h h h h R R h h h ^ A.!.mXY.L.bX!.S.k.! h h R R h R R ! ! ! ! ! R R R R g.CXIXUXIXLXZXS./ E R ! ! E E E E E E E E E E ! ! ! R E E E ! ! ! ! h h 8 e h ! h a h h h h R R R ! ! E ! R h / c.N./ ! h h h a a R R ! ! ! ! R a h R R ! R 9 h h h R ! R R R R R R a 8 p ^ s.j.W e h h ! h a g h h h ^ z h g h g a ! h h h a a J ' ` R a a ! ! h h h a R ! R ! / R ! h h g a h h h a 8 8 h ! ^ ^ h g g h ! g g h R ! R a a g h ! R R R h 1 7 -.8XrX:.( Q ! ! R R R : : h ! E ~ / / E ! Q ! R R R ! h h R ! E R R z < @ @ $ = 1 h ^ / ] 9.[ E E ! Q 8./ R h ^ a J J J E J J ~ ] ` ~ K E ` ` 8.` E ` ` ` ' ` 8.R 1 & X . o < h ^ R h h h g < < d h ! ^ ! R R / 6.~ E ! ! h 8 h z h ! ! z , - 3 =.7X{.( R a g h g e g g g g g h g e g g g g g g g g g g g g 8 g g g g g g g h g e g g e 1 1 1 w w w d g j d 1 < ",
"q q d 1 1 1 d d 1 1 1 1 1 1 1 1 1 1 1 d d 1 1 1 d 1 1 d 1 1 1 q 1 1 d d g g h g 1 1 u u u d d d d u u u d d d d g g g d d g g g g h E ~ E a 9 I @.u.e.' E R R h E ' *.$.E a h h h R R R h g R g.D.F.k.3.N.S.S.k.! h h R ! R R R ! ! ! ! ! R R R R k.AXPXPXPXLXGXL.[ E R ! ! E E E E E E E E E R ! ! ! R R ! ! ! ! ! R h g 1 8 h ! h a g h h h R R R ! ! R ! R a R g.g.8./ R a h 9 h R R ! ! ! ! R a h h ! ^ h a h h h h R R R R R R R h 8 p 8 g ^ r 8 g R R a a h h z h ! z g g h h h R h h g 8 g J 7.' K h R ^ ! R h h 9 h R h R ! ! ! h g g h g h g 9 g h h h ^ ^ h g ^ ^ h h h h h R R a a h h ! R a h g 1 V (.rXrX=.K E ! R 8 a a = : R / / / / ~ R R ! ! ! R h ! ! R ! E / / z g ; + $ > p ! ! ! / 9.] ` R ! ! E ~ E R g g 9 J E ~ ~ E E ` ` ~ E E ~ ~ ~ ~ ~ ` E E ` ] ] ` 9 1 + o . # y z ! h h h w < < d h R ! ~ ! R R ^ ^ h h g g h h z h h ^ / R 8 - 3 @.6X{.E h h h g 1 e 1 8 h g g h g w 1 w g g g g g 8 g g g p g g 8 g g g g g g 8 8 g g g w w 1 1 1 1 d g g d : 1 ",
"q q 1 1 1 1 w d 1 1 1 1 q q q 1 1 1 1 d d d 1 1 d 1 1 q 1 1 1 d 1 1 d d g g h g 8 1 u u u d p p p p u u g g g g g g d d d d g g g g E ` ~ J J +.y.y.$.( E R R J E ' %.$.E 9 r h h h h h h g g ^ k.g.Q ] V.S.N.g.R h R R R h h R R R ! R ! R R R R A.GXLXKXHXKXAXT.N./ ! ^ ^ E E E E E E E E R R ! ! ! ! R ! ! ! ! ! R g 8 1 1 h R h g h h g h R R R ! ! R R R a h 2.j.j.g.! a h h R R a R ! ! ! R a g a h ^ h h h h h h R R R h h h h z p h 8 g k h r g ! R h h h h h h h h h h g h h h h g p g h J 0.q.K R R ! ! h h h a R h a h R ! ^ h g h h g g g g ! ^ g g g g g h h ! ^ R h h g g p a h h h z ! R h g 1 V XXyX8X@.E R ! R 8 a , O 1 ! ] ` / ~ ~ R R ! R R R R R / E R E E E g ; + @ > p ! 8./ ! Q E E E ! R R ~ K ~ E a 8 a J E E E ` ] ` ~ E J J ~ ~ ~ E ~ ` R E ~ ` ` / R 1 # + o # d z R h h g 1 : 1 g h h h h g a h ! h 8 g 8 8 R ! R R R ^ ^ z u < 3  .7X].K h z z 1 : w 1 e h g h g 1 1 1 1 h g 8 g g g g g h g h g g g g g g g g 1 e g g g w d w 1 1 1 d d u 1 : u ",
"q q 1 1 1 1 q d 1 1 q 1 d d 1 1 1 1 q d u d d 1 d d 1 1 1 1 y d 1 1 d d g a h g 8 1 u u u g p p p p u p g g g g d g d d d d g g g a R I ' Y ) y.y.;.' V R ! J J ( $.$.Y R r h h h h h h h h h ! 6.j.j.z.L.Y.z.^ a h R R R h h R R R R ! ! R R h R A.GXLXGXHXHXGXBXL.g.! R R E E E E E E E R R R ! ! ! ! R ! ! ! ! / ^ h g 1 8 h ! h a g h h h R R R ! ! R R R a R g.A.A.z.! a R a R ! h R R R ! R h h 9 g ^ h R R h h R R ! ! R h h h z h h 1 : g e r h h R ! ! h g g h h ! ! h a g h a h p p h h J 0.u.I R R ! R h h h h ! h R ^ ^ ^ ! h h h h h g g a R ^ h g g h h 8 8 h ! ! h g h g 8 a ! h h z ^ ^ ! h - B XXyX*X+.E R ! R h g = $ g ^ R R E E E R R Q Q ! R R R R / ` ~ R h : O $ < h ^ ` ` ~ E R R / E R ! E E ~ ~ E ! J 6.` J E E E V E E ` E J E ` ` ~ J R ~ E J N ~ E ^ 1 & % . o < h ^ ^ h p g p a h h h e g g g h a 9 h h h R ^ ! R R R 9 h z y + 2 { +X[.K p u h 1 1 w g g g g h g e g g e z g g p g g g h c h g h c g g h g 1 g 1 g g g g 1 1 1 1 1 w g g d > 1 g ",
"< < 1 1 1 1 q q q 1 u u u u 1 1 1 1 u u u u u 1 q 1 1 1 1 1 y d 1 u y 1 8 a h h p 1 1 d g p p u u u u u u d d g d d g p g g g g g 9 C +.(.).).}.y.) K R R R R R ( $.$.( R h h h h h h h h h h h R s.z.j.A.G.j.R h h R R R R h h h h R ! ! h R h R k.BXGXGXZXBX!.!.Y.k.E R R ! ! E ! ! ! ! ! ! ! ! R R ! ! R E E R ! R h g 1 1 g h h h a g g h ! R R R ! R ! ! R R Q g.g.6.E R J R R R R R h R h h h h h g R R R R R h R R R ! ! h h h ! h p < $ d g h g a h h h h h h a h h h h a a p p h h h a ! 9 ( u.' E a h h R ! h R R R R ! ! h ^ h g g h g a a g a R ^ ! g g g p g a g h h h g g g z h g h z h ^ Q h 7 D &XtXOX) R R ~ R g d d < p ! ^ h R R R ! Q ! R a R R ! R / ~ ~ h : & O = a / / ~ E ~ ~ ~ ` ` E R J / ~ ` ~ ~ E E E ~ R R R E E R E ~ K E ~ ~ ` ~ ~ ~ ~ ` E ! ! R a e & + . $ g h h h p 8 8 g p p g g 8 h g h R ! ! ! ! g ! h a h R 8 4 g p , $ - D $XOXS R p g = = g g g h h h 8 8 g h g p g g h h h z g g h 8 h h g h 1 p p g g g 1 g g g g u g g g g g d 1 1 1 ",
"< 1 1 1 1 1 q q q d u u u u q 1 1 1 1 d p u u 1 q 1 1 q q 1 q d 1 y y 1 8 g h h g 1 1 d g p p u u u u u u u g g d d g g g g g g a J ) y.$X&X%XOX>.I J R R R R R ( $.$.E h h h h h h h h h h h h h ^ ^ ! s.j.^ R h h R R h R h h h h R ! ! h h h R g.T.GXGXbXk.] k.A.k./ R ! ! ! ! ! ! ! E E E R R R R ! ! R E E R R R h g 1 1 g h h g a g h R ! R R R R R ! ! R R ! ^ / ! R R E E ! ! R h h h R R R h h h h R R R h R R h h R R h h h ! h p < @ 1 g h g a h h a a a 8 a z ^ ! h g a 8 8 g g p a R 9 E *.$.E R R ! R h h ^ ! a R R R h h 8 g h h 8 8 8 a h R ^ ! h h h p 8 g h ^ h g a h z z h h h z c W ! a N  .9XyX}.) ! E E h 1 1 u u h R ^ h h h h ! ! ! ! R R Q ! R ! J R h ; @ O 1 R E E ~ E E ` ` ~ E R R J E E ~ ` ` ~ J J E ~ ` ~ ~ ~ E ~ E ~ ~ E E ` ] 8.8.8.` E R R R R g < + # ; h h g z h 8 g 8 8 g g p g 5.h h ! ! ! R h 9 g p 8 g h h R ! h g ; - S 7X2X) ! p 8 1 w g p h h h h g g g g a 8 g h h h c h h g g g g h g g 1 g g g g g g 8 p h 1 h z x l d 1 1 d d d ",
"< < 1 1 1 1 1 < d d u u u 1 1 1 1 1 d d g d u u 1 1 1 q q 1 q d 1 y d q w g h h a 1 1 d d p p u u u u u u u u g d d d d g g g p a K +..X*X=X=XOX;.B 9 h h h a R ( $.' K h g g h h h h h h h h h h h h a h ! R h h h h h h R h h h h R R ! h R h R g.L.CXCXY.] F ] N.N.Q R R ! ! ! ! ! ! E E ! R R R R ! R R E E R R R h g 1 1 g h h g 9 a h R ! R R ! ! R ! R R h R ! / ! a R ! ! ! ! h h h h R R R R h h R R R R R R h h h h h h h h R h g < @ < p h h g h h g 8 p 8 g h ^ ! h g g p h h p a R ! h C $.e.( ! R ! h 9 a ^ ! ! ! ! R g g 8 p g g 8 8 g g h g h h ^ h h g g g 8 h h g h h z z g r h z ^ ^ R 9 B :.yXyXi.( h ! ^ g 8 : , u h ! E ! ! R R ! ! ! ! R R E R R E R h 1 + @ ; h ^ R R ~ ~ ~ ` ` ~ ~ ~ / E E ` ] ~ E ~ ~ K E ~ ~ ~ ~ ` ` ` E ~ ` ` ` E ` ` E 8.` ~ ! R R ! 8 > # @ < h h a h h h g g h h h h a ! h R R ! ! ^ h 8 g z a g ! ^ ^ ^ ^ g < - B OX$X+.R , 8 g h h g h g g g g 8 p g h h h h h h z h g p h g g h h g g g 1 g g g g g g g g g g h h 1 1 1 d g d ",
"1 1 1 1 1 1 1 1 1 1 u 1 u 1 q 1 q d d d g d d d y 1 1 1 1 1 q 1 q q d d w g R R a 8 1 d d 8 p u u u u u u u u u d d d d g p g p a I ;.@X*X%X%XOX;.V 9 g h h a R _ $.( J h g g g h h h h h h h h g 9 a a h a h h R R h h R R h h h h h h R R h h R g.L.!.NXY.3.Q k.A.k./ R R ! ! ! ! ! ! E ! R R R R R ! R R E R ! R h h 8 : 1 g h h g 9 a h R ! R R ! ! R R R h h h R ^ h 9 a h R R R h h h h R R R R R R R R R R R R h h h h h h h h R h g < @ : p h g g h ! h g a g h h z ! h z z h h p p z ! ! h V ) u.) E R R h g g ! ! ! ! R R h 8 g g p g g g 8 g h h g g h c h g p 8 g g g g g g a p r r g h h R h 6 B (.tX7X%.E h h ! a 8 a p : h E E R ! ! R R R R R R R R E / E h g = O @ 1 h ! R E ~ E R E ~ ~ ` E ~ ~ E ~ E ` E R E ~ ` ~ J K ~ ' ] E J E ~ E ` ~ ~ ~ E ` ~ ` E ~ ~ R p < & O = g h J h ! h a h h g ^ h h a ! ! h ! h h h 8 p h h ! ^ ^ h ^ z 8 < : B /.$X;.J 1 g g g x h 8 8 8 g g g g g h h h h h h h h 8 g h h g g g p h g u g g h h g g g g u 1 1 1 1 d 1 d d 1 ",
"1 1 1 1 < 1 1 1 1 1 1 1 1 1 1 1 q q q d p g d d u 1 1 1 1 1 q 1 q q d d p g R R J 8 1 1 u 1 u u u u u u u u u u u d d d d g g 8 9 ' y..X[.(.[.OX;.C 9 g h g g E ' $.E h h g g g h h h h h h h h g g h h h h a h R h h h R h h h h h h h R R h h R Q z.F.F.L.S.F.!.Q.N.E R R R R R R R R ! ! R R R R R R R ! E R ! R h g 8 : 1 g h h g 9 9 g R ! R R R R R R R R h a h R R a h R R R R h h h h ! ! R R h h h R R R h R h h ! R h h h h R h d ; @ u p a a g R h h h h g h h h h h h h h h p i z R R ! J ) u.%.E R R R R h ! R R R h h h 8 8 g g g h g g g g g p h h h g 8 8 8 g p p 8 p g h p 8 8 p a h h g 6 A OXtX+X+.E R ! h g h ! z , g E ` E E ! R R R h R R ! E ~ / ^ g < O $ = 8 R ^ E / ` / ~ ~ E E ~ E ~ ` ` ` J E V J E E E ~ ~ ~ ` 8.` E ` ` ~ ~ ` ~ ` ` ~ E J E E / 8.~ h d < + : h ! ! ! ^ h g h g a a 9 h a ! ! ^ ^ h h g 8 g a ! ^ ! ! ! h g 8 1 - m O.qX,.K g g 1 8 g z 8 g h h g e g g g h h h h h h h g g g h h 8 g g g g g g g g g g g g 1 1 1 1 1 1 u 1 1 1 1 ",
"1 1 < < < 1 1 1 1 1 1 1 1 1 1 1 < 1 d d g g g d 1 1 1 q q q y 1 q q d d g g R R J 9 8 8 1 1 1 1 1 1 1 1 u u u u u u d d d g 8 8 9 ' t.y.@. .,.[.,.( r g g g h E ' $.E h g g g g g g h h h h h h h h h R h h h h R R a a R h h h h h h h h R h h R ! / / ] k.F.!.NXL.g.E E E R R R R R R ! ! ! R R R R R R ! R R ! R h g p : : g h h h 9 9 g h ! R R R R R R R R a 9 a h R R R ! R R R h h a a R R R h h h R R R R R R h R ! R h h h h h h d ; = p h ! h h h h g g h g g h h g h g g g h h R R R ! ! E I u.u.K R R R h g ! R R ! R h h r 1 8 g g g g g g g g 8 g h g g 8 8 p p g a a g h h p 8 8 a h h h g 2 U 3XyXOX' / ! ! ^ R ! 6.z < 8 R ~ E E E R R h R ! R ! / E Q h ; o O = 8 h ! Q E E E E ` / E E / ~ ~ ~ ` ~ E ~ J R E E ~ 8.~ ~ ~ ` ` E ` ~ E ~ ` ` ~ E E R R ~ R / 8.~ g < + + : h ! R ^ ! ! h a h a h ! ! ! / ! ^ h h a h ! h a ! ^ ^ ^ h g z h 1 - 3 O.qX}.K : 1 1 g p h g h h h e 1 g g g h h g g g g h g p h h g 1 g g g g g g g g g g g 1 1 1 1 1 u u u 1 1 1 1 ",
"< < < 1 1 1 1 1 1 1 u d u 1 1 < < q 1 1 u h g d 1 1 1 < 1 1 y y 1 q q y p p R ~ K V V a 8 1 u u u u u u 1 u u u d d g g 1 1 8 9 E $.u.$.I S *.].{.( 9 8 h g a ` 0.&.E h g g g g g g h h h h h h h h h h h h h h h h h h h h h h h h h h R R h h R R ! Q R Q g.A.D.j.W R ! ! ! ! ! ! R R ! ! ! ! R R R R R R R R R R h p , < 1 g R h h a a h h a R ! R R E E R R a a a R ! R a R R ! R h h h a h R h h h h R R R R R R R ! R h h h h R h g 1 ; < h h ! h h h g g g h p 9 a g g h g a g h R R a R ! ! R V *.p.) J ! R h 9 h R ! R h h h r p g g 8 8 8 g g g g 8 g g 8 g p p h h g h g g h h g g g a z ! g 8 7 | 8XyX_.' E R ! ^ g R R p < g ! E E R ! R h R R ! ! R R h g w O o O 8 / E ~ ` ~ E R R R R E / ~ ` ` 8.` 8.8.E R E 8./ E ~ ~ E ~ ` E ~ ~ ` ` ~ ` 8.J ~ R E ~ / R E R R 8 ; @ o = h ! h h ^ ! a ! ! a ! ! ! ! ^ ! h g h g ^ h 9 h ^ ^ 5.^ h h ^ h 1 = 2 } qX@XC : 1 d g g z p h c g e g g g g g h c c h h h h h h g g g g g g g g l g u g g d u u u u 1 1 1 u g d 1 1 ",
"< < < < 1 1 1 1 1 1 u d u 1 1 < < 1 1 1 1 g g p 1 1 1 1 1 1 d d 1 q q 1 d p R ` ) U U ` J p u u u u u u 1 d u u d d g g 1 w 8 9 E %.e.' E K $.].}.+.J 9 h a a ` 0.' R g a g g g h h h h h h R h h h h h h h h h h h h h h h h h h h h R R R h h R R ! 6.g.g./ g.V.V.3.E ! ! ! ! ! R R R ! ! ! ! R R R R R R R R R ! h p 8 : u h R h a a h R h a R R R R E E R R R R a R ! R a R ! ! R h h a a R R R h h g R R R R R R R R R h h h h R h g < ; 1 h h ! h g h g g a g p a g g h h g g h h h J R R R ! R J ..p.$.E / R 9 9 h R ! R h h h g g g 8 8 1 1 8 g g g 8 8 g g g g g g h g h g h ! h h h g h ^ ! h 8 7  .rXrX:.` ~ R ^ / R ! h 1 ; g R / E R R R R ^ R h h R R g 1 @ @ O = a ~ ` ` ` ~ E ~ R J R ~ 8.~ ` ` ~ E ~ ~ J J E ~ ` ` ~ ` ~ ` ] ` ` ` ] ` ` 8.` E ` E J E E R ! R h 1 & @ o ; h ! ! R ! h h ! R h R h R R R h h 8 8 g R a a h ^ ! h h g p h c g < - A @XOXZ - 1 : g h z g z h g 8 g g g g g g h h h g h h h g g g g g g g g u p g 1 d d 1 u d u u 1 1 1 1 u 1 1 d ",
"< < < < < 1 1 1 1 1 g g u 1 1 < < < 1 1 1 g g g u u 1 1 1 1 1 d 1 q 1 1 u p R ` *.:.y.q.~ h p u u u u u 1 1 u u d d g p 1 w 8 V Y %.%.( R R $.].}.*.E a h a J ' $.' R 8 g g g g h h h h h h R h h h h h h h h h h h h h h h h h h h h R h R h h R R ! 6.z.k.g.c.Q.Y.k./ ! ! ! ! ! R R R ! ! ! R R R R R R R R R R R h p p 1 8 h R h a a h h h R R R J E E E E E ! ! a R R R J R ! ! ! h h a a R R R h h g h R R R R R h R h h h h R R h g < & 1 a h ! h g h h p g g g h h h z h g h ! h h a R R R ! ! J I u.*.K ! h 8 a ! R R ! h h g g 8 8 8 8 8 8 g g 8 g g 8 g g 8 p g g g 8 g a h ^ ^ g h g a z R h 8 7 =.yX7X .` ~ R ! Q ^ ! h 1 < g R ! R R R R h R h h h h h e ; o O ; 1 R ~ ` ` ~ ~ ` ` ~ ~ E / 8./ ~ E E E J ~ E ~ E J ` ` ~ ~ E ~ ` ~ ` ' ` E ~ ` / / E R E E J ! R R h 1 + + + < h ! h g g h h h ! ! R R R h h h h 8 g ! R h h h ! h h h h h h h g < - B {.@XP = = = e h z h z g 8 8 1 g g g g g g g g g g g g g h g g h g g g d d u 1 u 1 1 1 d d d 1 1 1 1 1 1 1 g ",
"< < < < < < < 1 1 u g g g u 1 q < < 1 1 1 p g g d d 1 1 1 1 1 1 1 1 1 1 u p J ' y.[.].t.` a p u 1 1 1 1 1 1 1 u d d g p e e r J ' @.$.E R R ' ].@Xu.` h a a J ' $.( V 8 g g g g g g h h h h h h h h h h h h h h h h h h h h h h h h h R h R R h R R R ! s.s.g.F.!.Q.g.! ! ! ! R R R R R ! ! ! R R R R R R R R R ! h p , , 1 1 g R R h a a h h R R a J R R E E E E ^ a R R R h R R R R h h a h R R R h h h R R R R R R h h h h R h R R h d & & 1 h h R h g h h a h h h h h ! h h h ! h h h g R R R R ! J C *.u.K h h 9 h ^ ! R ! R h g h p p g g h h h 8 8 g g g 8 8 8 g g h h 8 a g h ^ ^ h h g h z R h 8 N -.yX1X+.( ~ E ! ! R h g 1 1 h ! ! R R R R R R h h z h g : @ + O p ! ~ ` ` E E ~ ] ` ~ ` ~ ~ ~ E ~ ~ E E E ~ ~ ` ~ ~ ` ` ` ~ E ~ ~ E ` ] ` ~ ~ ` E E E E ~ E J ! R ! R : + + + 1 h h h 8 8 h ! h R h R R h h h h g h h h a h R h z h h h h z h 8 1 ; = 3 >.3X$.- O O w x h h h 8 8 g e g g p g g h h g g g g g g g g p p 1 1 g 1 u 1 1 u 1 < 1 d d d 1 1 1 1 u 1 u g ",
"1 < < < < < 1 1 1 u g g g d d q < < 1 1 1 p g h j d 1 1 1 1 1 1 1 1 1 1 u p J ) y.{.].%.K p p u 1 1 1 1 1 1 1 u d d d u g r r E ' +.' R h R I :.OXy.' R a 9 J ` ' E 9 9 g g g g g g h h h h h h h h h h h h h h h h h h h h h h h h h R h h h h R R R R R R / V.Y.F./ R R R ! R R R R R ! ! R R R R R R R R R R z a 8 : : < 1 a R R R h 9 h R R R R a R R R R ! ! ! h h h h h R R R R h h h h h R R R h h h R R R R R h h h h R h R R h 1 @ @ 1 z h a p p R h a h ! R R ! h a h ! R h R h g a R ! R R R J $.p.Y h h g h h R R R R h g h h h h h h h h 8 g 8 8 g 1 1 8 h h ^ h g g h h h z h h h h z R p 8 V _.rX{.) ] ` ` / ! R r g : , h ^ / ! R ! ! Q / R g h h 8 = + $ : ! ~ ` ` E R R ~ ] ` ~ ` ~ ~ ~ J E E E R E ~ 9.8.` ` E K J E E ~ ` E ~ 9.] E ~ ~ E R E E R E E Q ! E ! 8 $ o o < g h h h h h ^ h 9 a ! R R h a h g ^ ! h a h h h ! h 8 8 8 h a a e ; < 2  .4X%.- O O 1 x h g g 1 8 g g g p 8 g g 8 8 p g h h h g 8 8 8 g g 1 u 1 1 1 1 1 1 < 1 d d 1 1 1 1 1 g d d d ",
"1 1 < < < < < 1 1 d g g g u d q q q 1 1 1 p g g g d 1 < 1 1 1 1 1 q q q y p J ( e.u.*.` h 1 d u 1 1 1 1 u 1 1 u u d d d p g g E ' ' E 9 g h E X.}.i.' R a 9 J ` ` R 9 g g g g g g g h h h h h h h h h h h h h h h h h h h h h h h h h h h h h h R h h h h h R s.k.g.Q R R R ! R R R R R ! ! R R R R R R R R R R h a 8 : : 1 1 a R R R a 9 h h R R R a a R R R R R R h h h h h h R R R h h h h R R R R h h R R R R R R h h h h h R R R g 1 @ @ 1 z h a g g h ! R R ! h h h h a h R h a R h g h h h ^ R J V ) {.$.a h a g h ! R h R h g g h h h h g g g 8 g 8 8 g 8 1 8 g h h h h h h h g h h h h h l a p 6 B }.rX;._ E E ~ / E R h g : u ! ^ ! ! R ! R ! ! ! ! h g : O O = h ~ E ~ ! R R ! E ` ] ] ` E E ~ E E E E R E ~ ~ ` ` ~ K K ~ ` ~ ` ` ` ] 9.~ K ~ E R E E R R E E Q Q / ! p ; o o 1 h R ^ R z h h h a R ^ ! ! ! h h h ! h z h ^ h h z g 8 8 8 l h R h 1 ; - A .Xq.2 O O 1 g h g g g h g g g 8 g h g g 8 g g g g g g g 8 p h g g g 1 u d 1 1 d 1 1 d d 1 1 1 1 1 d d d d ",
"< < 1 1 1 < < 1 1 u g h g 1 1 1 < q < 1 1 1 g h g g u 1 1 1 < < 1 q q q 1 1 h ~ m.M.m.Q g 1 u u u 1 1 1 u d d d d d d e p 8 J ` ' ` R r g g R ) y.{.@.J 9 9 J ( ` R 9 g a g g g g g g g g g g g g g g g h h h h h h h h h h h h h h h h h h h h h h R R g 8 r R ^ ! R R R R R R R R ! ! ! ! ! R R R R ! R R R R h 1 1 1 1 , , a R R R a a h h h R R a a R R R R R h a h h h h h h R R h h a a R R R h h h R R R R R R R h h h R h h h g 1 @ ; u p h h h g h R h h R h R R h h h h a a h g g g h R ! R a 9 I p.w.J 9 a ! h ^ ! R R R h g h h g g g g g g g 8 8 g g 8 g h h g g h h h h h h h ! h h l z 1 - C OXwX@.E ! R ! ! ! h h g : , h R R h a h h ! R h c h 1 + @ = , h R R E R J R R R E ` ` ` K J ~ ~ ~ E E R E E E E E J ~ ` ' ` E E ~ ~ ] 8.` ` ~ E R J E E E R E / / / ! 1 + # + u z ^ ! h z h h R R ^ / ! h ! ! h h p a h a ^ ! h h h h g e h R ! z d ; : B i.q.7 o o ; g g g h h h h h g 8 g h h h h g h g g h g g h g p g p 1 1 d g u u d d 1 1 1 d 1 1 1 1 d d 1 1 ",
"y y y y y y y y 1 p g g g 1 1 1 1 1 1 < 1 1 g h h g p 1 1 1 1 < < q q q 1 1 h / k.N.k.2.h 1 1 1 u u u u d d u u g g p 8 e 8 J ` ' E J g g g h E *.].>.U K K I T ( J a h g g g g g g g g h h g g g g g g h h h h h h h h h h h h h h h h h h h R R R R R g 8 g h R R R R R R R R R R ! R ! ! ! ! R R R R R R R R 8 < < d p 8 8 p R R R J g g h R R R R h R R R R J J J R h h h g h R h h a a a g h R R h R R R R ! R R R a h h h h g h h < = < g g g g g g a h h g h a R R h h g g g 8 p p g g h R R ! h 9 V e.B.K 4 g ^ R R ! R h R h h h g g g g g g h g 8 g h h g h ! h g h h g a g h z h z h h h z 1 - A 2X7X+.E R R R R R h h g : 1 h R R a a g h z h h g 1 & # & : a h R R R E R R E ~ ~ E E ~ E E ~ ~ ~ E E ~ ~ E E E E K ` [ ` E E E E ~ ` ` ~ ~ ~ E J J E E R J E ~ / ! a = o # O u c ^ ! h h h h ! ! ! ! ! h ^ ! h g 8 h h a ! R h h h h g e 9 R R ! g q q 2 T 0.J o o < g h g h c h g g g 8 g h h h h g h h h z g p g p p h g 1 1 d g d 1 1 d d 1 1 1 1 1 1 1 1 1 1 1 ",
"y y y y < < y y 1 u g g d 1 1 1 1 1 1 < 1 1 g h h p p 1 1 1 < < 1 q q q 1 u ^ g.N.A.V.j.c 1 1 1 u u u u u d u u g g g g e 8 R ` ' E a g g g g K .._.).O.O.;.:.;.$.J a h a g g g g g h g h h g g g g g g h h h h h h h h h h h h h h h a h h h R R R R h g 8 g R R R R R R R R R R R ! R ! ! ! ! R R R h R ! R a 8 > 1 h h p 1 p R R R J g g h R R R R R ! ! ! R R R J R h h h h h h h h h h h h h h h h R R R E ! ! R h h a h h h g h p < = < g h h g g a a h h g h h R ! R h h h g g 8 g g h h h R ! ! h J 0.r.I 9 p R R J ! R h h h h g g h g h g 8 g g 8 h ^ h h h ! h h ^ h g 8 8 g h h h h h h h 1 - S 1X$X) E ! R R R h h h e : 1 h ! R a h g a h p p 1 > $ & $ 8 R R R R R ~ E E ` ` ~ E E ~ ` ` ` ` / E J E E E / ` E K E ` ` ] E E E E E E ~ ~ ~ E J E E / E J R E ~ ! h > # # O u h h ^ h a 9 a R R R ! ! ! ! ! h 8 g ! h z ! h g h g r r g h h ! ! h 1 ; = 2 E 6 O O : g g h z h h g g 8 8 g h z z h h h h h h g g h g p g p 1 1 d g u 1 1 1 d 1 1 1 < 1 1 1 1 < 1 1 ",
"1 1 1 < 1 < 1 1 1 u g d u 1 1 1 1 1 q q < 1 d g g p p 1 1 1 q q 1 q q q 1 g ^ k.A.S.A.l.^ g 1 1 1 1 1 1 u u u u d d g g e 8 R ` ` E a g g r g J $.[.+X%XoX%X+XOXu.E i p a a g g h h h h h h h h h h g h h h h a h h h h h h h h h h h a h h h R h R h g g 8 g R R R R R R R R R R R R R ! ! ! R R R R h R ! R p 1 : p h h p u p R R R h g a a a R R R R R ! ! ! R ! R ! h h h g a a h h R R R R h h a h R R R ! ! ! R h a h h h h a h u > ; < h h h g g h h h R h a h R R R R h h g g a h h h h h h ! z h J Y q.U 9 9 h ^ J R h h h h h 8 8 g g g a 8 g g 8 h z h a g ! h h ^ g g p 8 8 8 h h a h h h : 1 U 2XOX) E / ! ! ! R R h g : 1 h R R R ! h a p 1 1 > > $ $ : h ! / ! J R E ~ ~ ` ` E ` ` ~ ` 8.~ ` ~ E J E J E ] ] E ~ ` ] ` ( E E E E ~ ~ ` ` ~ E ~ ` / ~ ~ E E E E R h < # o o 1 h ! ^ h h h h R R R ! ! R h h g p g h h ^ ^ h h g 8 8 8 r h h h h p 1 ; : 8 9 ^ g < 1 g g h h h c g e e h h h h h g h h g g g g g g p g g 1 1 1 d u 1 1 1 1 1 < < < 1 1 1 1 1 d d 1 ",
"1 < < < 1 1 1 1 1 u 1 1 1 1 1 < 1 1 q q < q d g p p p 1 1 1 q q 1 1 1 1 u g ^ j.A.A.A.l.^ e 1 1 1 1 1 1 u u u u d d g g e a R ` E R a r g 8 g J T ].*X;X:X:X=X*X{.( a h g a g g g g h h h h h h h g g h h h h a h h h h h h h h h h h a h h h R h R h g r g h R R R R R R R R R R R R R ! ! ! R R R R h R ! h 8 1 8 h z l u 1 a R R R h g a g h a R R h R R R ! ! ! R ! R h h a a a h R R R ! R R h a h h R R ! ! ! R h h h h g a h h 1 > ; 1 g g g h h h R h R h h ! R R R R h h g g g h R R h g g h z R J K q.P 7 9 J ^ R R h h g h h 8 9 p 8 a 8 g h h g p h h a g ! h g g g p 8 8 8 8 h h a h h p < 6 ..1X].U E Q ! R ! R R g g : 8 R ! ! R h h h u < > O O = = h ! R ~ R J E E ~ ` ` ~ E ` ~ ~ ` / E E E R J E J J E ` E 8.[ ] E J E ~ ` ` ` ` ` E E ~ ` ~ / E E E J E R R p > # o o 1 h ^ h 9 g h h R R ! ! R ! h h 8 h h h z h h h g 8 8 g h g r g g 8 1 : 1 0 e 1.D.l.^ g g h h h h h g 1 8 g g g g p g g g g g p g p 1 u g g 1 1 1 d u 1 1 < 1 1 < < 1 1 1 1 1 1 1 1 q ",
"1 1 y y y y 1 1 u 1 1 1 1 1 1 < < < q q 1 q 1 1 8 p u 1 < 1 q q 1 1 1 1 p g ^ j.k.k.k.j.^ 8 u u 1 1 1 1 u u u u d d g g 8 a R ~ K R a g 8 8 p a K ;.$X;X;X=X*X+X{.T a g g g g g g g g g g g g h h h g h h h h a h h h h h h h h h h h h h h h h h R h r e g R E R R h h h h R R R R R R R R R R R R R R ! R g 1 , h ! ^ h 1 1 p R ! R h h g h h h R h h R R h R R ! ! ! R h h a a R R R R R R R R R h h a R R R R R R a h R h h h h h 1 = ; 1 h h h h h h R h h ! R ^ h h R h h 9 a h h h a a h g 8 h h R R R $...C J R ! R R h h h h h g p a 8 a a a h ! h g p g h h h h g p g 8 8 8 g h h h h h h g < , ..1X-.I ! ! ! R ! ! R a 8 : 8 ! ~ ^ ^ h p u > < & o O = 1 ^ ~ R R R R E E ~ ] ` ~ E E E ~ E E E E E J J E E E ` ` ` ` ] E R R ~ ` ~ ~ E ~ ~ E ~ ~ E K E ~ ~ R J ~ E / h $ # o # y z h g 8 h h h R R ! R R ! ! g 8 ! R h h g 8 8 8 8 p ^ ^ h h h g g 1 ; ; : 1.x.H.D.a.g e h g g h g g 8 g g p g p p g g g g p 1 g g 1 g g 1 , 1 u d u 1 < < < 1 < 1 1 1 d d 1 1 < 1 q ",
"< 1 y y y y < < y 1 1 1 1 1 1 < < < q q q q 1 1 1 1 u 1 1 1 q < 1 1 1 1 p p ! s.g.j.g.s.! 8 1 1 1 1 1 1 u u u g d d g g 8 a R E J R 9 g g 8 g a J $.{.OXXX_._.}.].+.J g g g g g g g g g g g g g h h g h h h h a h h h h h h h h h h h h h h h R h h g e e g R E R h h h h h R R R R R R R R R R R R R R ! h 8 1 8 R ^ ^ p < 1 p R ! R h h g h h h h h h h a a J R ! ! ! R h h a h R R R R R R R ! R R h 9 R R R R R a a h R h h h z h < O < 1 h ! h h h h R a h ! ^ ! h h h R h a 9 a h R J a h h e g h R R R I $.$.K J R R R h h h h h h h g p g g h ! h a g h h ^ ^ h h h g 8 8 g g g h h h h z c g < 9 %.1X;.K ! ! ^ ! ! / R h g : 1 z ! h k p 1 > $ * & o O : a ! E R ! / R R R R ~ ~ K K J J E J J / ~ E E ~ E ~ ` 9.` ] K E E R E E ~ ~ ~ ` E K E ~ ~ ~ E E E E R ~ / E ! p $ o o + y h h g 9 R h R ! ! ! R R ! h 8 8 ^ R a a g p 8 8 8 h ^ ^ a R h g g 1 ; ; k b.D.c.c.l.x g h p g h g g g h g g h g g h g g h g 1 g g 1 g g 1 1 1 u d 1 1 1 < < < 1 1 1 1 d d d 1 1 d 1 ",
"< y y y y y y y 1 1 1 1 < < < < < < < < < < 1 1 1 1 1 1 1 < < < 1 1 1 u p h ! / j.j.j.^ g 8 d d u u u u d d g g d d d 8 a R E R R 9 r g g g g g 9 E *.y.%.+.| :.}.u.( a g g g g g g h g g g g g h g a a h R R J a a a h R h h h h h h h h h h h h h r 1 1 h R ! h h h h h h R R R R R R R R R R R R R h R g : : h R R R g : : 8 R ! R R h a g a a R h h h a a a R R R R h h h h h R R R R R R R ! R R R R R R ! R h a h h h h g g h g < $ > p z h h R R R a h ! ! ! R h h h h h h h h h R R R h h g g a R R h J $.u.' R ! R R R h h h h h h h g g g h h ! h h h h h a h g p g 8 p g g g g h h z ! h 1 ; 6 ;.<X%.K h h h ! ! R a h g > : h z g 1 < > $ $ $ # o $ p a J E E E R h R Q ! J J K ` E J E E ~ / J E ~ / ~ E ~ ] [ E E E R / R J E E ` ` ~ K ~ ~ ~ E E J E / / / R ! h u + o . # 1 h h h h h h R R R R ! ^ ^ h p g ! a h z h 8 r h h h ^ ^ R ! h h g < ; = b.Q.^.c.b.H.g h h 8 h g g e 8 g g g 8 8 8 p p g h g g g g u g g g u 1 1 d d 1 < ; ; ; 1 1 d d d 1 1 < d d 1 ",
"< y y y y y y y 1 1 1 < < < < < < < < < < q 1 1 1 1 1 1 1 q < < 1 1 1 u p a ! ^ ^ 2.2.^ h p u d u u u u d d g g d d d p a R E R h 9 8 r g g g g g J ( ' ( K I @.{.y.( a a g g g g g g g g g g g g g a a h R R R R a a h h h h h h h h h h h h h h g g 1 1 g h R h h h R R R R R R R R R R R R R R R R h h p : 1 h R R h p : : 8 R ! R R h g g h R R R R h h a a R R h R R h h h h R R R R R R R ! R R R R R R R R R h h h h h h h h g < = < p z R R ! ! R R R R ! h h h h a 9 h R R h h R ! ! h g g g a R ! h J ' u.e.E R ! R a a a h z h h z z h g h h h h h h h a h h h g g g g g g g g h z z h g 1 ; 2 ;. X+.R h h g g ! R R h u = < h h : @ $ + $ $ o + O u z ! J R R R R a R R ! E E ~ E E R ~ E E ` E R E E E E ~ ` ` ( ~ E E / E E ~ E E ~ ~ ~ ` ` ~ ~ E R E E E R R R g 1 # . X # < g g g h R ! ! R R ! ! ^ ^ g g h h R ! h g g h ^ h ^ ^ / ! R h h g < O k !.^.!.2.D.l.1 p h g g g h g e g e g p g g g g g h h g g g u g g g u 1 1 1 d 1 < < < ; 1 1 d d 1 1 < 1 1 1 1 ",
"y y < < < y y y < < 1 1 1 < < < < < < < < q q 1 1 u q 1 1 < 1 1 1 1 1 u p a z ! h ^ c k g g 1 1 u u 1 1 u u u g d d g p a J R R g 8 r e g g g g h a K K h a J ..y.y.T 9 a g g g g g g g g g g g g g a a a R R R R a a h h h h h h h h R R h h h h g 1 8 8 9 h h g h R R R R R R R R R R R h R R R R R h g 1 : 8 ! ^ R h 8 : 1 p h ! R R h g g h R R R R h h a a h R R R h a h h h R R R R R h R R R R R R R ! ! R R h a h h h z h h y < ; : g z R R ! ! ! R R R R h a h g a a a h h h h h h h h g g g a J R ! ! ( @.u.( V E R a 9 i h z h h h z h h g h g h z h ! h h p g g h p p g g g h R h h a 8 < @ - ;.i.) J g h g a h h z h 1 $ ; g 1 = + O @ & + O ; , h R E J E ! ! ^ R R R E ~ E / E ` / / ~ E ` ~ E E J E ~ E E ` ] E E E E E E E ~ ~ E E E ` ` ~ R R R J J R ! Q Q h u + . X # y x z h W ^ R R ! ^ / ! h z p g h h h h h g h ^ ! h ^ 6.^ h ! h g 1 ; O n.^.U.x.1.l.k 1 g g g 8 h h g g g g g h h g g g g g g g g g : u g g d u d d d < < < q < d d 1 1 1 1 < 1 < < d ",
"y y < < 1 y y y < < < < < < < < < < < < < q q 1 1 u d 1 1 < 1 1 1 1 y y p p h h g h k g g u 1 1 u u 1 1 u u d d d d g g a J R R g e e e g g g g g R R K h h a T t.,...V a g g g g g g g g g g g g g a a a R R R R a h h h h h h h h h h R h h h a 8 8 7 9 J R h g h R R R R R R R R R R R R R R R R R h p < : g ! ! R h 8 : 1 8 h ! R R h g 8 a h h h h h h h a h R R R a a h h R R R R R R R R R R R R R R ! R R R h a g h z h h p < < ; 1 g z R R ! ! ! R R R R h a g h h h h h a a h h g h h g h h a J R h ! E U u.%.K R R a a a h h z h h a a a h h a h ! h h g h h h h h g g g g g h R h h a 8 < + 6 y.i.( 9 h h p g g h h g < O @ < = $ # + + + O = p h R E / E E R R R R ~ ` ~ ~ R R E ` ` ` ` ~ E J E ` ~ ` ~ E K E E ] ] ` K ] ] E E E E ~ / / E R J R ! J R R R ! R p < o o + # y z z h h ! R ! / / ! h ! h , 8 g h z h h h a h h R ! h g g g g 1 ; ; ; D.H.1.k v r 8 1 g g h g h h g g g e g g g g g h h g g 1 u 1 : g g g 1 : d d q 1 < ; ; < d d 1 1 < 1 < 1 < d d ",
"y y < < 1 1 y y < < < < < < < < < < < < q q q 1 1 1 q 1 1 < 1 1 1 < y y p p a g g g g g 1 u 1 1 u u 1 1 u u u d u u d g a J R h e e e e g g g d g R E R h g a K %.,.+.K a g g g g g g g g g g g g g a a a R R ! R J h h h h h h h h h h h h h a a 9 9 K I K R h g h h R R R h R R R R R h R R R R R R h 1 < 1 h ! ! R h 8 1 : 8 h ! R R h 8 8 9 a a h h h h h a h h R R h a h h R R R R R R R R ! R R R R R ! R R R h a h h h h p , > ; < 1 h R J R R ! R R R R R a a h R h h h R R a a g g g h g g ! R R R R R E K *.>.) J R h z h R R h h h a h h R h h h h h a p g h h ! h g g g g g g h h h h g < @ 6 i.p.E a h h g g g g 8 u ; o @ & $ + # # o O = 1 h E ~ ` ` ` R R J J K ~ ` ` ` E J R E K E ~ E E E ` ` ` 9.` K K R E E ] ] ` ` ` E K E E ~ ` ~ R R R ! ! E ! a ! R h 8 > o + + # < g g g g h ! ! ! ! h h h p 8 g h 8 h g g h g R a a h h h g 8 g 1 < @ q l.z.^ k f.c 1 g h g a g g g g g 1 1 g g g g g g g p p 1 1 1 1 1 1 u < < d d < < ; ; ; q q 1 1 1 1 1 1 1 1 d d ",
"y y 1 1 1 1 < y < < < < < < < < < < < < < q q 1 1 1 q 1 < < 1 1 1 < y y p p p p 8 g g d u g 1 1 u u u 1 1 u u u u u d g a J R g 8 e e g d g g g g R E R g w p R $.y.;.( a g g g g g g g a a g g g g a a a R R E E J a a a a a h h h h h h h a 9 9 N Y $.%.' J h g h R h h h h R R R h h h h R R R R h h 1 > 8 R R R R z g 1 : 8 h R R R h g g g h h h h R h h a a a ! ! h 9 h R R R R R R R R R ! R R R R ! R ! ! h h a h h h p 8 : > ; 1 p h R J J R R R J R R R a a R R R R R ! ! R a g h h a 9 8 h ! R ! ! ! / E $.i.$.E R z z R R ! h h h h h h h h ! h 9 h h h g h h ! h a g g g h h a h h h h < ; 6  Xy.G h h h g g g 8 , ; @ o # & & + & & + $ 1 h R E ` ' K ~ ~ J J E ~ ~ ~ ` E J J E E E ` ` ~ K ~ ` E ` ' ' ] E E E E ` ` ] ` E E E E R J R J R ! ! R ! ! R ! ^ h h 8 < + % o o < h h h g h h a h R R ^ g g h h h h 5.h p ^ ^ ! ! R ^ ^ h g g z d < o q n.z.^ e v.v = 1 c g g h 8 8 8 g g 1 g g g g g g g u , 1 g d d d d g 1 1 d 1 < ; $ & ; ; 1 1 < < 1 1 1 1 d d 1 ",
"< 1 1 1 1 1 < < < < < < q q q < < < 1 1 1 y y y y y y < 1 y y y 1 y 1 1 p g p p 1 1 1 1 1 d u u 1 1 1 1 u u 1 1 w e 8 g h ! R 9 8 8 1 w w e g 8 g R E J g d g a ) i.,.U J a h g a h g g g g g g g a a h h h R ( _ E R h h z z h h h h h a h h 9 7 U ]. Xe.' E 9 a J R R h h h h h h h h h h ! R ! ! h p : 8 h R E ! ! R p 8 8 g R R R R R g a g g h h h h h h R R h h h a 9 h R R R R ! ! R J R R R R h R R R R ! h 9 9 a ! ! h 1 > $ > u h h a R R R R R R ! ! ! ! a R ! R R R h g h g h h g g h h ! ! R a a ! ! J T >.<X) ~ ^ h h h R h ! h g h h ^ ! h h h h h R ^ h h ! h g h h h R ! z z h R h ; ; 7 {.>.V h k g 1 g g 1 > o o o # $ & & # O O - h E ~ ` ` ` E K R J J E E K E E K ~ ~ E ` ] ` ` ` ( ( ` ` ] ` ` ] K ~ ] ` ` ] E E K E ` ` ~ E J 9 E E R E Q ! R s.^ 4 8 h 1 + . . # < h h a h 9 h R h h g h h 8 h z z x k 8 8 ! ^ ! ! ! ^ c h 8 g g > + + x n.W W r 1.1 = : h e g g 8 : 1 8 1 1 8 g g g h h h 1 g g d u 1 1 1 d 1 ; < ; ; ; & & < & q u d g d u 1 1 1 1 1 ",
"1 1 1 1 1 1 < < < < < < q q q < < < 1 1 1 y y y 1 y y < < < y y < 1 1 1 p g g p u u d 1 1 1 u u 1 1 1 1 d d 1 1 w e 8 g h R h 9 8 1 w w w e g p g R E R h g g g ` i.{.@.J a g g a h g g g g h g g g a h g h E ' ' K R h h h h h h h R R h g 9 V ) y..Xp.%.' E h a J R R h h h h h h h h h h R R ! R g 1 1 p R ! ! E ! R p 8 8 g R ! R ! R g g g g g g h R R R R R h R h g 9 h R R R ! ! R R R R R R R R R R ! R h h a a a h z h 1 > $ > 1 h h a R R R R R h ! R R R R R ! R h h h g g h h h h h h R R R h h h ! / R C +.<X+.R R h h h h g h h g g g h h h R R h a ! ^ h h ^ R h h h h R ! h h h ! h < = 3 {.;.J r e g w g u < & + + % % $ $ & & > = 8 / ` E ( ` ] E V ~ E J J J E E E ~ 8.` ~ ~ ~ E K E ` ` ( ` ` ` K E E ` ] ` E ] E V E E ` ] E R J R ~ / E E R R 9 ^ h h 8 8 1 & + o % < g h a h h R R g g r g p g h h h 8 g p h h / ! a h g p 1 8 g d ; + $ n n.l.c.b.a.; ; : g g g 1 1 g 1 1 1 8 8 8 8 g g g p 1 l g g d 1 1 w d ; < < ; < & $ ; y d 1 1 d g d 1 1 1 1 1 d ",
"1 1 1 < < < < < < < < < q q q < < < < < 1 y y y < < y < < < < < < y 1 1 p g g g 1 1 1 1 q 1 1 1 1 1 w w d d 1 1 e e 8 g h h h 9 r 8 w w d g g g h R E R h g g g ` y.{.%.E g g g p g g g g g a g g g a h g h E $.$.I J a h a r h h R R R h 9 N U ,.}.y.%.' ` E h a a R R R h h h h h h h h R h h h h p : 8 h ! ! ! R ! h p 8 1 g R ! R R R h g g g g 9 9 h R R J R h h h g 8 a h h R ! R R R R R R R R R R R R R h a a h h h h h 1 < $ < p h h R R R h R h h ! R R R ! R R h a h h g g h h h h h h ! h h h h h R ! R K U i.%.J a h h a h h R R h h h h h h ! ^ R h R R a a h h h h h h R h g g h ! h < = V {.%.J r e g w 1 < $ + % % % & + O O = 1 a R ~ ` E E E E E J E E R E E ~ E ~ ~ ~ ` ~ ~ ] ` E E ` ` E E E E R ` ` ` ` E 9.9.` ~ ` ` ] ` E E R R R E E R R ! h ! R h g 8 < $ % + & < z ^ R R R R R h h c p g h z h h 1 g g g R / ! R R 8 8 8 8 h g d $ + a.W.b.D.W.v @ ; w g g 1 1 8 g e 8 g g g h g p g g g d j d 1 1 : 1 w q < < < < & + & < < y 1 1 1 1 1 1 u d d u u ",
"1 1 1 < q q q q < < 1 1 1 1 1 1 < < < < < 1 y 1 < < < < < < < y < y 1 1 p g g g 1 1 1 1 1 1 1 1 1 w w w d d 1 1 e e 8 g h h a 8 e e w w d g p g h E E ! h p p h E *.i.t.E a g g g g g g g g a g g g g h g a E $.%.T J a h r r g h h h h h V D (.OX{.@.T ( E R 8 a h R R R R R h h h R R R R h h g p 8 1 p h ! ! ! R R h 8 1 1 g R R R R R h g g g 8 9 9 h R R a a h h h p 8 a h a a R R R R R R R R R R R J R R h a h h h h h p 1 < > < g g h R h h h h R R R R R R ! R R h h h a 8 g h h R h h h h h h h R h h ! E E ( >.%.K 9 h h a h R R h h R R h h a R R ! ! ! R a h R ! R h h ! R h h h R R p ; = R y.P 9 e w 1 1 < > + # # + + + + O = 1 g ! E E E E ` ` E R R R R R ~ R J J E ~ ` E E E R E E ~ ~ ~ ] E V J E ] ` ` ` ` ` E K E K E ] ] ] ` ` R J E E E R E E ! ! 9 h g 1 $ # o & y z ! h h h ^ ^ h h h 8 8 8 8 1 8 : e h h W E F E / W W k h g g g < g n.CX!.W.n.< & $ g j g 1 g 8 e g g g g g g g h g g 1 1 w < < 1 1 u 1 d d < & q & & < d y 1 1 d g d 1 d d g g 1 1 ",
"p p 1 < q q q < < < < 1 1 1 1 < < < < < 1 y y y y y 1 1 1 y y y < 1 1 1 p g g d 1 1 1 < 1 1 1 1 q q u u d d w w e e 8 g h h 9 8 g e w w g g p p h R E R g p a g J $.,.u.` a 8 g g g g g g a a g g r g h h a K $.q...R a R h h h h h h a V } (.@X}.;.) ( ` ` ! 9 g h h R R R R h h R R R R R h h p 8 1 8 h h ! ! R R R h 8 1 : g h R R R R a g g g g g a h ! R J a h h h p 8 a h R a R ! ! ! R R R R R R R R R a a h h ! h a h g 1 > > 1 g g h R h h h h R R R R R R ! R R h h h a 8 g h h h h h R g h h R h h g h ! R V X.t.( J R h h a h h a a h h h R R R R R ! R h h h R R R h h R R h h h R R 8 > - E u.I 8 1 1 < > $ $ # # o o o + > 1 8 h R R E ( ( ( E E E R R E E R E J J E ~ ~ ~ E J E R E / / E E ` E E E ~ ~ ] ` E E E ` ] ` ~ E E ` J E / E ~ ` ` E J J / ! R h h 8 1 < $ # & d h h R ! h ^ ^ h h g e 1 8 g : 8 8 1 8 g / <.V.Y.!.!.U.D.b.a.k g c l.W.CXn.1.j s s ; g g w w g g g g g g e g h h h h g 1 1 1 < 1 1 d u 1 d < & & & & & < d y y d g j d u g g d d u u ",
"a h 1 1 < q < < < < < 1 1 1 1 1 < < < < < < y y y y 1 1 1 y y y y y 1 1 p g g g 1 1 < < 1 1 q q q q u u u u w w e 8 p h h g 8 8 g e w w g g g 8 g R R h p 8 a g a ( ;.t.' J 8 r g g g g g g h g g r g h a a J ' q.%.E R R R R h h p p 9 T y.@X}.*.) _ ( E ` / R a h h h R R R h R R R R R R h h 8 : 1 p R R R ! R R R g 8 : : g h R R R R a g g g g h h h ! ! a a h h h p 8 a h a a R ! ! ! R R R R R R R R h a h h h ! h h h g < = ; 1 g g h ! R h h h h R a R R R R ! ! h h h h g h h h h h h h g h h h h h ! h R R V ..u.&.E R R R R h h a R R a ! R R ! ! R R R R R ! R h h R R h h h g h R R 8 < - ( e.K , ; < ; O # % % o # # O = 8 h R E E ( ( ` [ _ E E ~ ~ E / ~ E E E ~ ~ ~ E ` ` E J E ~ ~ ~ E ~ ~ E ~ E ~ ~ E 9.8.E ` ` ` ] ] ~ ` ] E E ~ E ~ ` ` E R R E R J ! ! h h j & # + 1 h h ! h h h ! h h h h g g g 1 8 p p 8 s.Q.NXFXFXNXNX!.Q.H.x.1.1.n.^.W.d.< @ & s f < 1 g g g g g g g g g g g h g g g d 1 1 < < 1 1 : 1 1 1 ; @ & @ @ & < y d u g j g 1 1 j j u u 1 1 ",
"R h , 1 < < < < < < 1 1 1 u d q 1 < < < < < < < < < < 1 < < y y y 1 1 1 g g g g 1 1 < 1 1 1 1 1 1 1 1 1 1 1 1 1 e p a h h 8 8 e e w w e g g g r g R h g 8 8 a h g R +.t.' J 9 g g g g g g a a a a g g g a h R ' u.q.( J R R R a p a J U ;..X.X%.` E ` ] ~ ` ` E R h h h R R R h R R J J R h h h 8 : 1 h R R R R R R R g 8 1 1 g R R R R R h a g g g h h h ! ! R h h h g 8 p g h h h R R R R R R R R R R R R R a h h h h h h g 1 < $ > y g h h h h h h h a a a h R R R R h h h h h g g g h h h h h h h R h h R R g 9 8 9 I u.e.E R R R h h h R ! R R R R R ! ! R R R R ! ! h h ! ^ R g g 9 8 h h k e ; 2 ' e.J 1 ; & & # # + + o # $ = 8 a E E E ( ` ` ) ' _ ( E ~ ~ ~ ~ ~ E K K ~ E ~ E E E J E E E E ] ` ] E E ~ E E E ` ] ] ~ ` E E ` ` ~ ~ E E ~ ~ ~ ~ ` ` E E ~ R E / E / h p g & + + 1 h h h a g h h h g 8 g 8 g h r g g g j.NXJXJXFXVX!.!.!.F.c.d.1.d.!.CXb.1 O o & s j > 1 g w g g g 8 1 1 e g h h g 8 w 1 < < ; < d 1 1 1 1 < $ @ & & & & < d j g d g j g d g u 1 u 1 1 ",
"R h 8 1 < < < 1 1 < 1 1 w d d w 1 < < < < < < < < < < < < < y y y 1 1 u g g g d 1 1 < < 1 1 1 1 1 1 1 1 1 1 1 8 g p g h g 8 8 e w w e g g g g g g h g r e p p h g h ' q.$.K 9 g g g g g g a a g a a g g a h R ` e.e.( C V V V V V K P :.[.}.t.' E E ` ] ` ` ` ( R a h h R R R R R R R J R h h g 1 : 1 h R R R R R R h g 1 1 1 g h ! R ! R h a g g g h h h ! ^ ! h h g p 8 p h h h h R R R R R R R R R R R R h a h h h h h h 8 1 ; $ > u g h g h h h g h h h h h h R R h h h h h g h h g h R h h h h h R R R h h 8 8 8 a I e.u._ F 9 R h h a h ! ! R R R R ! ! ! R R R R R h h R R h a 9 9 9 h h h 8 - 3 &.' 7 u < & # + + + + # + 1 8 h R ~ ` ` ( _ ( ( ' ' ` ` E E E E ~ E K E ~ K ` ~ J J E ` ` ` ` E E ~ E E E E E ` ` ` ` ` ~ K ] ` ~ E ~ E R ~ ` E E ~ ~ ~ ~ J E / E E Q a 8 1 ; & $ 1 h h h g h h h g 8 1 h g h h h g 8 j.AXPXLXJXNX!.T.F.D.c.c.d.^ 2.J.H.k ; @ + q x b 1 1 g g g 8 g e 1 1 e g g 8 g 1 1 g 1 < 1 d j d d < < ; & & < < < < d j g g u g j g u u 1 1 d g d ",
"h g 1 1 1 < < 1 1 < 1 d d d d u 1 < < < q < < < 1 1 1 y < 1 1 < < < 1 1 g g g w 1 < < < 1 1 1 1 1 1 1 1 1 1 8 8 p p g h g 8 8 w w w w g e g g g e h h 8 r g g g g g ` %.%.I 9 g g g g g g a a r g a g g h h h E $.*...S Z U | X. .=.).OXOX,.U K J R ~ ` ] ` ' ' E a h h R R R R R R R R R R h g 1 : 8 h R R R ! R R h g 1 1 1 g h R R ! R h a g g g h h a R ! h h g g 8 8 p h h h h R R R R R R R R R R R R a a h h R h h p , < ; ; < d g g g a g g g h h h h h h R R h h h h h h h h g h h h h h h h R R h h h 8 8 g R K %.i.[ V V R h R a h R R R R R R ! ! ! R R ! a a R R R h h g g g g h g g 1 - N e.I 6 1 ; & + + % + + # > p R ~ ~ ~ ( E E ( _ ` ` ( ( E E E E ~ ~ E K E ~ ~ ~ ~ ~ K E ` ` ` ` E E ~ ` E E ` ` ] ` E ` ` ~ ~ 8.~ E E ~ / ~ E E E ~ ~ E ~ ~ J E E R ! R 9 p p ; & $ 1 h g g h h h h 8 8 1 g h ^ h h r / CXKXLXFXCX!.Y.F.A.c.l.d.d.1.d.c.d.1 o @ q f f.j 1 w g g 1 1 1 8 e g g g e 8 e 1 1 w 1 1 j d d d 1 ; ; & < ; ; < q d j j j g j g d 1 1 1 u u d d g ",
"p p 1 1 < < 1 1 < < d d g g g u 1 < < q q < < < < 1 < y < 1 1 < < < 1 u g g d 1 1 < < < 1 1 1 1 1 1 1 1 1 u e 8 p g g h g 8 1 w w w w e g g g g r ! / ^ g 8 g h h g ( %.q.) V r g g g g g g r r r g g h h h h C +.>.;.;.;.(.}.OX+X%X*X+X_.+.C 9 a R E ~ ` ` ' 0.( J g g h R R R R R R R R h h 8 : : g h R R R ! R R h g 1 1 1 g h R R ! R h a g g g h h a h ! h a a 8 8 8 p h h h h R R R R R R R R R R R R a a h h ! ! h p 1 < & ; 1 g p p p 8 g g h h h h h g h h R h h h h h h h h g h R h h h h h h R h h h a p h ! J U i.e.V J h h h h h a h R R R R ! R R R R R R R R R R h h g g g g h h p : - m e.( 7 , ; @ @ @ % + @ O : g ! ~ ~ ~ E E ` ` E ( E E E K E ~ ~ E E E ~ ` ` ~ ~ ` ` E E ` ` ` E E E E E E ] E E ~ ~ J ~ ` / ` / R E ~ E / E R J R ~ ~ E ` ` ~ E R R R 9 h a , ; + $ u h g g g h h 8 8 g e g g h g h R !.JXFXFXNX!.!.Q.D.c.d.W k c ^ s.d.d.j < j f.f.n < < w g g 1 e 1 1 g g g g g g 1 1 1 1 1 1 d d 1 < $ ; < & < & ; < 1 d g g d d 1 d d 1 1 1 g g g d g ",
"1 1 < < < < < < < 1 1 d g g g u 1 < < q q y y y y y y y y y < y < < 1 u g p 1 1 1 < < < 1 1 1 1 1 1 1 1 w d e e g g g R a 8 1 w w 1 e 8 e e g g ^ k.A.z.^ p g h h g K %.t.$.J 9 g g g g g g g r g g h h h h h C | ].OX@X@X$X*X=X9X=X$X_.+.E R g g R ! E ~ ~ ' 0.' J r g h R R R R R h h h h g 1 - 1 h h R R R R R R h g , 1 1 g h R R ! R h a g g g h h g h ! h g g p 8 8 8 g h h h h R R R R R R R R R ! R a a h h R h g p 1 < @ ; y g p 8 a a h h h h h h a g g h h h h h h h h h h g h h h h h h h h h R h h 9 a R ! J P i.u.K J h h h h h h h h h R ! ! R a R R h R ! R a R R g g h r p p g u : - B u.I 6 1 < ; @ & & @ @ = 8 h R ~ E E E J E ~ E ` ` E E E E ~ ~ ` ~ E ~ ` ` ` ` ` E J ~ ` ` ` E J V R R E ~ ~ E E E R ~ E ~ / E R E R R E ! R R R E E E E E ~ E R R R 9 R p : < + $ d g g h g h h 1 8 h g h h h h ! A.FXGXFXCXY.Q.U.G.c.1.k g g g a.x.v.P.v.n v.v.x < @ < 1 g g w g e g g g g e 1 1 1 1 1 1 d g g y < ; + & & & & < < d d d d d 1 1 : 1 g d u u g g d g g ",
"< < < < < < q < < 1 1 d g z g 1 1 < < q q s y y y y y y y y y y < < 1 u g p 1 1 1 < < < 1 1 1 1 1 1 1 1 w d g e g g g h a 8 1 w w 1 8 8 g e e r j.Q.!.J.g.h g p h a K %.t.$.K 9 g g g g g g g e g g h h h h h C | }.*X&X*XOX[.`.XXOX(.+.E R h h h R R ! ! E ( $.' K r 9 h R R R R R h h g 8 8 8 8 8 h h R R R R R R h g , 1 1 g h R R ! R h a g g g h h g z ! ! h g g 8 8 8 g g g h h R R R R R R R R R ! R h a h h h h a p 1 ; @ & y d 8 8 g h h h h h h R a g g h h h h h g g h h h g h h h h h h h h h h h h g a R ! J T y.B.) R g g h R h h h h h h ! R a a R R R R R R R ! ! h g g g r 8 u < : 8 T u.K 6 u : < < < < ; < - p R E ~ E E ~ R E E E E E E E ~ ~ ` ] 8.` ~ ~ ~ ~ 8.~ E J E / E / ] E J R ! Q R / ] ~ E E R J J R E ! R R J R Q ! R R R E ~ E R J ~ E R R R R R p g < + $ 1 g h h e p p p g h h g ^ ^ ! g.CXJXKXCXNXQ.Q.Q.D.s.h g j j j a.d.x.I.n.c d ; o + @ < 1 1 d 1 1 g g g e e 8 1 < 1 1 1 1 g g d d < ; @ & & & & < y d g j g w 1 1 g g g u 1 g g d u d g ",
"< ; < < < < < < < < d d j z g u q < < < < y y d y y y 1 1 < < < y 1 1 1 8 1 1 < 1 < < < 1 1 1 1 1 1 1 1 1 1 w g g g g g g e 1 w w 1 8 8 8 g g g b.^.BX!.j.z g p h a J ' t.$.K 9 g g g g g g g g g g g h h h R E ) i.}.[.(.@. .|  .+.) E R h g h h R R R R R ( $.' K 9 r g h R R R h h h 9 4 r W ^ R a h R R R R R h h g 8 1 1 g h R R R R h g g g g h h h ! ! ! h h g 8 8 8 g g a h h h R R R R R R R ! ! ! R h h h h h a p 8 ; + ; 1 p p p g h g g g h h h a g g h h h h h h h h h h g h h h h h h h h h h h h g h R R V U t.p.' J h a h ! ! g h h R R R R a h h h ! h R ! ! ! h g g 8 8 g , 1 : 4 C o.].I 8 u 1 1 : < < ; < : a ! E ` ~ E R J ~ ~ E ~ E E E ~ ` ` ` ` ~ E ~ ` ` 8.E J J ~ E R / ~ J J R R ! Q / R E E R R J R ! ! Q ! R R ! E J E E R E ~ E R R E ! ! R 9 Q ! g g < + + < g h g 8 1 8 h h h c h z ^ 9 J.JXKXFXmXNXNX!.H.x.c g g j x f d v x.x.1.< < $ O @ ; < g g g g 1 g g g 1 1 e g 1 1 w 1 : 1 g 1 d < ; & & < < < < y 1 g g g w 1 1 g g g d 1 u d d d g g ",
"< < 1 1 y 1 < < < q s d j g h d q q ; < 1 1 w d d u 1 1 < < < < y < 1 e e 1 < < 1 1 1 q 0 1 1 1 1 1 1 1 1 q q w g g g 8 e e w 1 1 w w e e g r ! G.NXCX!.g.h 8 g g a J ` $.+.I 9 r g g g g g g p g r g g h h h R I %.q.$._ K E E E R R R R h h g g h R R h R E $.$.I 9 1 g g h g ! ! R h 9 Q V.Y.Q.A.E R h h h h h h h g 8 1 1 g h R R R R h g g g g g g h R ! R h h h 8 8 g h h g a a R R R R R ! R R R ! R R R h h h h h h 8 = @ < 8 p g h h g g a g g a h h g g g g h h h h h h h h 8 a g h h h h h h h g g r 8 h R E J C ..p.0.J a z ! ! ! h h R R J R R h h z h h h R ! ! h r 1 1 1 1 : : , 7 I -.%X+XU 9 u 1 1 ; < ; = = 8 h R E ~ ` ` E ~ ` ` ~ ~ ~ K E ~ ~ ~ ~ ` E E E E ~ ` E R R E R E ! R J a J R R ! ! a ! R ! R R R ! ! R R ! E E R ~ ` E ~ ~ E E R R R a a h 9 R R a 1 ; + o < g g g g r h ! g h h z h g W AXGXGXBXNXNXNX!.c.1.g w g x f < ; x d.a.x q d > ; & ; q g g h g 1 d g 1 : 1 1 u d 1 u 1 : 1 u 1 q < ; ; < 1 y d d d g g d d u u 1 g g w w w d d g j g 1 ",
"< < < y y y < < < < d d g h g g q q ; < < 1 1 d d u 1 1 y s < < < < q e e 1 < q < < q q 1 1 < 1 1 1 1 1 1 q q e g a g e e e w w 1 w w w w e r s.J.NXNXQ.z.R r g g a a ~ $.%.U 9 r g g g g g g p g g g g h h h R K ' ' I V R R R R R R h R h g g g g g h R R ( $.%.Y 9 1 1 g g g h h h 9 Q F.ZXKXJX!.g.R h h h h h h h g 1 : : g h R R ! R h g g g g g g h R ! R a h g 8 8 g h h a h h h R R R ! ! R a h h R R ! R h g h h g 8 = & < 8 g g h h g a a g g a h h g g g g h h R h h h h a 8 a g h h h h h g g a 9 8 8 h R ! h V ..p.q.J a h ! R R R R R R R R ! ! R R R a R h h h g 1 < < < > : 2 N } ).&XhX=XD 7 u u = k f.g = : g R R E ` ` ` ` ` ` ~ ~ ` ` E ~ ` E E E E E ~ ~ E ~ ~ E E E E ! ! ! R R R R R R R ! a R h R ! R ! ^ ! ! R R R E ~ ` ~ ~ / ~ / ` ! R 9 a R R ! ! R ! 1 + @ + < g g h g g h h h h h p g r J.KXZXZXBXNXNXCXQ.d.k g d x x ; + & f 1.j q ; < < s & @ 1 g g u 1 1 u 1 : 1 1 u 1 d d u 1 1 g 1 d d < = ; d 1 d d u d j d g g g d u g g w 1 g g g g g 1 1 ",
"< < < < < < < & < < d d g g p 1 1 < ; < < 1 1 d d u 1 1 s y < < < < q g e 1 ; ; < < q < 1 1 < < 1 1 1 1 q q w e g a a 8 e 1 w w 1 1 1 w w e r j.L.mX!.F.k.h g g g p a E $.$.( 9 r g g g g g g p g g g g g h h R L ' ' K V R R R R h h h R h h g g g g h R R Y %.u.' J 2 : 8 1 8 8 9 9 r V.GXLXPXKXBXk.R a h h h h h h g 1 : : 8 h R R ! R h g g g g g g h h ! R h h g 8 8 g h h a h h h R R R R ! R a a a R R ! R R h h g g 1 ; ; 1 g g h h a g a g g g g h h g g g g h z R h a a a g a g g h h h h g a 8 9 9 9 h g h ! h F U ].;.V 9 a R J R ! ! R R R ! R h R R E R R h a h e 1 < 1 1 , 7 I o.oX:XjXlX;X .7 8 8 h !.DXJ.h 2 R R E ` ` E E E E E K E ` ~ E ~ ~ E ~ E E E E E E E R R R R E Q ! ! R R R R R a R ! a a R a a ! 6.^ ! R R R R E ~ ~ R R E ~ E R R R R R ^ ! ! ! R z 1 + @ + 1 g h h g g h h h h h g g k ^.FXBXCXBXNX^.^.I.d.e 1 d j s + + @ ; j d q & & & s & @ 1 d u 1 : 1 1 1 1 u j j d j d 1 1 d g 1 g d < $ ; q d l d 1 g j d d d d d u 1 1 1 g g g g g 1 : w ",
"< < < < < < & & ; 1 1 w w 8 p 1 1 < ; < < 1 1 d d u 1 y s s < < < < 1 g p , : 1 1 g 1 < < 1 1 < 1 1 1 1 q q w e g a a 8 1 1 w 1 1 w w w w e e s.G.Q.L.V.g.h g g g p a E $.$.( 9 r g g g g g g g p g g g g h h a L ' ` R R R R h h h h h h h g g g g g g h R Y %.t.$.K 9 8 8 8 : 6 9 9 / !.LXPXLXKXnXh.R a h h h h h g p 1 < < 8 h R R ! R h g g g g g g g h ! h h h h 8 8 g h h h h h h R R R R ! R a a a ! R R R R R h g 1 < ; < d g g h h a a g g g g g h h g g g h h h h h a a a g g g g g g g h g 8 8 8 8 h h g g h h V ) OX,.C 9 h R J J R ! R h h h h R R R R R g g 8 8 8 1 1 8 9 N P (.&XiXlXjXdX9X;.N 9 r mXKXLXNXA.E F R E ] ] E E J K E E E ~ ~ E E E E E E ~ E J J R R J J R R R R R h h h h h h h h R R 9 R R a ! ! ! R R R R R E ~ ~ R J R E J R J R E R R R ! 9 9 8 : $ @ @ < g g h h g g g h g g 8 r s.NXNXBXbXNXY.U.H.x.c 1 $ < < @ o & & @ g j q & @ & q & ; 1 d u 1 < 1 1 < 1 d j d 1 1 1 : 1 u 1 1 1 1 < < q 1 d g d 1 d d 1 1 1 1 1 u 1 1 1 g g g w g g 1 1 ",
"< < < 1 1 1 < < < 1 1 q q 1 1 1 < ; < < y 1 1 d d y < < q s < < < < y p a 9 9 9 R R J 8 1 d < 1 1 1 1 1 1 q 1 e g a a 8 1 1 1 1 1 1 w d d d 8 ^ A.G.S.k.Q h g j g p a R ' $.' a r g g g g g g g g g g g h g a i K ` E J h h h h g g h h h h g g g g g h R R ( $.%.' ( E J R 9 4 4 9 9 h.BXPXLXKXHXmXh.R a h h h g a g p 1 ; < 8 h h R ! ! h g g g g g g g h ! h a h h 8 8 g h h h h h h R R R R ! ! R R R ! R R R R R g 1 ; & ; 1 g h h h h a a g g g g g h h g g g g h h h g g g g g g g g g g g h g 8 8 8 p h h g h h h V U $X).S 5 a h R R R R R R h h h R R h h h h h a p 8 1 : 3 Z  .).&XiXgXjX=X`.8X(.S 2 C.KXLXGX!.Y.g.F R R E E E E E ~ ~ ~ ~ ~ ~ E R E R E E E E J J R ! J R ! R a 9 h h h h h h R R a a h J ! ! R a R a a R R R R E E E R J R R R E R R E E R R ! a R 8 < @ # o < g g h g g 8 8 g g h 8 g c.NXmXNX^.!.c.x.v.a.w ; O + + # o + & $ q s & % @ ; ; ; ; 1 u d 1 1 1 1 1 1 1 d 1 1 1 1 1 1 d d d 1 1 1 d d d d g u 1 1 1 1 1 1 1 1 d 1 g g w w 1 : 1 g 1 g ",
"; < d 8 8 9 9 8 1 1 1 1 1 < < < ; ; < 1 y 1 q d d 1 < < < < < < < 1 p h J J K I ' ' ' J 8 d 1 1 1 1 1 1 1 1 8 e g g g u u u 1 1 1 u u d d d p ^ z.S.N.k.^ h g j g 8 p J ' %.' a 8 g g g g g g g g g g g h g a a E ` R h g h g g g g g h h g g g g g g h R R E ' T Y ` ' ' ~ E V R R E N.BXLXLXKXHXBXN.R a h h h g a g p 1 ; ; 8 g h R ! ! h g g g g g g g h ! h a h h 8 8 g h h h h h h R R R R ! ! ! ! ! R ! ! ! R h g 1 @ @ & 1 p h h h h a a g g g g g g h g g g g h g a g h h g g g g g g g g h g 8 8 p h h h h ^ R a N } &X%X@.C 9 g h R R R ! R R ^ ! ! ! h g h z a a i , 1 5 B o.%X-XfXfXdX8X:.-.3XOXD 3 BXLXPXCX!.Y.z.E R E E J E R K ~ ~ ~ ` ` ~ R R R R ~ / R R R R R ! R ! ! R R h h g a a h h R a ! / R R R ! a a R 9 a R ! E E E E R a J R E E R V J E E / E Q R h 8 = + # o < 1 p g g g 1 , p p p g h J.CXbXbX!.D.2.1.c g ; + o o + # % + # O @ % + + O , > < < 1 d g g 1 1 1 g 1 u d d 1 d 1 < 1 j g d d 1 1 d 1 1 d g : 1 u < 1 1 d d d d 1 1 g g 1 1 1 w : 1 g ",
"< 1 8 a R E R J R R a 9 8 1 q q < < < 1 1 q 1 1 d d 1 < ; q q < < 1 p J I ) $.$.%.q.*.' J 8 1 1 q q q q 1 1 e g p 8 8 1 1 1 1 q 1 1 w 1 u u 8 h / z.D.c./ g g g g g g V ) $.Y a r g g g g g g g g h g g h g a a J E J h h g g g g g g g g g g g g g a R ! R E ' ` ` ' ' ' Y ` ` ] E ( N.nXGXHXGXGXZXF.8.h h h h 8 g h g 8 : : 1 h h R ! R h g g g g g g p g h h h h 8 1 8 g h h h h h h h h h R R R R ! ! ! R R R ! ! h < o @ ; p g g h h h h h p 8 g g g h g g g g g g a a g g h h h g g g g g g 8 8 8 p p p h h a g a 8 K :.;XtXOX) R h h R R R R ! ! ! ! R a h h g h p p , - 5 D (.=XdXlXjX0X%X,.+.D <X2X=.m.KXKXAX!.!.A.3.W V E K E ~ E E ~ ~ ~ ~ E E E E E E J / E ! ! R R ! ! R h h h R R h h a h / / E E ! R J ! R a R a ! / / E ! R E E E R R R E E J V J R V E E R ! h p < @ # # ; u h h g g h h g p g 8 h J.!.bXT.H.d.h g g < ; @ # % o o o o # + # + + + - ~ a = 1 g g h p , 8 1 g h g g g 1 : 1 1 j l d 1 1 ; < d 1 < 1 u 1 : d 1 d j g d d 1 w 1 g g 1 1 g g 1 1 w ",
"< 1 8 J E ` ` ( ( ` ` K J 9 1 1 < < < 1 1 1 1 1 d u 1 < < q q < < 1 h K T +.+.+.+...@.+.Y 9 8 1 1 1 q q 1 1 8 p g p 8 1 1 u u d 1 1 1 1 u u u h / z.F.c./ h g g g g g V ) $.( a 8 g g g g g g g g h g g g g a J K R R g g g g g g g h h g g g g g g a h R R ( ' ' ` E ` ` ` ' [ ' ` ` M.nXZXZXBXNXbXL.k.R g 8 g g h h g 1 : 1 8 g h h R R h g g g g g g p g h h h h 8 1 1 g h h h h h h h h h h R R R ! ! ! R R R ! z u ; o + < h g g h h h g g g 8 g g g h g g g g g g p p g g g h h g g g g g g 8 8 p g g g h h g g 8 9 T ].*XrX7X,.U R R ^ R R E E ~ E ! h 9 h g 8 p , , 6 N } ).&XiXgXjX0X+X{.*.` S <X6X(.Z.KXJXNXV.c.j.j.W 9 J E ~ ~ ~ ~ E R E R E ~ E E E E E E E E R R ! Q ! R R R h h h R ! R R Q ! E E ! E R ! a a h a R ! E R R R a J R R E E J R E R R R E ` ` R h g 1 1 q + # ; g g g h z z h g p g g / !.VX!.F.j.g e w q ; & o o % o o o o o # # + + O 6 ' J = p h g g g g p p h g g g u 1 u g g g g d 1 < = ; < < < < 1 u 1 d d d d g g d u g e w e 1 w g g g g g ",
"< 1 g h E ` ( ( Y T ' T I J 9 1 < < < < 1 1 1 g g j d < < < < < 1 8 a E ' $.$.T C I U @.+.I 8 1 1 1 q q 1 1 8 p p 8 8 1 1 u u d 1 1 1 1 u u u p ^ j.b.z./ h g g g g g V ) $.( a r g g g g g g g g g g g g g a K ~ E h h g h g g g g h h h g g g g g h h R E ( ' ' ` R ~ ` ` ' ` ' ' ( M.bXZXBXK.h.g.z.g.R h g g g h h g 1 : : 8 h h h R h g g g g g g g g g h h h g 8 1 1 g h h h h h h h h h h h R R R ! ! R R R h h < & + @ y h g p h h a a g g 8 g g p g g g g g g g p p g g g g g g g g g g g 8 8 g g h h g g g r : V %.y.].@X7X3Xi.) R R R R E ` ` R R h 9 r 1 1 8 8 9 U :.oX:XpXpXfX9X`.i.u.[ R B ,.6X(.M.AXKX!.W r W j.j.R J E ~ E E E J J J J E R R J J E R J R J a a ! E R R R R a h R a R R R R ! R R ! E R E a a R R R R ~ E E R J R R E / E R R ~ ~ / R ~ E R R 8 8 , d s % @ < g h h z z h g g g h r z.NXNX!.F.1.1 1 1 q ; & # o + # o o o o # # # O O V ..J = u p p 8 g g p g g g g p 1 : d g g 1 1 1 < < < < ; < u 1 u d 1 1 g g d g d 1 1 g g e e 8 e g g g g g ",
"< 1 g a a J J J K I ' $.T K a 8 1 < < y 1 d g x c x j 1 < < < < 1 8 a J E I K V 9 9 K ' %.) a 1 1 1 q 1 1 1 8 8 p 8 1 1 1 1 d d 1 1 1 1 u u u 8 h / g.g.^ g g g g g g V ' $.( h g g g g g g g g g g g g g g J E ` E J h h h h h h g h h h h g g g g g h h E ' %.' E R R E E ` ( ' ' ( m.T.BX!.3.5 R k.z.! h g g r g g g 1 : : 8 g h h R h a g g g g p p g h h h h h u 1 1 h h h h h h h g g g h h R R R R ! h R h h g ; & + ; d h g 8 g h a a g g g g p 8 g g g g g g g g g g g g g g g g g g g g p g g h h h g 1 8 8 9 U u.*...*.{.1X@X;.I V h R R ~ / R h g 4 8 1 8 2 M @.OX=X,XhXpXdX0X}.;.u.M.] h V >.8X).e.bXNXA.9 9 W c.s.R R R E E E R J R J R E J J J J R R J R J 9 J R ! ! R h h h R ! R R ! R R ! R R / ! R Q ^ ! R R ! / / 8./ R R ! E / ` E E ~ ~ 8.8.R E J R ^ 9 8 : < & o # ; g z h g h h h g g g g j.D.F.U.D.1.: 1 ; < q s < # + # # # # o # # # O - E 0.9 < p p 1 , u 1 , g g g g u 1 1 d 1 1 1 1 1 < < < < < 1 d d d d 1 1 g j d d d 1 1 e g g g g e 1 1 8 e e ",
"< < 1 1 8 8 8 8 4 V I T T Y J 8 1 < < y 1 g j v a.a.l 1 < < < 1 1 8 a a a a 9 8 1 8 9 I %.$.J p : < q 1 1 1 8 8 8 8 1 1 1 1 d q w 1 1 q u d u 8 8 h ^ R g 8 g g g g g V ' $.( h g g g g g g g g g g g g r g V ( [ E J a a h h h h h h h h h g g g g h h h E ' %.T E h R R R ~ ~ E ~ ` 9.M.F.Y.N.g.z.J.G.! 9 g g g g g g 1 < ; 8 h h h R a 8 g g g g p p h h h h h g u 1 1 h h h h h g g g g g h h R R R R R h R h g 1 & $ $ 1 g h g 8 g g p p g h g g p 8 a g g g g g p g g g g 8 8 8 p p p p p p g g g g p p p , , 9 I ;.t.) Y K U :.qX<X$.C r g R J R h g 8 8 8 6 7 D -.`.&XdXdXiX:X9X2X@.' 7.h.Q h 7 *.8XXXu.K.L.A.Q 2.c.J.h R E E E E J J E E ~ E R E R E R R ! R R R J R ! R R a R ! R a h R ! R h R h a R ^ a h a h R a a ! R R E J J ! ! J E ~ R E E E J R E ~ J ! ^ 8 - 1 q & o # & d z h g h h g 1 1 g g s.W r j.x.^ 1 g g d j f s & # o # # o o o # + = 2 ` ` 2 < , u 1 1 1 : < 1 1 1 1 1 1 1 u 1 1 1 < 1 < < < < < 1 1 u d g d 1 g d u 1 1 u d 1 g g g g e 8 g g g g ",
"< < < < < < < < < 8 J I T Y J 8 1 < < < 1 d j a.d.a.l d 1 < < 1 1 p g g g u 1 1 q d 1 V ' $.R p : < q 1 1 1 8 8 8 1 1 1 1 1 1 1 d d d d u u u g g 8 g h 9 8 e g g g p V ' $.( h g g g g g g g g g g g g r 9 V ( 7.( V a a h h h h h h g g g g g g h h h h E ' %.( R h R R R R R R E ` ] [ h.S.F.!.!.Y.z.R 9 8 g h h h g 1 < : 8 h h h h a p r g g g p p h h h h g p 1 1 1 h h h h h h g g g g h h h R R R R h R h g < & + ; u p g 8 8 g g a 8 p h g g p 8 a g g g g g g g g g 8 8 8 8 g p p p p p g g p p 1 , p 1 8 K X.t.$.K J 9 5 +.4X4Xp._ r g h R a 8 1 1 9 9 B  .XX=X-X:XdXdX:X8X2X>.I E E / Q l 6 ) +X$Xp.Z.C.F.Y.!.U.j.4 5 J R E / E R E ~ / / E E R ! ! R R ! R R E ! R R R R R R a a R R R a a R R h h a 9 9 a R R h R ! R R J 9 J R R R E E R E E R R J E E E R R g g d d & o o & d h g g h g 1 1 q g h c r - 4 1.d.j g j j x f & # # # # # o o o # + = 3 ` K - ; 1 g 1 1 d 1 1 1 < < 1 1 1 1 g g g 1 : d d 1 d 1 1 d d j j d u 1 d g d 1 1 1 u g g g 8 g g g g g g e ",
"< < < < < < < < < 1 8 9 J J J 8 1 < < 1 1 g j c v c g q q < 1 1 1 g h g w 1 1 1 d q 1 9 ~ ` ! 8 : 1 q s y 1 p p 8 8 1 1 1 1 1 1 u 1 y u u u u 1 g 8 8 8 8 8 e d g 8 p J $.%.' V a g g g g g g g g h g e r 9 K ' $.I R h h g g g g g h g g g g h h h h h h K $.0.E ! h R R h a ! Q E ~ ` ` / / 3.L.Q.g.R a 9 8 8 g g h g 1 1 1 8 h R R R h g 8 p p g g g p g h g e 1 : : 8 g h h g g h h p a a g g g a h h h h z g y & # & 1 p h h g 8 8 g g g h g g h h a a h h h h g g g g g p p 8 p g g p p p p u p p p p : 1 1 7 $.y.@.( ! J 4 r [ 5XeXB.' h h g h 8 : 1 r J U (.&XtXiXdXfXfXhX8X}.*.[ E E / W R h 8 C }.3Xi.3.W j.D.U.s.r 8 9 R J R R E E ~ ~ E E R R R R R 9 J Q ! ! R R a a R R R h a R R a a a R ^ ! R a a 9 a ! ! a a R a a a J R J R R R R R R R J J J R R a a h 4 a h d < & + + < d g g g g d d d g g c s.1.: : 0 a.c q q < < & @ # # o o o + # @ o o O 7 L 6 = < u d 1 1 u u 1 : 1 1 < 1 d 1 1 1 1 1 1 d w 1 d d g g g g g u 1 u d 1 1 1 u g g g g g e g 1 g g g g 1 ",
"< < < < < < < < < < < , 8 a a 8 1 < < 1 1 g g c c x j q q < 1 1 1 g h p 1 1 1 < y 1 1 8 R J ! e 1 1 q d d d p p u u 1 1 1 1 1 u 1 1 1 1 1 u u u u g p p p g w 1 g 8 p K +.q.' V 9 g g g p p g g g h g e r 5 I $.$.E h g h g g g g g g g g g g g h h h g a E ' 0.E R h h h h g R E E E ` ] / W Q N.z.Q h a a g g g 8 g g : : : 8 h R R h h g 8 8 p p g g 8 g g g g 1 : 1 8 g g g g h h h a a a h p 8 8 p g p u u y & # # & 1 g h h g a 8 g g g h h a a g p g h g h h g g d d g p p p p g g g p p p g g p 8 p 1 1 2 S t.*.( E ! h 8 r N.MXMXB.] 9 g p p 1 : - 9 U [.;XhXjXgXjXkXtX7X{.*.` E ! R ! h h h g V {.4X,.E r W s.2.e ; g R R R ! R E ~ E J E / E R ! E R R R R ^ h g h a 9 R ! h h ! R a a h R ! ! R ! ! R a R a R h R R a a R a E E R J R ! / ~ R J E E 9 a a a ! h a g < < & o + & d h g g g d d d g g ^ ^ z.g : : g q $ & & + # % % + + # + o # + o o O J K - = < 1 < : : < 1 1 : g w : 1 w 1 1 q w w w 1 d w g 1 g 1 g h g u 1 1 u 1 d g g g 1 g g g 8 1 1 8 g g g d ",
"< < < < < < < < < < < : 8 a a 8 1 < < 1 1 d j l x g g q < < 1 1 1 g g e 1 1 < < < q 1 1 a a g 8 1 1 < y d p p p u 1 1 1 1 1 1 u 1 1 1 1 1 u u u u d p p u d w 1 g 8 p E $.*.( V 9 8 g g p g g g g g e w 9 V T $.' E h a a g g g g g g g g g g g h h h g a E ' ' E R h h h h h h ! R E ` 8./ / g.S.V.^ h h g 8 p 8 8 g e : : : 8 h R R h g e 8 8 p p g g g h g g g 1 : 1 8 g g g g h h h h a g p p 1 1 1 1 1 1 < $ # o % $ , g h h h h g p 8 p h h a h g p g h g g g g p d d g g p p p g g g p p p g y 1 p u < 1 N @.u.' E R E R 8 h S.5XcXK.V.R p u p p 4 3 A [.;XlXjXjXhXhX=XOX;.+._ ( J R h g g g g 1 9 @.4X<Xh.j.b.j.l.e ; 1 a R E E R R E E E R E E E R R R ! ! R h h 9 a h R R R R R h h R R R R ! ! R ! a a ! ! Q R R R a a R R a ! R ! E R R R ~ 8.~ ~ J J J a ! ^ 9 h g < ; & + # & d g g 8 1 1 1 g g h g a c.x.W 1.k < $ $ & & & % + + # # + o o + o o O a a = @ ; > > 1 1 1 u w w g w w w g g d w w d g w w 1 1 1 w g g p 1 1 d d d g d 1 1 u g w g g 8 1 8 1 e g 1 1 ",
"< < < < < < < < < < < 1 8 a a 8 1 < < < 1 1 w g g g g q < < < 1 1 e e 1 1 < < 1 < q d 1 8 9 8 e 1 1 : 1 d u p u 1 1 1 1 1 1 u u 1 1 1 1 1 1 u u u u p p g g w d g 8 p R $.$.E 9 8 8 g g g g g g g 8 1 1 9 K $.$.` R a a a g g g g g g g g g h h h h h g h ` ' ` R h h h h h g h ! ! E ` ] Q g.A.Q.Y./ R R a 9 8 8 g g g 1 : : 8 h R R h g e e e 8 p g g g g g g g g 1 1 e g p p g h h h h h p 1 1 < > ; ; < ; $ + # % & ; 1 g h g h ! h 8 8 8 h g a g g 8 e g p g g 1 u g g g g p p p g g g d p p 1 < 1 h , ; 9 ' i.%.E R R R g 8 ^ S.N.K.T.Y./ p p i h 9 P ).;XpXlXlXdX9X$X(.@.' ` E R h h g h h h 8 1 9 S B.*.] D.Q.A.H.g 1 8 9 J J R J J E J J E E E E R a J ! ! R h 9 9 9 h R h a a h R R R R h R ! ! ! a a a R ! ! h R R a a R R R ! a R R J a J E ~ ~ ~ ~ R R J / ! 9 g 1 1 1 < & o @ d g g 8 g g 8 p g g e g 1.b.D.D.a.< ; + & & & # # # O o + + # X + O - a 1 O @ < > > 1 1 1 1 1 g u 1 g g g g g 1 1 1 1 1 1 1 1 1 1 1 1 p 1 1 g d d d u u u p g e 8 1 8 8 8 e g 1 1 : ",
"< < < < < < < < q s < 1 8 p a p 1 < < < 1 1 w d g d w q < < < 1 1 8 1 1 < < < < ; q q 1 1 g h c h 1 : 1 u u u u 1 1 1 1 1 1 1 1 1 1 1 1 1 1 1 d d g p p g g w d g 8 p R ' ' K 9 r e g g p p p g g 8 1 1 9 T q.$.E g 9 h a g g g g g g g g g h h h h h h R ` ' I R h g h g g 8 h R R E ~ ` ~ Q N.A.z.^ R R a 8 8 h h h g w 1 1 8 h R h h g 1 w 8 8 p g g g g g g g g 1 : e g 8 8 g a a g g g 1 : ; > $ & & ; & $ # + & & < p h h h h R ! a 9 p g g p p 8 8 g g p p g 1 1 g g g g p p p g p g d u p : 1 < 1 1 8 Y t.e.' ! R ! ! 8 - h S.bXL.N.V.j.h u t i Z O.;XiXpXlXjX;X).;.&.[ 8.~ R h z h g x z h p : 8 m *.$.E A.s.b.l.1 : r a R J J R R J V J E J J J J R R ! R a R h h 9 a h a a a h h h R ! R R R a a 7 9 R R ! / ! h a a a a a a R R R R R J E E J E E ~ E / R R R h 8 p p g u $ # & d g g g g h g p g g 1 1 g k D.b.g < ; & & & & & & & @ + + @ % o @ = 6 9 : = ; < & > < < 1 : < u 1 1 g g g g g d d d w 1 : 1 1 1 1 1 1 u 1 u d 1 1 1 d g g u , g e 8 g g g g e 1 1 1 ",
"< < < < < < < < y s ; < 1 8 8 g 1 1 ; < < < 1 q u d 1 1 < < < 1 1 8 1 1 < < 1 1 < q q 1 1 z s.j.s.g : : 1 u u 1 1 1 1 1 1 1 1 1 1 1 1 1 1 1 1 d d g p p g g g d g 8 p R ( ( V 9 g g g g p p 8 r g a 8 8 J $.q.' R r r h h g g g g g g g g g h h h h h a R ` ` K J h a a g g g h h h ! E ~ E E ] ~ h h R R h 8 8 h k g g u : : r h R h g g 1 1 p p p g g 8 p p u g d u 1 g h p p p 8 8 g g g 1 > $ $ + & & + + # # + & $ 1 g h a h a J ! a 8 p g g 8 8 8 1 d g 8 1 p 1 1 g g g g g p p g p p u y u u 1 1 < 1 V q.%._ ! R R R h p , h A.Q.N.Q s.g.9 6 6 K O.&XaXfXgXhX%X_.>.w.` ] ~ R a h h g g x h a a 1 1 5 &.$.J d.s.s.g = : g h h R a J R E R J J R J 9 J E ! R ! R R h h a R a R R R ! a R ! ! R R R 9 9 a R R R R ! ! a 9 a R ! R 9 a R ! R J J R E ~ 8.~ K ~ / J a h g 8 g 8 h h = O & d g d d d 1 u u u d < ; q : f.d.1 < ; < < & & & & & @ $ + o # + = 7 B 9 1 : > ; $ < ; ; < < < 1 u d j g p p 1 1 1 1 < < < 1 : 1 1 d 1 1 g d 1 1 1 u u u u u g g g g h h g g h g u 1 ",
"< < < < < < < < < < ; ; : 8 8 g e 1 ; ; < < < 1 1 1 1 < < < < 1 1 1 1 1 1 1 1 1 < < q 1 g 1.c.D.c.^ 1 : 1 1 1 1 1 1 1 1 1 1 1 1 1 1 1 1 1 1 1 u d g g p g g w g g 8 p R E E 9 8 g g g g p p 8 r g p 8 9 K 0.$.E h r g h h g g g g g g g g g g h h h h a R ` ` K J g g h g g h h g h h R E R E ~ E V h R ! ^ g 8 r h g g 1 > : 8 h R h g g 1 1 1 p p p d 1 1 1 u d d 1 1 p h p p p 8 p g g 1 < $ + + # % % + + @ + & $ < g h h h a a J ! R a g g p 8 g g 1 1 1 1 u 1 1 1 g g g g g p p g p p u d d g 1 1 1 6 Y e.$.E h h h a l p : h z.V.g.2.2.Q 9 V C  .%XhXlXjX0X+X:.%.&.[ E E R h a p 1 g g z h p h y = 5 e.%.a 1.a.c 1 - 1 8 g 8 8 9 a E E E E R E E J R E R R R ! a a h R R ! R a R ! ! E ! R a a a a R ! R R R R ! h a h R R ! R R E / / R 9 J J R E ~ R R R ! a a g 2 r g h ! g > O @ < d g d q 1 1 1 1 d ; ; @ ; 1.s.1 < < < & & & + & + + + + # + O - ~ K 9 1 8 = $ + & ; $ < < < < d d g g 1 1 d 1 1 < < < 1 1 1 1 1 d 1 g g g 1 1 < 1 u 1 1 d g 1 g h h g g g g g 1 1 ",
"< < < < < < < < < < q ; < 8 p p 8 1 < ; < < < q d w q < < < 1 1 1 1 1 1 1 1 1 1 1 < q 1 h j.F.L.A.2.r 1 1 < < 1 1 1 1 1 1 1 1 1 1 1 1 1 1 1 1 1 u g g g p 1 e g 8 8 a R E J 9 8 1 w g g p g g g p 8 8 J ' $.( J h g g g g a a a g g g g g a a a g g a a R ~ ~ E a h g h g g h h h h h R R R R E ( E R R R ^ h 8 8 g g g 1 < : 9 R R h a p 1 1 1 8 p u u p 1 1 d d 1 < 1 1 g g p g g g g 8 1 < $ $ + # % # & & & & & > 1 h h h R 9 a E E R g g 8 g p g g 1 < 1 1 u 1 1 g g g g g p 1 1 u p p p u y u u 1 1 J 0.$.` ! g g h h l h 1 g j.V.A.U.g.V ' *.,.+XtXjXhX9XOX>.+.&.[ E R R R h a p 8 g h z z h h u > 7 e.*.6 < 1 1 < 1 1 : 1 : 1 9 J E E E R E E E R R R J R a R h R a a R R a R R R J ! ! R R a a R R ! ! R J ! R i a h 9 R R a E ! ! / R J R R R R E E R a R h 8 8 4 g 9 h ! h 1 + + ; d g d q 1 1 1 1 d < ; ; 1 a.l.g w l d < & & + + + + $ $ + + O 7 ~ a > 1 a 1 + # & & $ < < < < y y u d 1 1 d 1 < 1 1 1 1 < 1 d d d 1 g d u d 1 1 d d u 1 u 1 , g g h g u 1 1 1 1 u ",
"< < < < < < < < < < q ; < 1 p a 8 1 < < < < q d d d d < < < 1 1 1 1 1 1 1 1 1 1 1 < 1 e ^ b.Y.L.A.s.r 1 1 1 < 1 1 1 1 1 1 1 1 1 1 1 1 1 1 1 1 1 u g g g p 1 e g 8 8 p h E R a 8 8 1 g g p g g g p 8 9 K ' ' K a g g g g g g a a g g g g g a g g g a a a R ~ ~ R h h g h g g h g h h h R R R J K ' [ E R h R h 8 8 8 1 1 1 > 1 8 R R R a p 1 1 p p p u u g u u d d d < 1 1 g g a h h h g 1 < ; $ & & & & + < < < & & > p z R R R a J E E R g p 8 g p d g 1 < 1 1 u 1 1 g g g g g p p 1 1 p h g u 1 d g 8 9 ' 0.( ^ k h g p p p u ; w l.J.A.H./ V u.3X8X8XtXtX=XOX>.' ' [ / h h h g r 8 8 8 g h l h g h d 1 5 e.t.6 $ O O = 1 : > 1 : 8 a R R E E E E E R R E R R ! R a R ! R R R R R ! ! R J R ! R a J ! ! R J E E E / / R R a a ! ! ! E J R / E R / / / ! ~ 6.R R h h g 8 9 W R R ! ^ 1 @ + ; d g 1 d g 1 1 g u d 1 : : ^ l.x a.n d < + & + + $ $ $ $ O $ = J 7 = @ ; g j < & & $ & & & ; < < y y 1 < < < < < < < 1 d 1 1 1 1 u d g d 1 1 1 u u u d d u g h g g g j d < < 1 1 1 ",
"< < < < < < < < < < < ; < 1 a a 8 1 < < < < 1 d d d d < < < 1 1 1 1 1 1 < < 1 1 1 < 1 g s.D.Y.F.N.g.9 2 1 1 1 1 1 1 1 1 1 1 1 1 1 1 1 1 1 1 1 1 u g g p p 1 w w 8 8 p h R R a 8 8 8 g p p g g g 8 8 9 L 7.` a g g g g g g g g g g g g g g g g g a g a a J E E R h h g h h g h h h h h R R ! J I e.e.( R R R R g 8 8 1 1 : < 1 a E E R a p 1 u p p p u u u 1 1 1 1 < < 1 1 g g p g g g 1 < ; $ $ ; & $ $ & y d < & > : h h h R R R J E E R g p 8 g p d d 1 < < 1 1 1 1 g g g g g g p u 1 u g p p 8 u 1 8 ` ' ` J k g g g 8 a h 1 & ; a.A.g.^ 9 B o.$X8XoX+X+X].;.$.9.` E R h g g g e 1 8 8 g g h u g l u : 5 e.t.7 < $ @ ; < > < 1 p h ! R E R R E ~ E R J ! ! R R R a a a R ! ! R R ! R R R R a 9 a R ! Q R R E / R J R ! R R / ! ! E J V R E J R R E E R J ! R ! h a g g R Q E R R ! 1 @ # ; d g g g g 1 1 g p g p 8 : h a.1 c x ; $ + & & $ $ $ > > = - 9 a , @ ; + > u d & & & & & & & & ; < < < ; > ; < < < < 1 d d 1 1 1 1 g g g 1 1 1 1 1 1 d g g g l g d d d 1 < < < < < ",
"< < < < < < < < < < < ; < 1 a a 8 1 < < < < < d d d d < < < 1 1 1 1 1 < < < < < < < < g s.D.J.F.N.h.E 9 9 8 1 1 1 1 1 1 1 1 1 1 1 1 1 1 1 1 1 1 1 g g p p 1 w w 8 8 p h R J a 8 8 p g p p g g g 8 8 J ` ' J a g g g g g g g g g g g g g g g g g a g g a J E R a g h h h h h h h h h h R R R V ( u.u.T E R R R h g p 8 1 1 < 1 a ~ ~ E J p 1 u p u p d d 1 1 < < < = < 1 1 g g p p u 1 1 > > > $ ; > $ > < d d < & < 8 h h h h h R R E ! h 8 g g g u d g y < < 1 1 1 1 g g p p p g g d u u u p p 8 , 8 a ~ K E h h g e g a a h < & $ g 6.R r 8 I ;.@X2X(.:.@.) ` ` ` Q R h ! g r g g g 8 1 8 p g 1 d h p = 2 *.t.a g 1 $ & ; < 1 p h R E E E R R R E E E R E R R R ! R a R R R ! ! J R R J R R R a R R R J a R R R J J ! ! R R / R R J J J ~ ~ ~ E R E E J J E E R h 9 8 h / E R R / ! : o o ; d h g w 1 1 1 u g h h g 1 g c w g 1 ; & & $ $ $ $ > > > : 9 L i = + & ; ; > 1 < & & & & & & & & & & & ; + ; ; ; ; < 1 d d u 1 1 u g g d u 1 u 1 u u d g g g d 1 1 d < ; ; < ; < < ",
"< < < < < < < < < < < ; < 1 a a 8 , < < < < < d d d 1 < < < 1 1 p 1 < < < < < < q < 1 g s.c.A.F.N.h.` R a 8 p 1 1 < < 1 1 1 1 1 1 1 1 1 1 1 1 1 1 g g g p 1 1 w 8 8 p h R J a 8 8 p g p p g g g e 8 K ` ~ a a g g g g g g g a a g g g a a a g g g g g a J K J a g h h h a a h h h R R R R R V Y u.y...E ! R h R h h p 1 1 < 1 J ~ ` E J p 1 u g g p d d 1 1 < < < = < 1 1 p p p u 1 < > > ; ; > < 1 > 1 p l y < $ : p R a h h h h R E R a 8 g g g u d d u < < 1 1 1 1 p p p p p g g d 1 u d p p 8 8 a E J 9 g g h g g h h a g d < > u h h 1 : G $.>.>.%.' E E ~ E E ! R R R g g g g g g w 8 8 d q d h p = : ' t.J h p $ + & < 1 p J K L E R / E J J R R R ! R R ! R a R ! R a J J R R ! R R R / ! a a a J a ! R J a J R R ~ E E E E E K ~ ~ ` ` E R E E E ~ ~ E R ! a g g ! E E ~ 8.R < o o ; d h g 1 < q < < d p p p : j c j f.< O + + & & & & ; > > 8 J K 6 = = > 1 y < < > + & & + + $ + & & & & & + & & & ; < y 1 d u g g p h g g 1 1 1 1 d d d d g g 1 : 1 1 < ; ; ; ; < < ",
"< < < < < < < < < < < < < 1 p g p , 1 < < ; ; < 1 1 < < < < 1 1 1 1 < < < < < < q q 1 g s.k.c.A.N.9.' ` J a p 1 < < < < < < 1 1 1 1 1 1 1 1 1 1 1 g g g p 1 8 w 1 8 a J R J a 8 8 p p p p g g g 8 8 R ~ J a g g g g g g 8 g g a g g g a g a g g g g g a J K J a g h h h a a h h h h R R R R V U ;.y.+.J R h h h h h g p 1 < p J ` ` E a p 1 d g p p g d 8 1 : 1 < = < 1 u p p g 1 > > > > < : 1 d g u u h l < > = 1 g R a a h 9 h J E R a 8 g g g p d g u < < 1 y 1 1 p p 8 p p g g g 1 u g p 8 1 a N ` E 9 e 1 g z h h h r 1 s < < g l d 1 ; 5 E ' Y ( ! ! R ^ ^ R h h h 8 g h g g g g g 1 1 w q g h h : : ) ;.J h p ; & & d g R R ~ ` ~ E E E J J E E E E E R R J E E ! J a R a J a J R R R / R a J E E R / E E ! a J R E R J J E ` ~ ~ ~ E J J R E E ~ ~ E R R ! a 4 h R R R J R 8 < @ + & y g 1 1 ; < < < y u 1 < : 1 j x f.; $ + $ & & & > = > , 7 K N - = 1 d u p d y O O & < & # & & & & s & & & & @ @ ; d 1 1 d u g h p h g 1 1 : d g g g d u d 1 1 : : < ; < d < < 1 < ",
"< < < < < < < < < < < < < u p h p p 1 < < < < < < < < < < 1 y 1 1 1 < < < < < < < < 1 g 1.s.z.j.g.8.' ' ' E 9 1 1 1 < < < < < < < 1 1 1 1 1 1 1 1 g g d 1 8 p d d u a J R a a p 8 9 p g g g e 8 8 a h R h a p g g g g g g g a a g g g g g g a a a a a J J J a h p a a a a g a a a h h R R R E T ;.p.$.J g g R R h h p , 1 u i J ` ` J a p d g p p p p 8 8 h 8 = ; ; < 1 y u u ; = = = = 1 p h h z g u u g d y < < g h R R J a h R R E ! g 8 1 1 g 8 p d 1 ; < y d d u p p p p p p 8 8 g p g 8 8 6 a ` $.` R r 1 g h g g g g d < $ ; j y d ; ; r R ! R E ! ! h h g g g p p p h h 8 p h h h 8 8 g g g h p = - ' u.J h u $ + @ 1 g R J J J J E E E E ~ ~ ~ E E E J R J E ~ E J J E J E E E R R R J J J R ~ ~ ~ ` E E E R ! E E J J E ~ ~ E R E R E E ! a a J R ! R a J 9 9 R ! R h 9 h 8 ; # o & d d 1 : 1 d s y y < < 1 1 < w 1 < > O o $ & ; = = - 2 J Y L 9 1 < : 1 8 p g u 1 $ @ & + o o & < < < $ $ < s q ; ; < 1 1 d 1 1 p g d d < > < d y d u y 1 1 < 1 < ; ; < y 1 < < < < ",
"< < < < < < < < < < < < < y p h p u 1 < < < < < < < < < < 1 y 1 1 < < < < < < < < < 1 g c a.s.2.Q E ` ` ` E 9 1 1 1 1 < 1 1 1 1 < 1 1 1 1 1 1 1 1 g g d 1 8 p g y u p R R a 8 p 8 9 p g g g 8 8 9 a h h g p p g g g g g g a a g g g g g g g a a a a a J J J a h p a a a a g h h h h h R R R R Y *.p.$.R g g R R h h g , 1 1 p J ` ` R a p g p p p p 8 8 J E a : ; < y y y < > + $ = < 1 g h h h z h 1 1 y d < < 1 g h R R J J R R R E R a 8 w w g p p u 1 ; > y u u p p p p p g p 8 8 g g g g 8 2 J ' ' E a e 1 w g p g g g d < $ ; d < < = 1 g g R h R h h h h p p 8 p g p h p p h g g p g g e g g g h > : ' u.J h u $ o + 1 g R J J J R E J E ~ ` ~ E E R R V R R J ~ ~ E R E E ~ E R R R J J J J J ~ ` ~ ~ E ~ R a ! E E E E E E R ~ E R E E E R R h h g h 9 9 9 6 R ! R ^ g 4 r 1 $ # # < d 1 1 1 1 1 y y y y y < < < < ; ; > O O $ & $ ; : 5 C ..' N 8 < ; < g p , u d u y < + & & + & < s < & ; < < ; ; < 1 1 d g p p h g u y < < 1 d y d d u y y < < < < < < 1 1 1 1 1 1 ",
"< < < < < < < < < < < < < y u p p u 1 < < < < < < < < < < y y 1 1 < < < < < < < < < 1 d l ^ ^ ^ h a J K K J a 8 1 1 1 1 1 1 1 1 1 1 1 1 1 1 1 1 1 g g p 1 8 8 p 1 1 g h h p 8 e e 8 g g g p 8 1 8 a h g p p p g g g a a g a g g a a a g g g a a a a h J J a a h p a a a g g h h h g g h R R R I @.i.$.R g g h R R h g p 1 < p J ` ` R a 8 g p p p p e 8 K ] J - < ; < < < $ O @ ; 1 d h h h h g h p 1 < < y < : 1 g h R R J J R R R ~ R a 8 e g p p p y < ; < u p p p p p p g g p 8 8 g h g 8 1 4 K ' E J 8 1 1 1 1 1 1 d d < < & ; < < < : w g 8 g h h g g h a g h p g h p p g p g g p p g g e g g p h 1 : ( e.J g y + o O 1 g a J J R E ~ K E ~ ` ~ ~ E R E J R E E E E J J E ~ E R J J J J J E E E ~ ` ~ E E ~ R J E / / E R R J J ~ R R E R a h h p 8 g g 8 g 8 9 h R a R 8 r h p ; + # & 1 1 1 d 1 1 < 1 y < < $ ; ; ; < < ; > = < < < < 8 V @.>.Y 9 8 ; ; 1 g 1 1 u d d d s & & & & & < s ; $ < d ; < 1 d d u g g p g g g 1 < ; y 1 u y u y y y 1 1 < < < 1 1 < < < 1 1 1 ",
"< < < < < < < < < < < < < 1 u u u y < < < < < < < < < < < y y y 1 < < < < < < < < < 1 g x c a.^ g 8 9 a J a a 8 1 1 1 1 1 1 1 1 1 1 1 1 1 1 1 1 1 u g p 8 1 8 p 8 1 d g g e w w e 8 w g g p 8 1 8 p g a 8 8 p g g g a a a g g g a a g g g g a a a a R R J a a g p a a a g g h h h g g h h h h K +.i.*.E g p h h h h h g < > 8 J ` ` J a 8 p p p p e e 9 I [ J , < > $ $ $ = > < d g g h h h g 8 p 1 < < < < < 1 8 g h R J R R R R R E R 8 , u g u p u y < ; < u p p p p p p g h g 8 8 h p 1 1 8 J ` E R h 8 1 w 1 1 1 : 1 1 < < < & ; > < 1 g 8 8 8 8 g a 8 a h h h g g h p p h g g p 1 g h g g g g p p 1 = C *.J 1 < + # O < p a J R E E ~ ~ E E ~ ~ ~ ~ E ~ ~ ~ E ` E R J E E R E R J J J J R ~ ~ E R E R E E R J R E ! E ! R ! ! ! ~ J J R R R a 9 8 8 g 8 8 g 9 h h ! 7 h 9 h W h < + # & 1 1 1 d 1 < < < < & & + & < < < < < < : , : : 9 B X.].;.B 9 8 1 1 1 u 1 1 y d d d < & @ < + $ & & + $ ; ; = : u g g g h g u g j 1 < & ; y y y 1 1 < < < < < < < 1 d 1 1 < < 1 d 1 ",
"< < < < < < < < < < < < < y u u u 1 < < < < < < < < < < < y y y < < < < < < < < < < 1 d g x ^ c g 1 8 9 9 a p 8 1 1 1 1 1 1 1 1 1 1 1 1 1 1 1 1 1 p g u 1 1 1 p 8 8 g g g 8 1 e r 8 8 e g p 8 1 8 8 p p 8 8 g g g g a a a g g g g g g g g g a a a a R E J a a g p a a a g g h h g g g h h h h E ' y.t.E h 8 a h R h h g < > , J ` ` E a 8 p a p p g e 9 ( ' J 8 1 > $ $ > < u d j h h h g a a p 8 1 < < < < > 1 g h h J J R R R R R E J 8 1 1 g u u d < < & < u p p p p p p g h g 8 8 p g w 1 9 E ` J g g 1 1 w w u 1 > < < < < < & > < 1 g g g g g r g g 9 p h p h p p g p g g h h g 1 p g p g g g g g y = N @.J 1 < @ # o ; 8 h R E E ~ E ~ E E E ~ ~ ~ ~ ~ ` ' K ` ` R J E ~ E E E R J R E E E E J J J a J R a J R R R R R a R ! R ! R R R ! ! a h h 9 g 8 8 a R R E E 9 ! ! R ^ h < + # & < < ; 1 1 1 < < < & & & & < < < < > < , , 2 7 I ;.{.:.A 9 8 8 g g 1 1 1 1 d d < < & + & < + O $ $ ; < < > : 1 g g g h g p d g d < < $ ; y y u < < < < < < < < 1 1 1 1 1 1 1 d d d ",
"< < < < < < < < < < < < < 1 1 1 1 1 < < < < < < < < < < < y y y < < < < < < < < < < < 1 d g h g g w 1 1 8 p g 8 : : 1 1 1 1 1 1 1 1 1 1 1 1 1 1 1 p g u 1 1 1 1 1 8 9 J V 9 8 8 9 8 8 g g p 8 1 8 8 p 8 8 8 g p g g a a a g g g g g g g g g a a a J E E J a g p p a g g g g h h g g g a h h g R T y.t.` h 8 a h R h h g < > , J ` ` K a 8 a a p p g g a ' ' a g d < > $ ; u h h g p p g a a p g p 1 < ; ; > > 1 g h R J J R R R R R R a , : 1 u 1 d d < & & < y d u u p g g h h g 8 8 8 p g 9 J Y R g g 8 1 w 1 < 1 1 : < 1 d q & $ > 1 g g g g e g g e 8 8 h h h z h h p 8 g g g g u 1 u p 8 g g h h g y = V %.J p < + o o ; g R R E ~ E K ~ ~ E E E ` ` ~ ` ` ~ K E E J J ~ ~ E E J J J E ~ E E R J R R a J R R R R R R R a a R R ! R R R R R R J R ! R R h h ! R J ~ ~ ~ E E R E h 1 & # & < ; ; 1 1 u 1 < < ; ; < & & < 1 1 : , 8 7 N D :.@X{.P J 9 g h h g 1 1 1 < 1 1 < ; & @ q < $ $ $ ; < < < < 1 1 p h h h p 1 d g 1 ; @ + ; 1 d u > < < < < < 1 1 1 1 1 1 1 1 1 d d 1 ",
"< < < < < < < < < < < < < < < 1 1 1 < < < < < < < < < < < < < < < < < < < < < < < < < 1 1 1 g d d q ; ; 1 8 p p 1 1 1 1 1 1 < < < < < < 1 1 1 1 1 u d d u u 1 1 1 9 J ' ' K 9 8 8 a 8 g g 1 : 1 8 p 8 8 e e e p p p a a a g g g p p p p g g g g a J E E J h h p p p g g g g h h g r r g h h h R Y y.p.' R 8 8 g h h h u < ; 1 R [ ' K a a a a 9 g g 8 9 $.' 9 8 u y y > > 8 p a a h h h g g g g g : > ; < 1 : 8 a a J R E E R J J a a h 8 = > < < < < < & & & < < y d d u g g p p p 8 8 8 8 a ` ` a r e 1 : u < < g g : > < q < & & < d l g g g w w g g g g h h h h h h p , 1 g d u u 1 1 h g g g g g g y = ( *.K h < + o o @ e ! R E ~ E K ~ E ~ ~ K E ~ E ~ K ~ ~ ~ J J E E J E J J E E E ~ ~ J J J R R R R ! ! R J a a 9 a a ! R / a a a a ! E E R R R R a h Q R E ~ ` ~ J E / ! g < & # # & < < 1 1 1 1 1 1 1 1 1 < < < < < = 4 9 B } XXqX.X$.J g 8 g g p p g g 1 : 1 1 1 < < ; < ; $ f < O $ & < y u h g p g p u u y y y ; & ; < d y y y 1 y < < < y j 1 : 1 < < 1 1 1 d 1 ",
"< < < < < < < < < < < < < < < < 1 1 < < < < < < < < < < < < < < < < < < < < < < < < < 1 1 1 d d d q < ; < 1 p p 8 1 : < 1 < < ; q < < < 1 1 1 1 1 d d d y u u < 1 9 T t.t...C 9 8 p 8 g g 1 : 1 8 8 8 8 8 e e p p p a a a g g a p p p p a g g g a J ( ~ R h g p p p g g g g h g g g g g h h h R I ;.p.$.K 9 g g h a h 1 ; = 8 K ' ' K a a a a 8 g 8 8 V %.' 9 8 g d y & > 1 p a h h h h g g g g g : > < < 1 1 p g h R E E E J J J a h h , > > > < & & & + & + @ & ; < 1 1 g h g g g 8 8 8 9 K ` ~ 9 1 1 1 : u 1 1 g g 1 > < q < & & < d h g p g 1 w g e g g p p h g p g 1 1 u p u u u 1 1 g g g g d g g y = K *.K g < O o o ; g h R R E ~ ` K J E ~ E E E J K E K E ~ R R E E J J J J J R ~ E E J J J J R R R R R ! R R ! R R ! ! R R 9 9 9 R ! R R E R 9 a 9 9 9 J R R J J a R R R h 1 < % + ; < ; < < q < < < : : , , > < < 1 7 B U y.OX$X}.@.V 8 g g g g 8 8 g g 1 : 1 d u g g 1 1 1 y d < + # @ @ & 1 d u u g d y y y d < $ & < y y < < < u y 1 y y d 1 1 u d 1 1 d j j d < ",
"< < < < < < < < < < < < < < < 1 1 < < < < < < < < < < < < < < < < < < < < < < < < < < < < < y y y y < < < 1 p p p 1 1 1 1 1 < < q < < < 1 1 1 1 w e g d y u u 1 1 9 %. X.Xt.T 9 8 e 8 p p , 1 8 p p 8 8 8 8 e 8 p p a a a g g a a p a a a a g g a J ` ~ R g g p p p g g g g h g g h g g h h h R E %.i.%.K 9 g g g a p , < > 6 K ' ` K h p p p 8 p 8 8 J %.) 9 8 g g y & ; 1 g g h a a a a g g g g : > < < y u p g R R R R R J J J h h h 1 , 1 > & $ $ $ O O O o $ < ; > : 1 g g g g e 8 8 a ` ~ R 9 1 1 1 : p g j g g p : 1 < < $ ; y g p p , g e g g 1 e h 8 p g 1 1 1 1 u g u u p p p p p p p u 1 8 p 1 = I >.K p 1 + o o @ e 8 a J R E ~ ~ E ~ ~ E E E E ~ E K ` E J J E E E E E J J J E E R R R R R J J J R J R R ! R R a ! R R R a a a a R R ! Q ! a R R h h ! ! J 9 R 9 9 9 a a 1 & # + = ; & & < < < < < 1 < > : : - - 7 U y.XX$X[.O.U E R a g g g g 8 8 1 1 1 8 e g w h l p p g d y ; @ # + + + ; 1 1 y d y 1 < ; < & + $ < < < < < 1 y < 1 1 u d d 1 d g 1 d d g j 1 = ",
"< < < < < < < < < < < < < < < < < < < < < < < < < < < < < < < < < < < < < < < < < < < < < < < < 1 y y s < < u p p 8 8 8 p p 1 1 d 1 1 1 1 1 1 1 w e g d d u u 1 1 9 $.].}.].@.B 8 1 u p p , , p p p 8 8 8 8 e e p p p a a a a a a a a a a a g g a K ' ~ a g g p p p g g g g g g a a g g h h R R J $.u.q.( r g g h p 8 : 1 : 9 I $.' E h g 8 8 8 e 8 a K %.) 9 8 p p y & ; 1 g g g a a a g g g p 1 : < < 1 y g p p h J J J J J R R h h h 8 g g 1 ; $ > > > > $ $ < y < > = = : 1 u w d 1 9 J ~ J 8 9 8 g d u p g x g p g 1 d < ; $ < d g u p 1 g g g g 8 p p 1 u 1 1 1 u u u g 1 1 1 p g g p p 1 u 1 8 h g = S y.I g d $ o o $ 1 g a R R E E E E E ~ E E E ~ E J R ~ J R R E E ~ ~ J E E E E E R R R E E J J R E R ! R a R ! R R a R R R J a R R R a R R 9 R R R R R R J R ^ h 8 4 h h 1 & o + ; ; ; & & ; ; < ; ; @ ; : 2 3 Z O.XXqX$X].| I V J R 9 g g g p 8 1 1 1 w g 8 e d l l h g u > > < < & # o o O & < y y < < < $ & & + $ ; < < < 1 u u u u 1 d g d 1 u g g d 1 1 1 1 < ",
"< < < < < < < < < < < < < < < < < < < < < < < < < < < < < < < < < < < < < < < < < < < < < < < < 1 1 y y < < u p p p p a h h p d d 1 1 1 1 1 1 1 8 g h g u u 1 1 4 V U X.;.].y.P 9 1 d 1 , : 1 p p 8 8 8 8 8 8 e 8 p p p a a a a a a a a a a a a a K ' ~ a p g p p a p g g g g g a a h g g a R R J ' t.t.) R g g h g 8 1 w 1 J ' %.' J h g r 8 p e 8 a ` q.( 9 8 8 , y ; > 1 g g a a a a g g g g 1 : 1 < 1 u u p 8 a a J J J R R R h h a 8 h c g 1 < 1 y 1 , 1 1 d g d 1 > = = < < 1 w 1 a J J 9 8 8 e j g p h p g h g g g g 1 < $ ; y u g g p h h h g 8 p 1 1 1 < < 1 u u 1 u 1 1 8 p g g p p u u u 8 p p - U {.` a u $ O o @ w z h R R E E E E E K E E E ~ J R E R E E R E R E E J E ~ ~ E E E R R R J J ~ J E E J R 9 R ! R R R R a R R R ! ! ! R R R J E J E ~ R J R R 9 g h 9 R z < o o # @ ; ; @ $ = = > < & & ; 2 M ..@XwXwX@X .) E Q R h a 8 g g 1 : 1 1 q < 1 g 8 e 1 d u y d 1 O $ < d s ; & O o @ & < < & < < & & & o & < y 1 < 1 u d g u 1 y d 1 d g g d 1 : 1 d 1 1 ",
"< < < < < < < < < < < < < < < < < < < < < < < < < < < < < < < < < < < < < < < < < < ; < < < < < y , 1 1 < < u p a a a R ! R a p g 1 1 1 1 1 1 1 e g g p p , 1 8 a E ) U U ;.].%.K 9 p 1 1 : 1 p p 8 8 8 8 8 8 8 8 p p p p a a a a a a a a a a a a L ' ~ a p g p p p g g g g g g a a g g g a J J J ( q.t.T V g g g p p p w 8 K 0.u.' J h g g 8 g 8 8 a ` $.E 8 g 8 8 y ; > p a a a a a g g g g p : : 1 1 1 1 , p g h R J J J R R R R a a 9 9 g g g g g g h h h h h h h h g 1 < > = ; 1 8 a g 8 1 1 1 g g d p u 1 e h g g h g u < $ < y 1 u d 1 g g g g 8 1 1 : < < < 1 1 1 1 1 1 1 1 p g g g g g d d p g g - S p.Y 9 p ; O o @ 1 h R R R E ~ ~ ~ E J E E E ~ E R R J E R J E J J E ~ ~ ~ E J J R R ~ ~ R E E J E R J R a R ! ! R ! ! R a ! R R ! E E ~ E E ` ` ` 8.] ` ` E 9 h R a R p > o o o # @ % @ + O O $ $ + : 7 P y.OX$X+X;.) V K E E ! g g e g 1 1 1 1 q q q 1 g g 1 < < < y y $ $ > 1 g d y 1 ; @ + @ @ + + & < < & O O < y u y y u g h g u u 1 1 u g j g 1 < = < < < d ",
"< < & & < < & < ; ; < < < < < < < < < < < < 1 1 < < < < < < 1 < < < < < < < < < < < < < < < < < 1 1 1 < < < 1 p a a R ! E R a p g 1 1 q q q 1 1 1 e e d u 1 , 9 I $.' C K @.{.].@.K 9 1 1 1 8 9 8 8 g 8 8 9 8 8 8 g p g g p p g g g p g p p g a a E ` E a p g g p p g g g g g g a a g g g a a R R K $.u.T V h g h a h h g 9 ` u.i.) J g g g 8 p p 8 J ` ' J 8 p p p d < < 8 a a a a a a g g g 8 1 1 1 < 1 1 8 g h R R R R J R R R a a 9 9 8 8 p g g g h h h h g p g p h h g 1 < $ $ < : 1 g w 1 : 1 g p 1 1 1 1 1 8 8 g z g 1 < = < y u g 1 1 g g g g 1 1 1 < < < < < 1 1 1 u 1 1 1 u g g u p g u g g h g = B u.) 9 g ; o o $ 1 h ! E R ~ ` ` ` E K ~ ~ E E ~ J J J R R J J J J E R R R E J J a R E E R J J R J J R ! a 9 R R a a ! a R ! R R ! E R R E ~ ~ ~ ~ ~ ~ ` 8.E a R h R ! h 1 # o X o & @ # + + + o + ; 5 U .XqX@X,.@.S E ! R ! h h 1 1 1 1 1 1 1 d d 1 1 d 1 < < ; ; < ; ; & < y d g d 1 1 < ; @ o O O + & < < + o ; y 1 y u d g g h g u u 1 y d d d d 1 < < ; < 1 d ",
"< < & & < & < < & & & < < < < 1 1 < < < < < 1 1 1 < ; ; < y y < < < < < < < 1 1 < < < < < < < < < < < < < < 1 1 a a R R R R p 8 d 1 1 q q q 1 u 1 w w q 1 1 8 V +.t.' 9 9 ) ,.].[.;.B 2 4 9 V V 9 9 g 8 8 9 9 8 8 g p g g p p g g g g g p g g a a R ~ R a p g g p p g g g g g g g g g g g a a R R R ' u.' K a a h a R ! R V $.{.{.( J a g r 8 p h 8 V ' ' J 8 1 p u d < < 8 a g g a a a g g p 8 p 1 < ; < : 8 h R R J R J J R R J a a 9 9 p p 8 p g p p h g g 8 8 g p g h h g g 1 < = < 1 j d 1 : u p 1 1 1 1 1 1 1 1 g g 1 1 < = < 1 d d 1 1 d g 1 1 1 1 1 : < < < < 1 d d 1 d u 1 1 1 u 1 g g g g h h w = B t.) 5 g @ o o O p R E / ~ ~ ` ' ` ~ E ` ` ~ ~ ~ E E R J E ~ ~ E ~ ~ R J E E R R E R R R R R R R R R R R 9 a R ! R R ! J R R R R J R J J ~ ~ ~ 8.E J R E ! a E R R R ~ z y & o . . # o o & & & O - 3 S :.OX-.@.&.` J R ! a h h g 1 1 y u 1 1 1 p 1 1 d d < > < < & < < ; ; < < 1 d d 1 1 1 1 & @ O O + $ & $ + & < u d g g g u u u 1 1 1 y d j d d 1 < ; < < 1 d 1 ",
"< < & & & < < < & & ; < < 1 1 1 1 < < < < < 1 1 < < ; ; < < < < < < < < < < < < < < < < < < < < < < < < < < 1 8 p h h a a 9 8 1 u 1 1 q q q 1 1 8 r r e 8 8 9 T t.t.` 9 9 V ) y.@XOX;.D D ;.:...C 9 p e 8 8 p 8 8 p p g g p p p g g g g p g g a a R ~ J a a g g p p g g g g g g g g g g g a a R R R ` *.$.K a a h a h R h V ..].{.) J h g r 8 p h 8 V ' ` V 8 8 p u d < < 8 a r 8 a a a g g g g u 1 < ; < : 8 h R R J J J a J ! R R a 9 8 g g 8 p g p a h g e 1 8 8 8 a h h c c z u < < < d d < : u u 1 1 1 1 w 1 1 g g e 1 1 < = < 1 u 1 1 1 u 1 1 1 1 1 1 : : 1 < < 1 d d 1 d u 1 1 1 1 1 1 8 g g h p 1 = B t.) 5 g ; + # O , h R E ~ E ` ~ K J J ~ ` ~ E J E R J R J J R E ~ E ~ E E E J J R R J R a a 9 R ! R a R R R R R R a R E ! R ! R R R R J E E ~ E J J / R a a E R R E R 9 < o . X X # o o + $ > 6 B t.y.i.$.) ) ` R a a h h h g 1 < < 1 d d 1 1 d g d u u < & < + + < < ; = ; < < 1 u d d 1 s < ; & + + + # o o ; < : g g h g g d < < < 1 y d d q 1 1 < < 1 1 < 1 < ",
"< < & & & & < < & & < < < 1 1 1 1 < < < < < < < < < < < < < < < < & & < < < < < < < < < < < < < < < < < < < 1 1 p h g 8 8 1 : 1 1 q 1 1 1 1 1 1 8 e p p 8 9 K %.y.%.K 9 r r J ..].$XOX[.XX*X*X].Y a 8 8 1 1 g p 8 8 p p g p p p g g g g p g g a a R ~ J a a g g p p g g g r g g g g g g g a a R R R ( *.$.K a h a h h h g V ..].{.) J h g g p p p 8 V ' ` 9 8 8 g u d < < 1 a g 8 a a a g g g g 1 < > < < : 8 h R R J R R J R R J a a 8 8 g p 8 p p g a g g g 8 1 8 8 8 a g h h h h p > = ; < < 1 1 1 1 1 1 1 1 1 g g 1 1 1 1 < = < 1 1 < 1 1 < < 1 1 1 1 1 1 < 1 1 1 1 1 1 1 1 1 1 : 1 d u 1 1 1 g g p 1 > V u.' 5 g < + # O 1 h R J ~ ~ ~ ~ ` ~ E ~ ~ E E J J J R R E J J J J J E J E E J J E ! R J a a a a h R R R Q ! ! J R a ! R R R ! E R R E J E E E J R J R a R R E R R J R p ; o . . o = - - 2 J I T X.p.t.' E ] ( ~ h a a p g 8 1 : 1 < < y d 1 1 d d d y < ; & & + & < = ; < 1 d d 1 : u 1 1 < < y s ; $ + # o # < , : , p g p d q ; < 1 1 1 y < < 1 1 1 < < < < < < ",
"< < < & < < < < < ; ; < < 1 1 1 1 < < < < < < < < 1 1 u 1 < < < < < & < < < < < < < < < < < < < < < < < < < < 1 p h h 8 1 < < < < q 1 1 1 1 1 1 1 g p p u 9 I >.>.) J 9 e e 8 J ..[.*X=X=X;X8XOX' a p p u 1 g p 8 8 p p g p p p p p g g p g g a a R ~ R a p g g p p g g 8 8 g g g g p g g a h h J J I *.&.K h h a h h g g 9 ..].].( J h h g 9 8 p 8 C ' ( 9 e g g u d < < 1 g g g p a a g g g g 1 < < < < : 8 h R R J R R J R R J a p a a g 8 8 p 8 g g a g g e 8 8 8 8 8 p h h h h h 1 > = = = < 1 1 1 1 y d 1 1 g e : 1 1 1 < ; ; 1 1 < 1 1 < < 1 1 1 1 1 1 1 < 1 1 1 < < 1 < : 1 : 1 g y 1 1 d g h g 1 1 V u.&.V h 1 O o # 1 h R J J E E ~ ` ` ~ E E E E J J J E E E J R E J R ~ J J R J J E E R R J a R R R ! R a ! ! ! ! ! ! ! / E ! ! R R R R J E E E E R a a R ^ R ! Q R R 6.x & . . . O 9 K I T u.p.t.q.T ~ R a ! R R g g a 8 8 : 1 1 u y 1 y 1 1 1 u d 1 < ; $ $ < & ; < < 1 < d d d 1 1 1 1 1 ; < d d d < + $ & ; 1 p p u p p , < ; & ; 1 d 1 y 1 1 1 1 1 1 < 1 d < ; ",
"< < & & < < < < < ; < < < < 1 1 1 < < < < < < < 1 1 8 p 8 1 < < < < < < < < < < < < < < < < < < < < < < < < < 1 p g h h 1 < ; < < q 1 1 1 1 < 1 1 d g d 1 9 U :.@.K 9 9 8 1 1 g J +..X$X+XXX+XOX$.a 8 p p 8 p p p p p r r p p p p p p g p g g a a R ~ R a p g g p p g g p 8 p p p p 8 p 9 a a a a R K *.e.( h g g h h g 8 9 T ].y.( J g h h a p 8 4 C ' K 9 e g g 1 d < < 1 g g p p p p p p p p 1 : 1 < ; : 1 h h R J R R h R R J a a p g g p 9 p 8 a g a g g g 8 8 p g g g h h h a h h u 1 ; = < 1 1 1 1 d d 1 1 w 1 , u 1 1 < $ > < < < < < < < < < < < < < 1 < < 1 1 < < 1 : < < 1 d u < : 1 g 1 p p 8 < N u.e.V h w + o o < 8 a J R R E K E ~ ~ ~ ~ ~ E J E ~ ~ R J R R R R R J J J J E ~ R J R R a a ! ! R ! h a ! R R R ! ! R / E R a 9 J R E R R R J R R ! ! R a 9 R R 9 J ! g & . . o : ~ 0.%.$.' Y ` ] ~ h g h h R g 8 g 1 1 1 < 1 1 1 1 y 1 1 1 < 1 q q < & & < < < < d d d 1 g d : > 1 g j 1 < d g g g y $ O > 1 : 1 d y u p p 1 ; < < w g 1 1 d d 1 1 1 1 1 1 < < 1 ",
"< < & & < & & & ; ; < ; < < < < < < < < < < < < 1 8 a a a 1 < < y < < 1 , , 1 < < < < < < < < < < < < < < < < 1 p g h R e < q q < q q 1 1 1 < 1 1 g g g 8 K +.;.U V 9 p 1 1 w d 8 V +.,.;. .=.}.*.J 9 p p p p p g g 8 8 r p p p p p p g p g g a a R ~ R a g g g p p g g g r 8 p p p 8 8 a a g h h R K $.e.( a g h h g g e 9 T y.y.( R h h h 9 8 8 4 K &.J 8 e g g p d < ; 1 g g p p a a p p p p 1 1 1 < = < u h h R J J a a R R R a a 8 a h a 9 a 8 a g a g h h a p 8 8 g g p g a a p h h g 1 < < 1 1 1 1 d d w 1 1 1 u d 1 < < $ ; < 1 < < < 1 < < < < < < 1 1 < < 1 < < 1 1 1 < < 1 1 1 u 1 w g 1 g g 8 > 3 u.e.N r g ; o # & p a R J J R R E E E J J E J J ~ E E R ! E J a J J J R R R E ~ E J J ! R a R R R R R a R a 9 R R R R a J R J a J R E J E E R R 9 R R R a a R J R ~ J p < % X o > R ` I E V 7 R Q R h g g g g 1 1 : : 1 1 1 d d 1 q d 1 < < < q < ; & $ $ < < d d j d u 1 1 d 1 1 1 g g 1 1 g g d d u $ + > i 9 1 d d g p 8 1 1 d d g g 1 1 1 d d 1 d d 1 1 < < 1 ",
"& & & < < < < < ; ; ; ; < < < < < < < < & < < 1 8 a K J a 8 < < < y 1 p a i 1 1 < < < < < < < < < < < < < < < 1 u g h R g w < ; q < q 1 1 < q 1 e p g p 9 T ;.%.( 9 8 u u u w w e 9 J K E C | {.p.T V 8 g g p g d p p 8 g g g p p p p p p g g 8 a R E a 9 g g g p p g g g g g g g g g g g g g h h R K ' $.( R h g p , 1 1 9 ` u.*.E a g h h h 8 8 9 ' 0.J r g w g g d < ; : g p p p a a g h g p 1 < > = = < u p h R J a a h R R R h a a a a h h a a a a a a a a a a p 8 g g g h h g p g z j 1 ; < 1 1 1 1 1 1 1 1 1 1 1 1 1 < ; & ; y d < < < < < < < < < < < < < < < < < 1 1 : < < 1 1 < y 1 1 g g g g g < 3 *.u.N 9 g < # # & 1 a R E E R R J J J E R R R J J R R R ! R J R R ! E R R R J R R R R ! ! ! R a J a a a a a R ! R R ! R a R R J R R R E ~ E R ! R R R R 9 ! E J E ` E R 1 # . . + p 8 8 g 9 9 ^ ^ h g r e g 8 e w 1 1 d 1 < < 1 d d 1 1 < 1 q s < @ & & ; < < < y d g 1 < 1 1 1 d g g 1 > = 1 p g d y & & : L ` 9 : < j d 1 1 d d g g g g 1 1 1 1 1 1 d 1 1 1 1 < ",
"& & < < < < < < ; ; < < < ; < < < & & & & & ; 1 9 J L J a 8 < < < 1 p a J a p 1 < < < < < q < < < 1 < < < < < 1 1 g h J h e 1 < < < q < 1 1 q < 1 g g 9 K @.;.$.V 1 1 u d u 8 8 8 8 a a h J Y y..Xy.I 9 8 8 1 d g p a 9 9 g g p p p p p p g g 8 a R E a 9 g g g p p g g g g g g p p g g g g g h h R K ( $.' R h g p 1 1 1 8 K e.$.E a g h h h a 9 9 ' $.9 r g w g g d < ; : g p p p a a g h h p 1 < > ; ; 1 1 p h R R a a h R h h a a a a h a h a a a h h h J J a a g g p 8 g g g p 1 g g d < ; ; 1 1 1 1 1 1 1 1 1 1 1 1 1 ; ; ; ; < 1 < < 1 1 1 1 < 1 1 : 1 1 < < 1 < < < < < < < 1 1 1 1 1 1 g g h g g < 2 %.u.B 9 g 1 @ # + < g R ~ R J J J R J E ~ R J R J R R J R J J R R R J J R R R R R ! ! E ! R R R ! R R R h R R R a a ! R a R R R R R E ~ R J R ! R ! ! a a R E J E ` ' E , + o o # 1 8 8 p 8 a ! a 8 1 8 r g g g d 1 < < < < < 1 < < ; ; < < q q < @ & ; ; < 1 y 1 d u < 1 1 1 u d 1 < : < > u , y d d < < : J 0.9.9 , g g 1 1 8 p 8 p h g d 1 : : 1 1 d 1 1 1 q 1 ",
"& & < < < < < < < < < < < ; ; < < & & & & & < 1 9 J E J 9 , < < < 1 8 J R J p 1 < < < < < q < < < 1 1 < < < < < 1 w a J R 8 1 < < ; < < 1 < 1 0 w g p 9 ..,.;.) 9 : 1 u u u 8 8 8 8 p h l ! K t.@X.X@.C 4 1 w u p p a 9 9 g g p p p p g p g g 8 a R E a 9 g g g p g g g g g g g g g g g g g g g h R R ( $...K h g p 1 1 < , J [ ` J a g h h R h 9 J ' ' 9 e g 1 g e d < ; < g p p p a a g h h g 1 < < < < 1 1 h h h a a a R R h a a h h a a R h a a a h h h J R R a h g p 8 1 1 g u 1 u u 1 ; ; ; < 1 1 1 1 1 1 < 1 1 1 1 < < & & > < y 1 1 1 1 1 1 < 1 1 < 1 1 < < < < < < < < < < 1 1 1 u 1 e g g g g g ; 2 $.u.C 9 h 1 ; + + ; g h ! R a J R R J J R J R J J R R J R J R R J J a R R R a a J R R ! ! ! ! ! R ! ! ! Q ! a a R R a R J R R R ! R E E R R R J a ! R J R R R E E E ` ! , + % o # 1 p 8 p g h R h 8 1 1 r r g d 1 < ; < d < < ; < < ; $ 1 1 < < ; @ + ; < < d u 1 1 : < u 1 1 1 1 < < 1 1 1 y 1 y < ; < d 1 9 K r.I 9 p g 1 1 1 8 8 p g u 1 1 1 < 1 1 < < < 1 d 1 ",
"& < < < < < < < 1 , 1 1 1 < < < < & & & & ; : 8 a J R 8 8 1 1 < < : 8 a J a 8 < < < 1 < < < < < < 1 1 < < q < < 1 1 a J J a 8 < < ; < < < < 1 8 4 a V C @.,.@.K 9 1 u p u u u 8 p p p p a h J T {.@X{...V 8 w 1 p p 8 a a g g p p p p g g g g 9 a R E a 8 g g g p g r g g g g g g g g g g g g h h h R E U ..K 9 g p 1 1 < : a ~ E a a g h r R R J K $.U 9 e g 1 e w w 1 ; < g p a p p p g h h g 1 < < < < 1 1 g h h R a a h h h a a a a R R J R J J R R R R R R R h h g p 1 1 w d u 1 u 1 ; $ @ ; 1 1 1 1 1 1 < < 1 1 1 1 < < & & $ < < 1 1 1 1 1 1 : 1 1 < 1 1 < 1 < ; < < < < < 1 1 1 1 g d g g p p p e ; 2 $.u.C r h 1 < $ + < 1 8 h J J E ! R ! R J R / E J J J J R J R R J R R R a a a a 9 a R a R R a a a R R R ! E J R / ! R ! E E R R R R R E E R R R R E J E ~ ~ E E R R ! 8 < o . . o , g g g c ^ h h 1 1 w e 1 w 1 < < < < < ; ; < < q < < 1 1 < ; & & & < < 1 d d u 1 < < 1 1 1 d 1 < y d y g d y y ; ; d h 1 : - T 0.K 7 8 1 < : 1 g g y < 1 1 1 1 1 u 1 1 d d d 1 ",
"< < < < < < < < 1 p g g p 1 < < < < < < & < 1 8 a a g 1 1 1 < < < : 1 9 a 9 1 < < < 1 1 < < < < < 1 1 < q q < < 1 1 8 J R a 8 1 ; < < 1 < 1 a K Y Y U X.,.,.) 5 1 y p p 8 1 u p p p 8 8 r r 9 V +.}.$X{.$.9 8 8 8 p 8 p a a g p p p p g g g g 9 a R E a 8 g g g p g r g g g p p p p p p g g g g h h h F U %.` a g g g 1 < > p ! R a a g g r R R J I $.I 8 w g 1 e w g 1 ; < g p a p a a g h h g 1 < < < d 1 1 g h a h R R h a a a a R R J J J J J J R R R R h h h h a g 8 8 8 g g u 1 d 1 = $ & < q 1 1 1 1 1 1 < < : : < < < & & & ; < 1 1 1 1 1 1 1 1 1 1 1 1 < < < < < < < < 1 1 < 1 1 j g g g p p p 1 ; - ' p.C r h 8 1 $ # & < : 9 J E ! R R R R J R E R a J E E E J J J R ! R R h 9 a a a a h h h a a R R R R E R R R ! ! ! ! R ! R R R R J J R J J R / E E ~ ~ ` ~ ~ R R E R 8 < # o . o 1 g 1 p h h g 1 1 w w 1 1 q 1 y < < ; & ; ; q q < < < 1 1 < ; @ & < < < 1 u g d 1 < < 1 1 < 1 < 1 y < 1 d < ; > > 1 g h 8 : = 2 ' q.V 8 q 1 1 g j d y < < : 1 1 d d u d d 1 1 < ",
"< < < < < < 1 , 9 a h h a 8 : < < < < & ; 1 8 9 a a 8 < < < < < < 1 1 p 8 8 1 < < < 1 1 < < < < < < < < q q < < < 1 8 h R J 8 1 < 1 1 < : a ` t.].y.:.].}.;.S 6 1 d p p 8 1 u p p p g g g w w 8 I ,.$X$Xy.K 8 8 8 8 e p a a g p p p p g g g g 8 a R R a 8 g g g p g g g g g p p p p p p 9 9 a g h h h V $.p.0.J g g g u < < p h h p p g g r R R K Y $.K 8 w g 1 w 1 d < ; < g p p p p g g h h g 1 < < 1 d 1 1 g h a h R h a 9 9 a R R J J J J J J J R R R R h a h h 9 a a 8 8 g g d u d < $ @ ; q d q 1 1 1 1 < < < : < < < y ; + + ; < 1 1 1 1 1 1 1 1 1 1 1 1 < < 1 < < < ; < 1 1 1 1 1 g g g h g g g 1 ; - ' B.S r h g 1 $ o & @ = 8 R E ! ! ! R R R R R J R R E / ~ E J J E E a R h h R h a 9 a R R a R E E R J J J J a J R R ! R E R R R J a J J J R E / J J E E ~ ` ~ R ! R ! h < + . . o ; < > g g g e 1 1 e w 1 1 d 1 y < ; ; < s q q q < < ; 1 < 1 ; @ ; < < y d u d d d 1 < < 1 ; < ; 1 < < d d < ; < < y u g g 8 : ; V $.Y 9 1 q w 1 y d < < < 1 d g g 1 u u d d d 1 ",
"& & * ; < 8 a J J J K E J a 8 : < ; < < < , p a h p , 1 1 1 < < < < 1 u 8 1 1 1 < < < < < < < < < < < < < < < < < 1 1 r R R a 1 ; < 1 1 1 K i.3X&X%X%X*X+X,.) 9 1 1 u g g 1 d g 1 1 8 e 8 1 1 8 a Y y.$X@X..V 8 e p p a a g g g p p p g g g g g g h R a 8 8 8 g g g g p g g p p p g a a g a 9 a h h g 9 ...Xp.' a h p 1 $ & 1 g a h g g r r h h K $.) J e 1 1 w w w d < ; 1 g p a a g p p p p p < < ; < 1 1 1 e p g h h a a a h R R R R J R R R R R R R R h a a a a a 9 a g g g u u y s & O $ < y u 1 1 1 1 1 < < : : < < < y < & + @ < 1 1 u u u u 1 1 1 1 < < 1 1 1 1 < < < y y y y 1 1 1 1 1 d d g p 1 $ = E B.S 8 1 1 1 ; & + @ @ = p a a ^ ! R ! ! R R R R R E J E R R R E R a R R R R R a a a R R ! R E R ~ E 9 a E J J J R R E E E R R R R R J J E E R 9 J J R E E ~ E ~ E E h < + o o o O = : h k g 1 1 1 g u 1 d 1 < ; < < ; ; ; < < < < < ; d 1 < < < < < < y d d 1 < < y y d d y < ; ; y d < y < < ; < < 1 j g g 1 = 8 E 0.m 4 : u < y y 1 1 d d d u 1 d 1 1 1 1 1 1 ",
"& & * q 1 8 J K E K J K J J 9 1 < ; ; < < p p p g p , 1 1 1 < < ; < 1 1 1 1 1 1 < < < < < < < < < < < < < < < < < < 1 r R E a 1 ; < 1 1 9 $.[.%X&X=X=X=X7X{.$.V 8 1 u u d 1 1 1 8 g 8 e w d d w p V ..{.@X;.C 9 e r p a a g g g p p p g g g g g g g h a p 8 8 g g g g p p g p p p a a a a a a a h h r 9 T  X X$.J g g 1 & ; 1 p a h g r g g h h K +.' J e 1 1 1 w w d < ; 1 g g a g g p p p p p < ; ; < 1 < 1 g 8 p h g a a a a J R R R R R R R R R R R R J a a a a a a a g g p 1 u y < @ + ; 1 d d 1 1 1 1 1 < 1 1 : < < < y y & + @ < 1 1 1 u u u 1 1 1 1 < < 1 1 1 1 < < < y y < 1 1 1 1 1 u d d g 8 8 > = R u.U 8 1 1 1 < + + + # $ 1 p 8 a a 9 J R R a R a J R R R R R R R J R E E R R J R ! R J R E E / E J R J R R R R R E R J R E R R R R E R R R J R E R E E R R ~ ~ E E E h < @ # o o $ : 1 h h 1 1 1 1 1 d d 1 < ; ; ; ; < < < < < < < < < 1 < < < < < < < d 1 < < < > < y y < y y < < y d < & & < $ > < 1 u g d 1 : = 8 $.) 9 1 < y d d 1 < 1 1 1 1 1 1 < d d 1 d d ",
"& & & ; 1 9 J E E R a J J R a 8 1 ; & < < , 8 p p 1 1 1 1 < < < < < 1 1 1 1 1 1 < < < < < < < < < < < < < < < < < < 1 9 J E a 8 1 < 1 8 K t.[.).).[.XXOXOXy.+.V 8 1 1 p g 1 1 1 1 e e e w d d w 1 9 C *..Xi.( 9 e e p p g g g g p p p g g g g g p a a a p 8 8 e g g g p p p p p p a a a a a a g h g 8 8 K %.u.0.E a p y ; ; 1 8 a h g g h h h h K %.' 9 8 1 1 1 w w d < ; 1 g g a g g p p a p p < ; ; < 1 ; 1 g p p g a 8 8 a a R R R J J R R R R R R R J R R R R R R R h g g 8 1 1 < & + $ < d d u 1 1 1 1 1 < 1 1 1 < < < y y & + & < 1 1 1 1 1 1 1 1 1 1 : < 1 1 1 1 < < < < < < 1 y 1 1 1 y y d g 8 8 1 = 9 e.( 8 1 1 1 1 @ + # o + < , 8 9 a J J R R ! ! R J J R J R R R a R R R ! ! R R R ! R R R E / ~ E R R R R R R E ! R R R R R J R R J R R R ! R R E R E ! R R R R R E E h 1 ; # o O = 9 a h g 1 1 g < < 1 1 < < < < ; ; ; < < < < < < < < 1 < < < < < < 1 1 < < < > > < y < < < d y < y 1 ; + & < ; < 1 u 1 g : = : = = K ( 9 : q y d d 1 1 1 d u d d 1 1 d d 1 1 d ",
"& & & ; 1 g h R h a 9 9 a R R p 1 ; & < 1 1 1 1 1 1 : 1 < < < < < < 1 1 1 1 1 1 < < < < < < < < < < < < < < < < < < 1 8 J E R a , : 1 9 ..i.y...U +.+.X.X.+.' V 4 1 e g e 1 8 1 1 8 1 1 d u 1 1 1 8 9 ( u.u.) 9 e g g p p g g g p p p 8 p g g g 8 8 a a g p g 8 e 8 g p p p p p p p a a a a a g g p 8 1 9 K ' w.' a g y ; < 1 g g h g g h h h J ( *.' 9 8 1 1 w 1 w w < ; 1 g a a g g p p a p u < @ ; < 1 < 1 g g g g 8 8 9 8 a R R J R E R E E R R J R R R R R R R R h h g g 1 1 1 ; + + & < d d 1 1 1 1 1 1 1 1 1 1 1 < 1 y y & @ & < 1 1 1 1 1 1 1 1 1 1 < < 1 y 1 1 < < < < < < y y 1 1 1 y 1 u 1 1 p u > 4 $.` 8 u 1 1 1 < @ o o o $ < 8 h R R J J R R ! R J J J R J R a a R ! J R R J R R ! ! ! J R J R R R R a R ! R ! R E / ! J J J R R R R R R E R J R R R R ! R a 9 R E ~ ! g > o o O 6 R R a 8 1 1 q < < < ; ; & < < < ; < < < < 1 1 1 1 1 d < < < < 1 < 1 < < < ; ; < < < < y y < < < < ; $ $ ; < 1 1 d j g d 1 1 d 1 ; 6 7 5 : 0 1 1 y d g g g g g j j d 1 < < < < ",
"< ; & ; 1 w g a p 1 : 1 a R R a 1 ; & < y 1 : 1 1 < < < < < < < < < 1 1 1 1 1 1 < < < < < < < < < < < < < < < < < < < 1 a J R a 8 1 9 I %.t.$.V 9 a J J K ` ] R h ^ 2.2.c 8 8 8 8 e 1 1 u 1 1 1 1 g g R ' $.I 9 p g g p a g g g p p p 8 p g g g 8 8 8 p g g g 8 e e g p p p p p p p a a g a g h h 8 1 1 r 9 E ` ~ a d < ; ; 1 g g h g g h h h J Y q.' 9 8 w w 1 1 w w < ; 1 g p p g g p p a p 1 < @ & < : > 1 h h g p 8 8 8 9 9 a R R R E E E E R R R R R J R R R R R h h g g u 1 ; & + + ; y d u 1 1 1 1 1 1 < 1 1 1 1 < 1 y 1 & @ & < 1 1 1 1 1 1 1 1 1 1 < < 1 y 1 1 < < < < < < y u d 1 1 1 1 1 1 1 p d < - $.' p 1 : 1 d < & + o o + ; p h R R J J J R ! ! R R E E R R a R E ! R R J J J R ! R R J R J R R a R R a Q ! R J R ! R a ! E R R ! ! R R ! R J R R ! J E R 9 R R E ~ R 8 O o # O i 8.` J 8 1 < ; ; < 1 < q & ; < < < < d < < 1 1 1 1 1 d < < < < 1 < < 1 d ; < 1 d < ; < y < ; ; < ; $ ; ; < < u u u g u < 1 j g d ; = - 7 G 9 e 1 1 g g u 8 g h g g 1 < < < ; ; ",
"< < & ; < q 1 1 1 < ; < 8 a J h 1 ; & < 1 < < < < < ; < < < < ; < < < 1 1 1 1 < < < < < < < < < < < < < < < < < < < < q 8 R R h 8 8 V +.>.%.J 8 u 1 g g ! h.h.] h.J.Q.Y.z.^ 8 8 e 8 u d d 1 1 1 g g g V E ( K 9 p g d g a g g g p p p 8 8 g g g 8 8 8 p g g g 8 8 8 g p p 8 8 8 p g g a a a g h g 8 : 1 g g J K J h d < $ < 1 g g h g g h h h V Y t.$.9 8 d d u u d d < < 1 g g p g g p p a p 1 < @ & < < = 1 g h g g 8 1 1 4 9 a R R E E E E E R R R R J R R a h h a h h g g 1 < < & + & < u u 1 1 1 1 1 1 < 1 1 1 1 < < < y < & + & < 1 1 1 1 1 1 1 1 1 1 < < 1 1 1 1 < < < ; < 1 1 1 d 1 1 < u 1 1 d p u < - ) ' p 1 : d d d < @ + # + & , h R R R R J R R R R E E E R J R ! ! R ! J R R R ! ! R E E E J R R R R R R R R ! J R R R R R R ! E E ! R R R R R J J R J R R R E R ~ ` R p ; # # O a 8.~ R g w q q < 1 d q < ; ; < < 1 1 1 1 < < 1 1 q d 1 < < < < < < < 1 1 1 1 < < < ; ; < < ; ; < < ; < 1 1 : g g d d u 1 1 d 1 1 < ; : 9 $.) 9 1 u p p 1 1 p g g u 1 < < < ; < ",
"< < < < < ; ; ; ; ; & ; 1 9 a a p < ; < < < < < < < < < < < < < < < < 1 1 1 1 < < < < < < < < < < < < < < < < < < < < < 8 R E R 9 7 I ;.;.) 9 p p u g g / k.m.N.L.ZXGXAXY.j.h 8 1 e 1 1 1 1 1 1 u g h J E ' ( a 8 g d g p p g g g g g g g g g g 8 8 p g g g g g g e g p p p p p g g g g g g p g g 8 1 g g r 9 J g 1 1 ; & ; 1 g g h g g h h h 9 U u.' 9 8 d d u u d d < > 1 g a p p p p p a p u < @ ; < < < u g g g g 1 1 8 8 h h J R R E E E E R R R R R R J R R h R h g r 8 1 < ; $ + < y y 1 1 1 1 1 1 1 < 1 1 1 1 < < < y < & + & < 1 1 1 1 1 1 1 1 1 1 1 1 1 1 1 1 1 < < < < 1 1 1 1 1 1 y u , 1 d g u ; - ' ` 8 1 1 1 1 d < & & & & @ = p ! R E ~ ~ E E J J E E R R R ! R R R E R J R R ! / ! J R R J J R Q R h ! a R R R R J R J R R R R R R J a R J R R R R R R R E R R ~ E E h < # o + 9 E J a e 1 q q q 1 1 1 < < < < 1 1 < < < 1 1 < 1 d q 1 1 < 1 1 < < d d 1 d 1 < < $ ; ; ; < < ; < < < y 1 1 u g g d u 1 d d 1 < 1 d < > 8 %.{.E 8 1 1 1 1 1 p g 1 1 1 1 1 < < < ",
"< < < < ; ; & & ; & & & < 8 a a p 1 < < < < < < < < < < < < < < < < < < 1 1 1 < < < < < < < < < < < < < < < < < < < < < 1 a E J V I X.y.@.K 8 u p u g h g.N.m.C.BXGXGXAXmXA.W 8 8 e 1 1 1 1 1 1 u p h J E $.` J 8 p d g g g g g g g g g g g g g 8 8 p g 8 g g g g g g p p p p p g g g g g p 8 g g 1 1 g g 9 9 g g 1 < < @ ; 1 g g h g g g g a 9 U u.' 9 1 1 1 1 1 1 d < = 1 g h p 8 p g p p p p < @ ; < < 1 d g g p 8 1 8 g g h R R R R E E R R R J R R R R R R R h R h h g 1 1 < & + & < d y 1 : 1 1 1 1 1 < < 1 1 1 < < < y < & + & < 1 1 1 : 1 1 1 1 1 1 1 1 1 1 1 1 1 < < < 1 1 u 1 1 : : 1 u 1 1 1 u < O = ( ( 8 : 1 d 1 < < ; < s & + = , h R R E ~ E R J J R E ! R R R J J R R R R R ! ! R J J J R ~ / R R a 9 R R R R R J J R R R R R R R R R R J a R R R / E R R E ~ E ` ' ~ p < + X # 8 J h g 1 < ; < < : 1 1 1 1 1 1 < < < < < < q d d 1 1 < < 1 1 < q < 1 d d < < < ; $ ; < y < < < < < < y 1 u d d d 1 < < < < = = 1 g 1 > : P .X>.m e 8 , 1 g 1 1 1 1 < < < < 1 < ",
"& < < < < < < < < & & & < 1 8 a p 1 < < < < & < < & < < < < < < < < < < 1 1 1 < < < < < < < < < < < < < < < < < < < < d 1 r K T ..;.y.y.T 9 1 < y d g ^ k.N.N.L.CXFXFXZXmXA.^ 8 e d 1 1 1 1 w 8 1 p a 9 ( %.' J 9 g g d w g g g g g g g g g g e 8 8 g g 8 g g 8 g p p p p p p p p g g g g p 8 g 8 1 1 g a a 9 g d 1 y < & ; 1 g g h g g g g g 9 Y e.) 9 1 q q q 1 1 1 ; = 1 g g p 8 8 g p p g 1 < @ & < < < u g 1 1 : 1 e g h R ! E J J J R R R R J R R R R R R R R h h h g u < ; $ + ; y d 1 1 : 1 1 1 1 < < < 1 1 1 < < 1 1 < & + & < 1 1 1 1 1 1 < 1 1 1 1 1 1 1 1 1 < < < 1 1 1 u 1 1 : 1 y u u 1 1 u < + = ( ` 8 < 1 d < ; & ; < < & + $ > 8 h R J E E R R J a R ! R R R R R ! R R R a R ! R J J R ! E R R R ! R R R R a R R R R ! ! ! R R R R R a a 9 a a a a R ! ! ~ ~ E E K R u & + . # 1 a g g w ; ; < < 1 1 1 y d 1 < < < < < < < w d d 1 1 < < < < < < 1 < 1 < < < ; ; > < y d d y < < y y y 1 1 d u 1 < < < ; < < ; y u p p 1 C p..XU 9 e 8 g h p p d 1 1 < < 1 d 1 ",
"& < < < < < < < < & & & ; 1 8 8 p 1 < < < < < < < < ; < < < < < < ; ; < 1 1 < < < < < < < < < < < < < < < < < < < < < < 1 9 K @.].[.{.*.K 8 1 ; q q d ^ k.N.S.T.mXCXZXCX!.A./ g g u u u u 1 8 8 1 1 8 9 ( q.%.K 9 g p d w g g g g g g g g g g 8 1 1 e g 8 p g 8 g g g g p g p p p p g g g p 8 8 1 : 1 p a a g g g g u 1 ; ; 1 e g h g g r g g 9 ) *.( 8 1 1 1 1 1 1 q ; @ < g g p 8 8 p p p p 1 ; @ & < < ; 1 y : : : 1 8 g h R R E R R J R R R R R R R R R R R R R h h h h u < & $ + ; < y y 1 1 u u 1 1 < < < 1 1 1 < < 1 1 < & + & < 1 1 1 1 1 1 < 1 1 1 < 1 u u 1 1 1 1 1 1 1 d u 1 : 1 1 d d 1 1 1 y < + = ( ~ , 1 < ; ; ; & & ; < ; O & ; 1 g R R J E J J R R ! R R R R R R ! R R R R R ! R h R a J R J R ! R R R ! R a R R R R ! R ! ! R ! R a a R R ! a R a a ! R ~ R R E E h 1 & o X o : g e g w < < < 1 1 1 1 1 < < ; < < < < < < 1 1 1 1 1 < < ; < 1 < < 1 < 1 d < < < 1 1 y d u y y y y y d 1 1 1 1 < ; ; < < d y < d u h h 1 9 U .Xp.C 5 8 g g g g d u d d < 1 d d ",
"& & < < < < < & & < & & ; 1 1 8 8 1 1 < < < < < ; ; ; < < < < < < ; ; < 1 1 < < < < < < < < < < < < < < < < < < < < < < < 8 I ;.OX}.y.' 9 1 < < q 1 g ^ g.k.S.T.!.mXBXmXQ.F.g.h g 1 u u u 1 8 8 1 1 8 9 E %.%.E a g g e 1 e 8 8 8 8 8 8 g g r 8 1 1 e e 1 p g 8 8 8 8 8 8 8 8 8 p p p g g p 8 1 : : 1 p a a g g g h p u < < 1 e g g g g r r r 9 ( $.E 8 1 < < < < < q & $ < d g p 8 8 8 p p p 1 ; @ & ; < ; < < < : 1 : 1 e g R J J R R J J R R R R R R R R R R R R h h g g 1 ; + # & ; < y y u g 1 1 1 1 < < < 1 1 1 < < 1 1 < & + & < 1 1 1 1 1 1 1 1 1 1 1 1 d g d d 1 1 1 1 d d u 1 : 1 1 u d d 1 1 1 $ o = ` J 1 1 < @ @ & & $ > < 1 > & & < p ! R J E R E ~ R a R R a R ! Q ! R a R ! ! ! R h a a J R J J R R ! ! ! R a R R R R ! R R R R R R R ! R ! / R R ! ! R a a R R ! ! g < # o o o > d 1 1 d w 1 1 d d 1 1 < ; ; ; < 1 < ; < < < q < < < < < < < < < < 1 1 d 1 < < y u u y y 1 1 y y u y 1 1 1 1 1 < ; @ ; < y < > < 1 g 8 8 4 J u.<X>.N 9 p g j d 1 u 1 1 < < d d ",
"& < < < < < & & * < & & ; < 1 , 8 8 1 < & < < < & & ; < < < < < < ; ; < 1 1 < ; < < < < < < < < < < < < < < < < < < < < 1 4 C ;.}.(.+.J 8 1 < 1 1 1 g ^ g.k.z.F.U.L.F.S.F.F.j.k g 1 d u u 8 8 r g g 9 9 R $.$.E h g e 8 8 8 8 8 8 8 8 8 g g g 8 1 1 1 e 1 8 p 8 8 8 8 8 8 8 8 8 8 p g p g g 8 1 : : d g p a g g g h a p < < 1 e g g a g g g g 9 ( +.K 8 < < < < < < q & @ < d g p 8 e e p p p 1 ; @ & ; < < y y < 1 1 : 1 8 g R J J R R R R R R R R R R R R R R R h h h g g 1 ; + $ & < < y 1 y g 1 1 1 1 1 < < 1 1 1 < < 1 1 < & + + < 1 1 1 1 1 1 1 1 1 1 1 1 1 w 1 1 1 1 1 w w w 1 1 : 1 1 d g d g g y $ # : ` J : < ; @ o @ & < 1 g g d & & ; , a J J E E E R J 9 a R R R ! Q ! ! R R R R R ! h 9 a R R ! R R ! R a ! ! R Q / R ! R R a a a a a R R R R ! R R ! R R ! a a h a 9 = & o o o o ; 1 1 1 e h g e d 1 1 < < ; & ; ; ; < < < ; < < < ; $ < < 1 < < 1 < < 1 1 < < < y d u 1 < < < 1 u u u 1 < : 1 1 < ; ; ; < y < ; < g g 8 g 1 9 U :.OX+.5 g g d 1 1 1 < 1 1 1 1 1 ",
"< < < < < < & & & < & & & ; < 1 1 1 1 < & < < & & & & < < < < < < < < < < < < < < < < < < < < < < < < < < < < < < < < < 1 8 C +.;.$.E 8 , 1 < y 1 1 h ^ j.j.j.c.D.c.g.3.z.A.j.h e 1 u u u w e e e g 9 9 F $.%.( r e e 8 8 8 8 e e e e 8 e g e 1 1 1 p g u p p p 8 e e 8 8 p 8 8 p g p p g g e 1 : 1 g g 8 g g g g h p u < < 1 e g g g g g g g 9 ) +.K 1 < < < < < q q & $ < d g 8 8 8 e p p p 1 ; @ ; ; ; : 1 d < 1 1 : 1 r h R R R R R R R R R R R R R R R R R R R R h g u < $ + & < < y 1 1 1 1 : 1 1 1 1 < 1 1 1 1 1 1 < < < & + @ ; 1 1 1 1 1 1 1 1 1 1 1 1 1 1 1 1 1 1 1 w w 1 1 1 1 q w g u u 1 u y + O 1 ] J : ; ; @ # o $ y d l z g ; $ = 1 p a J V J R J J a R R ! ! R a R R R a a R R R h a R R R E R R R R 9 R R R ! R R R a a a a R ! R h R R R R R R R R Q ! ! h 8 8 1 & # o X . o ; 1 1 1 g g g g 1 1 1 < s < & < < ; d d < < ; < ; ; ; < < < < < < ; < < < < 1 < 1 y 1 < 1 < < 1 1 y 1 1 < < < < < < < ; < < ; ; ; 1 1 8 w 1 8 9 | .X{.S 9 1 d d d < 1 u 1 u y < ",
"< < < < < & & & & & & & < < < < < < < < < & & & & < < < < < < < < < < < < < < < < < < < < < < < < < < < q q < < < < < < < 1 R ( ( 9 8 1 1 1 ; < 1 1 g c s.s.2.s.l.j./ / k.l.2.g 1 1 1 1 d d w w 1 w g 8 V ' q.' 9 w e 8 p 8 e e e r r e w e 8 1 - - p p u p p p g e e 8 p p g g p p a g g g 1 : < 1 g g g g g g g g u 1 < < 1 g p g g g a a 8 V ) @.K : < < < < q q q ; = 1 d u 8 8 p p p u u d < = ; 0 e 8 : q d y 1 1 w g h J R R J J R R R R R R R R R R R h R R J h h u & # @ & ; 1 1 1 1 1 1 1 1 1 < < < 1 1 1 1 1 1 < < < & + @ < 1 1 < < : , 1 1 8 1 1 1 w 1 1 w 1 1 g g 8 1 1 1 w q w 8 1 1 y y < o O 6 ~ a < & & + @ O ; 1 g z g 8 8 1 > 1 p a a R ! R J J R R R R R J a a a h a a h a R R R R a a R R R ! R R ! R R R R E J J a a R ! R R h R R R J a R R R Q R ! h 8 1 @ o o . X X o $ y u 1 1 1 y g u y < < d < ; < < d y < < < < < < < < y < < & & ; < < < y u d u y < < < < y y < < < y y < < < < < < < ; < < & < ; < 1 g d d 1 8 N %.#X{.C 8 y 1 < ; < 1 1 1 y y ",
"< ; < < < & & & & & & & < < < < < < < < < & & & ; < < < < < < < < < < < < < < < < < < < < < < < < < < < < < < < < < < < < 1 J E E 8 1 1 u 1 < < < 1 w h ^ s.^ h ^ s.j.z.c.l.^ g 8 1 1 1 d 1 w w 1 w e 8 V ' q.) 9 0 e 8 g p g g p 8 r e g g g 1 : : , 1 u p p p g r e 8 p p p g p p a g g e 1 : : 1 g g g g g g g g u 1 < < 1 g p g g g a a 9 J $.*.K : < < < < < q q ; = : d u 1 8 u u u y d d 1 ; e j.H.d.r d d < 1 1 g h h J 9 J J J R R R R a J J J J J h h R R J a h y $ o + & < 1 1 1 1 1 1 1 1 1 < < < 1 1 1 1 1 < < < & + O & < 1 1 1 1 1 : 1 g e e g g 1 1 : 1 1 1 8 g p 1 1 1 w 1 1 8 8 u u y & o O 8 / 9 ; # @ @ @ & d g h h 8 p z h < < 1 , 9 E E R J J J J E R R J R ! R R R h h h a a a a R R a R a R R R ! ! ! ! R R R R J J R R R h a 9 R R h a 9 a 9 a h ^ g 1 ; O # o . . . o & y d 1 1 1 y d u 1 ; < < < < < < < < < ; < y < ; < < < < < & & < < < < d d d y < < < < y d < ; < < < y < < < < < y < ; < < < < < q 1 1 < < : 1 6 I ]..X@.V 8 1 1 1 < 1 : : < < ",
"1 < < < & & & & & & & & < < < < < < < < < < & & ; < < < < < < < < < < < < < < < < < < < < < < < < < < < < < < < < < < < < 1 a K J 8 : < u y < ; < 1 1 g c ^ c r k s.d.c.b.j.^ g g g 1 1 d 1 w 1 1 1 8 8 9 ' &.` r 0 e e g g g g 8 8 8 g d d d u u 1 1 1 u p p , g r 8 8 p p p e p p p g p 1 1 : : 1 g g e g g g g g u 1 < < 1 g p g g g a a 9 R &.*.E : 1 < < < < q < ; = : d 1 1 1 1 1 y y 1 1 : 1 j.CXJXU.k w d 1 1 1 e g R J J R J R R R R R J J J J J R h h J J a a h y + o @ < 1 1 1 1 < < < < 1 1 1 1 1 1 1 1 1 1 < < ; & + + & s < 1 1 d 1 1 p g g g g g w 1 : 1 e 8 8 g p p p p e 1 1 8 p u u d & o O h / - $ @ # @ & q l g p h p h z h < > > : a R F J R R J R R J R J R ! a R R h h R a R R a a a a a a R ! J R R ! ! R R ! R R ! h h h 9 9 h R h a a a h g g g h g < o o # o o . o o & < y d 1 1 1 < y < < < < < < d d < d y < y y < y y < < < < & < < < y < < y y < ; < < < < < < ; ; ; ; < < < < < < < ; ; < ; < s y q < ; & ; < d 8 7 U  X.X+.V 9 1 1 < < 1 < < ; ",
"1 < < < & & & & & & & < < < < < < < < < < ; ; ; ; < < < < < < < < < < < < < < < < < < < < < < < < < < < < < 1 < < < < < < 8 J J J 1 < < y y < < < 1 1 1 h h g w g g k a.s.s.k 8 1 1 1 1 u 1 1 1 1 1 8 8 9 ` $.` 9 1 e g r r e e p u u u y y 1 , 8 8 1 1 u p h h p 8 8 e p p p e p p p g p 1 : : 1 e g e e 8 g g g g u 1 ; < 1 g g g g g a a a J &.*.J 1 1 1 < < < < < ; = : d 1 1 1 1 < y q < < : ^ mXLXPXCXd.g d 1 1 1 8 h R J R R R R J R R R R R R R R R h h a a a a p < + O & < y 1 1 1 1 < < < 1 1 1 1 1 1 1 1 1 1 < < ; ; & $ & < < 1 d d u u g g g g g g d w 1 w g g 8 8 p p p p 8 8 8 8 p p p y % o = ! ! = $ & @ < < 1 g p , p g g 8 8 < ; ; 6 9 9 R R J E E R J 9 J R ! R a a R a a R R R ! ! a R ! ! ! R R R a 9 R ! R R R h R R h h g 9 a h R h a h h h g p g 1 < + o + o o o o o o & d u y < < y 1 d < y y < ; y y < < < < < < < < < < < < ; ; < < < < < < < < < < < < < < ; & < < $ ; < < < < < < < < ; < < < < y < < & & < < 1 d 1 2 m ;.@X.XU 5 8 1 y 1 1 1 1 1 ",
"1 < < < & < < < & & & < & < < < < < < ; ; < < < & < < < < < < < < < < < < < < q < < < < < < < < < < < < < < < < < < < < 1 8 J J 9 1 < < y 1 ; < < 1 1 p g g u d d w g ^ s.s.^ g 1 1 1 1 d w 1 1 1 w e 8 8 E ' ` h 8 e g e e e 8 d y u u y 8 9 C I E 9 1 1 g h g 8 8 8 e g p p e 8 p p p p 1 < : 1 g g 8 8 8 g g e g u 1 = < < e g g g g a a a V $.$.J 1 y y y < < < < ; = < d u 1 < < < < < < ; 8 A.JXPXKXCXD.^ 1 , : 1 8 h R R R R R R J J J J R R R R R R h h a a h h 1 > + $ ; < 1 1 1 1 < < < < 1 1 1 1 1 1 1 1 1 1 1 < y < & & & < 1 1 1 u g h p p 1 1 w w 1 w g 1 g g 8 p g g g p 1 8 8 1 u p u < % o = ~ h - > < < d d 1 , 8 , 8 1 : 1 8 1 ; 1 9 V 9 4 r J L R J J a R R R R R R R h a R ! ! R R a a R E R J J R a a R R a R ! R R R 9 9 a h h R ! h 9 a h p g 1 1 < O o + # o o o o o o & y y 1 < < y y < < < y < < < 1 < > < 1 < < < < < < < < ; & ; < < < ; < < < < < ; ; < < < < < < & & < < < < < < < < < < < < < < < < < < y < y 1 g 8 2 I {.4X,.C 8 u u 1 1 1 1 u ",
"< $ < < & < < < < & < < & < < < < < < ; ; < < < & < < < < < < < < < < < < < q q < < ; < ; ; < < < < < < < < < < < < < < u 8 R R a 1 < < y < ; d y 1 u p p 1 1 < q q j a.f.s.c 1 1 1 1 1 u 1 1 1 d g e 1 8 R ` ` R 8 g g e e e 8 1 8 8 6 6 V U ;.,.y.U 9 8 g p 8 8 8 8 e g p p e 8 p p p 8 1 ; : 1 g g 8 8 8 8 g e g u 1 ; < 1 g g g g g a g 9 V ' $.9 1 y y y < < < < & $ < d u 1 < < < < < < : r L.KXKXGXNXQ.j.8 1 : 8 g R R J J R R R J J J J J J J J J R a h h a h h 1 $ + & < y 1 1 1 1 < < < < 1 1 1 1 1 1 1 1 : 1 1 1 d y ; $ < s 1 1 1 u h g u 1 1 1 1 1 1 1 g 1 1 e 8 p g g g p 1 d d d 1 u 1 & % o = ~ a : > u j d d p p h h j < < g g 1 ; < R E V 4 r h a a 9 R R R R R R R R R R a a a R R R ! a a R J R R E ! R h R R R R a h R a 9 g h h ! ! h a z p 1 h p 1 O o o o o + + o o o o & < < < < < y d y < > ; ; > < 1 < < y d y y y < y d < ; < ; & < y y s < < < ; $ & < < < & ; < & < < < < ; ; ; < < < y s < < < & < 1 < u u < < g z g : 2 U 1X@X+.4 1 u 1 1 1 8 g ",
"; & & & & < < < < & & & & < < & < < & ; ; & < & & & & < < < < < < < < < < < < < ; ; < < ; < < y y s < & q s s < < < < < : 9 R R 8 1 < < 1 < < < < 1 u u u y < < < d j x ^ c g 1 1 1 1 1 1 1 w w w 1 8 e 8 9 E ( J 8 8 g g e 1 4 9 ( ' U | =.).%X=X$Xy.I 9 g h p 8 8 r 8 p p p e 8 p p g 1 : 1 e 8 8 8 g g g g 8 8 g 1 1 < < 1 e e g p p a p a V ' ' 6 > 1 < y y < s q & & < y < > ; 1 1 u 1 1 : W !.GXAXCXY.!.D.h 1 : g h J J J J J R J J J J J R R J R a a 9 a h g h 1 ; $ + & < 1 < 1 1 1 1 < 1 1 1 1 1 1 1 1 < 1 1 1 u 1 y < ; ; < < 1 1 u g g g h g 1 1 < < : 1 1 e 1 , 1 p p g d u 1 < < s s y $ # X o - ` h 1 , p d u 1 p h h g g 1 < e 8 g d < 8 ` $.R h g a a h h 9 a R h a a a 9 a a a h ! R a R R ! ! R R R R R h h R R R a J R ! h h h h h h z z a h p p g g < & # + o o & < < & o o & < < < < ; < y d 1 < < < < < < y y u g d d y y y y < < < < < < < ; < < < < ; & < < < < < < < < & < y < < < < < < < < ; ; < & ; < 1 y 1 : < < u g p : - 7 ,.2Xi.K 1 : 1 g g 8 1 ",
"& & & & & < < < < & & & & < < < < < & < ; & & & & & & < < < < < < < < < < < < < < < d d q q < < < < < < < < < < < < < < 1 a R R 8 1 < < 1 1 < < < 1 y u d d y < < < d d g g w 1 1 1 1 1 u 1 1 w 1 1 8 w 1 9 E ( J 9 8 1 g g 8 V +.{.}.).`.oX%X=X=X=X$X+.N 9 p p 8 e e 8 p p p e 8 p p g 1 : 1 e 8 8 8 g g g g 8 8 g 1 1 < < 1 g e g p 8 p p a V ) ) 6 < 1 < < < < < < & & < 1 < ; < 1 1 p 1 1 1 g.VXCXT.C.3.V.J.s.8 1 p h h R R J J J J J J J J R R R R J a 9 h h h d 1 ; $ $ ; < 1 < 1 1 1 1 < 1 1 1 1 1 1 1 1 < 1 1 1 u 1 y 1 > ; < y : u g g d p h g 1 1 : 1 1 1 g 8 1 1 p 1 g g u 1 ; & & & & & + # . o , ` h e u u y 1 1 1 p p p h 1 1 8 8 g d < : V $.' 5 9 9 h g a 9 h h a 9 a a a h h a a h h a a a h h a R R a h a R R ! ! R h h h h a a a a p p h p 8 g g d 1 O + # o # + < d < & + o # & < ; ; ; < y y y < < < < < < y u d d y y y y < < < ; & < < < < ; < < < < ; < < < & < < < ; & < y s y < < < < < < < < < < & & < < 1 1 1 < < 1 u 1 1 : 4 S _..X$.9 1 1 d p 1 < ",
"& & & & < < < < < & & & < < < < ; ; ; ; ; & & < < & & < < < < < < < < < < < < < < j c v g w < < < < < < < < ; < < < < 1 8 a R h 8 < < 1 1 < < < < 1 y u d u d < < < < < w 1 1 1 1 1 1 1 1 1 1 1 1 1 1 w 1 9 E ( E a 8 1 p h a T }.wX;X;X9X9X%X).XX*X>Xy.S 7 8 g 8 8 e 8 p p g e 8 8 p g 1 : 1 e 8 8 8 g g g 8 e e g 1 1 ; < 1 w e g p 8 p p a V ) ( 6 < < < < < < ; & & & ; < < ; < 1 p p 1 1 1 j.CXNXz.Q F <.A.z.g 1 g h h R R J K J J J J J J R R R R a a a g h g 1 < & $ & ; < < < < 1 1 1 1 1 < < < 1 1 1 1 < 1 1 1 u u g y > ; < < 1 1 u 1 u g g p 8 1 1 1 1 g g 1 1 p g d u y 1 > $ @ + # + + # # o o 2 ` a 1 1 < < < 1 1 p p p h p g h 1 1 1 < < 4 ( u.U V 4 g g p p g h a h h h a h h 9 9 9 a h h a a a a a h h h a g a R h h h g a 8 8 8 , p 8 , p , u u 1 > $ O $ + # & ; < 1 < < @ o # & < ; ; < < < < < < < < < 1 y d d u 1 < 1 < < ; ; < & & & ; ; < $ ; < < < < ; < < < < < < ; < < y y < < < < < < < < ; ; < < < < < < 1 1 1 y < < 1 d 8 8 5 +.@Xi.N : 1 1 u 1 ; ",
"& & & & < < < < ; & & & < < < < ; < & ; < & < < ; & & < < < < < < < < < < < < < d c f.f.^ g d q < ; < < 1 1 < < < < < < p J R a 1 < < < 1 1 < < < 1 1 1 1 1 < < ; ; < < 1 1 1 1 1 1 d d 1 1 1 1 1 1 1 1 1 8 K ' ' J 8 1 1 p K %.$XrXtX0X9X*X-.| X.].*X@X| V 8 g 8 8 w p p p p e 8 8 p g 1 : 1 e 8 8 8 p g 8 8 8 8 g 1 1 ; ; 1 e e g p 8 p p a J ( K 6 < < < < ; & & @ @ + & < < < 1 1 p p 1 1 : s.NXNXC.<.3.V.F.j.e 1 p h a h R J J J J J J J J R R R R a a a p p u < & $ $ & < < < < < 1 1 1 1 1 1 < < 1 1 < 1 < 1 1 1 g p g u > > < ; 1 1 1 1 u g g g 1 1 1 1 g g g 1 1 g j g 1 < $ + + O + O O o o # # + 6 ` a : 1 y < ; < d g g p h h h j u u u : : : 9 t. XT 3 4 8 8 8 p 8 8 a a g h h h a 9 h h h h h p a g g g h p p p a p 8 p p p g p : : 1 g u 1 u u y > O O O + O $ < & < 1 < < < & o # & < ; ; < < < < < < < < 1 u u u u 1 < < < < ; < < ; & & & ; < ; ; ; < < < & ; < < < < < < < < y < < < < < < < < ; ; ; < < < < ; ; < < < 1 1 < ; ; d p 9 - M y.<X..5 1 < y < ; ",
"< < ; & & < ; & & & & & & < < < < < < < < < < < < < < < < < < < < < < < < < < 1 x f.x.x.d.g d s < < , p p p , < < < < 1 a R J 9 1 1 < 1 1 : < < < 1 1 1 1 1 < < ; < < < 1 1 1 1 1 1 u d 1 1 1 1 1 1 1 1 1 8 K ' 7.K 8 1 1 4 I t..XOX+XOX}.>.) K I @.OX$Xy.K 8 g 8 8 w p p p p 8 8 8 8 g 1 : 1 e 8 8 8 8 8 8 8 8 8 p 1 1 < < 1 e e g p 8 p p 9 K _ K 6 < < < ; & & + # # @ & < < < 1 8 p p 1 < 1 2.L.BX!.Y.NXmXJ.s.e 8 g h h R R J J J J J J J J R R R R R a a 8 1 < & + # $ < < < < < < 1 < 1 1 1 1 < < 1 1 1 1 < 1 1 1 g 1 u 1 > < y y 1 1 1 1 u 1 1 p e e g 8 1 p g p 1 u g u < $ O O O O $ > > $ $ $ + + 9 ` 9 1 u d y < < 1 g g 8 p h g q 1 d y 1 : ; - @.<Xq.I 5 8 1 8 g 8 8 8 8 h h g 9 a a h h h h a p p 8 g g 8 g p 1 p , : 1 , u 1 1 : ; < < ; > < < $ + $ # o # O > < > < d 1 1 s & . # & < ; ; ; < y < < < y y 1 u u 1 1 y y y 1 < < < < ; & < & < < < < < < < & & < < < < < < < < < < < < < < < < < < < < < < < < < ; < < ; ; < 1 : : < d g p 8 2 U {.;.V 1 < y y < ",
"< < < & & & & & & & & & & & & & & < < < < < < < < < < < < < < < < < < < < < < 1 a.v.n.n.d.h q < < , i J R J p 1 < < < 1 h E J 9 1 1 < y 1 1 < < < 1 1 1 1 1 < < < < < < < 1 d d y 1 u u 1 1 1 1 1 1 1 1 1 8 K ' 0.~ 8 1 1 5 ) y.*...+.+.U E R R E U {.qX{.I 4 g 8 8 d g p p 8 1 8 8 8 g 1 : 1 g g 8 8 8 8 8 8 8 e p 1 1 < < 1 w 8 p p 8 p 8 6 K ' K , > < < & & + # # # & & & < < 1 p p u q ; < c A.!.Y.F.!.!.A.^ 1 8 g a h R R J J J J J J J J R R R h h a p , < & o o # $ < < < < < < < < 1 1 1 1 1 < 1 1 1 1 < 1 1 1 g 1 u 1 > < y y < 1 < : 1 g 1 p g g g e 1 1 g p 1 1 1 < ; $ O o o ; u g p y y < + + 9 ` 9 , 1 p d y 1 1 1 u 1 : 1 w ; < y < = 1 : : .. X*.e.I 9 - 1 1 1 8 8 8 h h p 8 h a a h h h 8 8 p 1 1 8 1 d 1 1 u 1 1 : < 1 < < < ; & + & & & # + # # o o & u u > = : d d d s # . o & < < < ; < y > < 1 y y 1 u g 1 1 1 u d 1 y < < < < < < < < < y y < < < & + ; ; < y < < < < < < ; < d < < < < < < < < < < < < < 1 q < ; ; < 1 1 1 s y 8 p 8 V ;.i.( 8 < y y < ",
"& & & < < < & & ; ; & & & & & & & & & < < < < < < < & < < < & & & & < < < < 1 1 a.x.n.n.d.c d < : 9 J ( Y I a , < < < : J K R 8 < 1 1 < < < < < < 1 1 1 1 1 < < < < < < 1 1 1 1 1 1 1 1 1 1 1 1 p p u u 1 8 V ' 0.Y 9 , 6 U u.t.T V 9 J J R R h a C @.@X.X) 9 g 8 p p p p 8 8 8 g g e 1 1 1 1 e 8 8 8 8 8 g p 1 8 g u 1 < < 1 d p a g g 8 8 9 J ' E 1 @ & & + o o # # # & < < < < : 1 1 y < < < g x.D.2.r g.c.j.h 8 p h J J R J J J J J R J J J J a a h h p y < & # o o # & < < < < < < < < < 1 1 1 1 1 1 1 1 1 1 g p p p g 1 1 > < d y 1 1 1 : 1 g g g g 1 8 1 : 1 g g u 1 y < + + # # + d h h a p d y $ # 9 ( p u u 1 u 1 1 u < < < ; < < ; < < > < < < : +.t.' $.' ` R - ; ; q ; < 1 u u u 8 p h h p h p 8 1 8 1 8 1 < < < > < < $ ; & & $ + $ # # + & @ o # # $ O O u l u > < u u d y & # o o & $ < < y 1 < < < 1 1 1 1 u 1 1 g g 1 d u < < < & < < $ ; < < s y < < < + $ & < < & < ; ; ; < < y y u ; = ; < < < ; < < < ; < < 1 < 1 1 < < 1 1 y d d g 8 8 4 U p.' 9 1 y y u ",
"& & & & < < & & ; ; & & & & & & & & & < < < < < < < & & < < < < & & < < < < 1 1 a.x.n.x.d.c 1 1 8 J ( ) U I 9 1 < < < 1 J L R 8 < 1 1 1 < < < < < 1 1 1 1 1 < < < < < < 1 1 1 1 1 1 1 1 1 1 1 1 p i u u u 8 a ` 0.' 9 8 V @.i.%.K 9 g h h R R h h V ) [..X+.9 1 8 p p p 8 8 8 8 g g w 1 1 1 w e e 8 8 8 p g p 1 p g y < < < 1 u p a g g 8 1 8 J ' K 8 $ & & + o o # % # & < y < : : 1 1 1 < < < w a.d.h 4 W l.d.k e 9 a J J J J J J R R R R J J J a h l h y < & $ # # # + & < < < < < ; ; < 1 1 1 1 1 1 1 1 1 1 1 1 p p g p 1 < > < d 1 1 1 1 : 1 d 1 d p 1 p p 1 1 1 u u y < ; o o o $ < g h h a a g < # # 9 ' 8 1 y y y 1 u 1 < < < ; < < ; < 1 < 1 1 ; - +.q.I ` Y ' ] E g : O $ $ $ > > > < 1 g p 1 p 1 : : 1 1 u y ; & & + $ $ & < & # + # # # o o o & + O & < , i ! l < < 1 y y 1 y & o . X & ; < y d d < 1 u u 1 1 1 : 1 1 g h g d y < ; & & & < $ ; < < y < & & ; $ $ & < ; & < & & & ; < < < < < ; < 1 d 1 1 1 < 1 y 1 1 1 1 u y 1 < < < 1 u y g 8 8 : N $.' 9 1 1 1 u ",
"& & & & < & & & ; ; & & & & & & & & & & < < < < & & & & < < < < < < < < < < 1 1 ^ f.v.l.s.k 1 , 9 ` $.' U J 8 1 < < 1 8 J ~ R p < 1 1 < < < < < < 1 1 1 d 1 < < < < < < 1 1 1 1 1 1 1 1 1 1 1 1 8 8 u d u p 9 ` 0.' 9 9 I t.i.$.V r g h h h R R R F I t. X*.V 8 8 p p p 8 e 8 8 g g w 1 1 1 1 e e 8 8 8 p p p 1 1 d 1 < > < 1 u p a p p 8 1 1 J ' Y J 8 = & & + # $ & # & < y 1 : : 1 1 1 < < < 1 j k e r 2.x.s.x 8 9 h J R J J J J R R R R J J J a a p u < > & + # # % & & < < < < < < < < 1 1 1 1 1 1 1 1 1 1 1 1 p g g 1 : < ; < d u 1 1 1 : 1 u 1 d 1 1 p 1 1 1 : 1 u 1 ; + O + + ; d u p a i p y & # O J ' 8 < u y 1 1 y 1 y y < ; < < & y u 1 1 u < - +...K K E ~ E ` ~ a , = $ + $ & $ > > < < < < > > > < ; < ; $ $ + $ & + + $ + + + # % % # o + ; $ > u 8 a J a u O < y u d < < $ o . . % < < y d y 1 1 1 1 u 1 u : 1 g u u u 1 < ; & & & & < $ ; < < < < & & ; $ & & < < & & & & & & ; > > > < ; ; < 1 1 1 1 1 1 1 y 1 1 1 y 1 < 1 1 < < 1 < 1 : : : 6 K L 9 1 < 1 y ",
"& & & & < < & & ; ; & & & & & & & & & ; ; & & & & & & & < < < < < < ; & < < < 1 j ^ a.a.^ h 8 9 K $.%.Y J 9 8 1 < < 1 8 E ~ h 1 < 1 1 < < < < < < 1 1 1 d 1 < < < < < < 1 1 1 1 1 1 1 1 1 1 1 1 1 1 y d p g 9 E ' ) V S %.].t.( 9 g g h h h R R R R E +.i.t.K 9 8 p p g e e 8 8 e e w 1 1 1 1 e e 8 8 8 p p p p 1 d 1 < > < < 1 p p p 8 1 : - 7 ' ' 7.R , : > $ $ & & $ ; 1 1 1 1 1 1 y < < ; ; < 1 g g d.D.I.d.h 1 9 h J R R J J R R R R J J J h a p , < > < & + # # # & < < y < < < < < < 1 1 1 1 1 1 1 1 1 1 1 1 1 p u u < > ; < d d 1 1 < < 1 1 1 d 1 1 1 1 1 y 1 1 1 ; + O + $ $ < y u 8 8 8 , < $ $ $ E ..6 y u 1 < < y u y y < ; ; & & q y y u g 1 6 +.P J R E R J E J J R 9 , : 1 d < > O $ + + $ + + # & + & & $ & $ $ & & + O + & + # $ & & & & ; ; u g p h i , O o ; y d d < < $ o . . # < < y < < 1 < < 1 1 1 1 : u g 1 1 1 < > $ $ & ; < < ; < < < ; & & & & & & & & & & & & & ; < ; ; ; > < < < < 1 1 < 1 1 1 < 1 1 1 y y < < y y < < < > > = 1 1 - 6 J a < ; < y ",
"& & & & & & & & & & & & < & & & & & & < < < & & & & & & < < < < < < < < < < ; < d j x c h g 9 K ' %.T J 9 1 1 1 1 < 1 a E E a , < 1 < < < < < q < 1 1 1 d 1 < < < < < 1 1 1 1 1 1 1 1 1 1 1 1 1 1 1 d u p p 8 J ) +.U  .].]...R r r p g g g a R R R R I *.*.K 8 8 p p d w w 8 8 e e 1 1 1 1 1 e e 8 8 8 p p 1 u 1 d 1 < ; ; < 1 1 p p 8 1 : - N T ' 0.' a 8 , > > & < $ ; 1 1 : : 1 y y < ; $ ; ; ; q w a.b.H.s.g 1 8 R J R R J J J R J R J J h g g 1 > > > < & + # # + & < < y < ; < < < 1 1 1 1 1 1 1 1 1 1 1 1 u 1 1 u u ; $ ; < y d 1 1 < < < : : 1 1 1 d d y y d y ; + o & & + $ < u u 8 8 8 1 < O + 1 ' +.6 u u < 1 < 1 d y < ; ; < ; & * y 1 p p 1 9 q.T h a h h h R J R ~ R a a h h g < o o o o o o o o + # & + O $ $ O $ & $ $ $ + $ & & & & & & ; < 1 1 u u 1 $ o + ; < d 1 ; < $ # . . # < < < > > < < < : : 1 1 : 1 1 1 < 1 ; & $ $ ; < y < ; < < < & & & & & & & < & & ; & & ; < < < < < 1 1 < < < 1 1 < < < < 1 : 1 y y 1 > < y < > < < > < < w 1 ; = 9 g < ; < < ",
"& & & < & & & & & & & & < < < < & & & < < & & & & & & & < < < < & & & & < ; ; < q g j g g R I U %.' L 9 1 < 1 1 1 < , 9 K K 9 : < 1 < < < < < q < 1 1 d d 1 < < < < 1 1 1 1 1 1 1 u 1 1 1 1 1 1 1 1 q u p p 9 V | :.-.).@Xy.I 8 e 8 8 p p 8 9 h R R h V ' $.C 4 8 p p d w w 8 8 e e 1 1 1 1 1 g e 8 1 8 g 8 p d 1 u 1 < > ; < 1 8 p p 8 1 : 8 K Y K I Y J a i : = < < & < y 1 1 1 1 y < < ; > ; ; < ; ; d c ^ g 1 1 a R J J R J J E R J R J J h p p 1 > $ > > $ + # + & < < < y < ; < < < 1 1 1 1 1 1 1 1 1 1 1 1 1 1 1 u 1 ; $ & < y d d < < < < < < 1 1 1 d d u d d < & + o @ @ + ; y , 1 1 1 1 1 ; + O 8 e.@.9 1 1 1 1 1 1 < < < ; ; < < & < y 1 1 u , a &.( h 8 8 r g p h R R ! R R R R a 1 # o o o o o o o + # + # + $ $ + < & $ + & & & < < < < $ & < y ; > < & @ o o @ & < < ; ; < & $ o . # < y < ; ; < 1 < 1 : 1 1 1 < 1 1 < < & & $ ; < y y < ; < y ; $ $ & & & & ; < & & < & ; ; < < < < 1 y < < < 1 1 < < < : 1 1 1 1 y < 1 < < 1 < < < 1 < < q < 1 < O : p 1 ; ; < ",
"& & < < & & & & & & & & & ; < & & & & & & & & & & & & & < < < < & & & & & ; ; ; q q d e 8 R U @.$.Y 9 1 < < 1 1 , 1 8 a K J 8 : < < < < < < < < < 1 1 1 1 1 < < < < < 1 1 1 1 1 1 1 1 1 1 1 1 1 1 1 u u p p 9 V  .}.$X+X@X%.J 8 8 8 8 8 8 8 8 g g h h 9 K Y V 8 8 p p p g e 8 e e 1 1 1 1 1 1 e e 8 8 8 g p p d 1 1 1 < > < < 1 1 u g 8 1 1 a ~ K V J J J J a 8 = > < ; < y 1 1 < y 1 1 < < ; < ; < @ $ < e 8 1 ; 1 8 a J R R R R J R E E R R a 8 1 < > > ; $ $ + @ & & < < < 1 1 < < < < 1 1 1 1 1 1 1 1 1 1 1 1 1 1 u d < $ + & < y d y < < < < < 1 1 1 1 1 u y y < & + o o @ + & < u , p 1 8 u y & + $ 9 e.:.5 1 1 1 1 1 1 < < < < < < < ; ; < < 1 y : 9 w.( a 8 8 g g 8 8 g 9 a R R J a a g & o # + + + o o o # + & < $ < ; < < $ $ < & $ & < y y < & y d 1 y y + # . . # & < < < < y < $ o . & y y < ; < < < 1 1 : 1 1 d < < < < ; & & ; < 1 u y < < < < < ; ; & & ; & & ; & < < < < & & ; ; < 1 1 1 1 1 1 < < : 1 1 1 1 u u 1 < < < < < < < < < < < < < 1 < + = 1 1 > < < ",
"& & < < < < & & & & & & ; < < < < & & & & < & & < < & & & & & & & & & < & < ; ; & ; < 1 8 R $.%.T J 8 1 < < y 1 , 1 8 J ~ J 8 : < < < < < < < < < 1 1 1 1 1 < < < < < < 1 1 1 1 1 1 1 1 1 1 1 u 1 1 p u p p 9 V @.@X*XOXy.I a 8 8 8 g e 1 w d g r h h 8 R ( V 8 8 8 p p g 8 g g e 1 1 1 1 1 1 1 e 8 8 8 p p p u u 1 < > > < < u 1 u g e 1 6 J ` K a a a a a R a - = < < 1 y 1 1 1 y 1 y y 1 < ; < ; & & < g 1 : : 1 a J J R R R J J R ~ E E R 9 1 < ; < < < ; < ; & & & ; < < 1 1 1 1 < 1 1 1 1 8 , , 1 1 8 u 1 w 1 1 u 1 ; O + < < < y y < < < < < 1 1 < > < y < > $ $ + o # & + & y 1 , p 1 1 u < & # $ 9 u.].7 8 1 1 1 1 < < < < < < < ; ; ; < < 1 < = 9 w.K 8 p 8 h g 8 8 g 8 g 9 g g 9 9 g < + o # @ % # # + & + & & $ & $ & $ $ & < < $ & < < < & $ < < > u < < @ o o # & < ; > < d y & o . % < < < < < < < < 1 : < 1 y y < < & $ & < q q d d 1 < < ; ; < < < < & < & & ; < y < & & $ $ < < y 1 1 < < 1 1 1 < < 1 1 1 u 1 1 < < < ; ; ; < 1 < < < < 1 < < 1 ; $ > u u y < ",
"& & & < < < < & & & & < < < < ; < < < & & < < < < < < & < & & & & & & & < < < < & < < 1 p a ' ' K 6 : 1 < < < 1 1 8 a E ~ J 1 : < < < < 1 < < ; < 1 1 u 1 1 < < < < < < 1 1 1 1 1 1 1 1 1 1 1 1 1 8 p u d p 8 9 ) {.@X,.) a g 8 8 p g g u u d d e g R r R ( R 8 8 8 p p p 8 g g e 1 1 1 1 w w w e 8 8 8 g p p u u 1 < > > < < u 1 u w 8 1 9 K ~ J p g e a a ! R 9 - 8 1 1 1 < y y y 1 1 1 u u : 1 = > < y g d < > , a R J J R R K K K ~ E E R 8 : = ; < < 1 < y < & + & < 1 : : 1 1 1 1 1 1 1 1 1 , , 8 1 8 8 1 1 1 1 u 1 ; O @ < < < 1 d y < ; ; < < < > > < < $ $ & $ + @ & & @ & y 1 , p 1 1 u < @ o $ 6 t.(.7 1 1 1 1 1 < 1 < < < < < ; < < < < < $ O 8 7.K p p 9 a a 8 8 p g ^ 9 8 g 8 8 g y O O O $ $ $ < < y > > O $ & + < < & + $ & $ $ & & & @ + & ; ; y < < + o % # & < > > 1 d y & o . o & & < < ; ; < < < y 1 < < < y < & & ; ; < < 1 1 1 ; $ ; ; & < < < < < & & < < y < & $ + ; < y y 1 1 1 1 1 1 d 1 : 1 u 1 1 1 < < < < < < < < < < < < y d u y d y < > p u 1 y ",
"& & ; < < ; < < & & ; < < < < ; < < < & & < < < < < & & < < & & & & & & < < < & & & < < 1 a E E 9 - > < < < < 1 1 8 J ` ~ a 1 : < < < < 1 < < < < 1 1 u 1 1 < < < < < < 1 1 1 1 1 1 1 1 1 1 1 1 8 8 p u d p 8 9 ( *.;.) V 8 g 8 , g g u u u d d e a R g R ` R 8 8 8 p p p 8 g g 8 1 1 : 1 w w w e 8 8 8 p p 1 1 u 1 < ; > < < u 1 1 1 1 8 9 L E a 8 g g g h ! R a 9 h a 8 1 < < y y 1 1 1 g g g g < > > < u d < > , 9 R J J J J K K K ~ E E J 8 : ; & < < < 1 y s & + ; < 1 1 1 1 1 1 1 1 1 1 , , 8 8 8 1 1 8 1 1 1 1 1 < $ O & < < < 1 d y < ; > ; ; < ; ; < < $ + $ $ & & & & + & < 1 1 u 1 1 u < @ o + 6 t.}.B , 1 1 1 1 1 1 < < < < < ; < < < < 1 ; = 9 ' J p a a a p g 8 8 h h a a p 8 1 1 y > O O 1 y y u g u < > o & & + $ $ $ + + $ $ > & $ < ; $ $ ; < < & & o . % # & < < 1 1 y y & o . o $ $ & < $ < < ; < 1 1 < ; ; < < < < ; ; < < < < < ; $ ; ; $ < & < < ; & & y < < < < ; & < < < 1 y u d 1 < < < 1 1 d u 1 1 1 1 < < < < < < ; > < < < y g u < d d < $ y 1 < 1 ",
"& & ; ; & & & & & & < < < < < < ; ; ; & & & & & & & & & & & & & & & & & ; < < < & & < < 1 p a a 8 > > ; ; < < : 8 a R ` ~ 9 1 1 < < < < 1 < ; < < 1 1 1 1 1 < < < < < < 1 1 1 1 1 1 1 1 1 1 1 1 8 8 p u u 8 8 9 E Y I J 8 p p p 1 y d 1 1 1 d d g p a a J ` E 9 8 8 u g p 8 g g 8 1 1 : 1 1 w w 1 8 8 8 p 1 u u u y < ; ; ; < u u 1 1 1 8 J K R 8 8 8 1 8 g R R R J R a 9 : < y y < 1 1 8 g g g h 1 1 > > < 1 ; > 1 g R R R J R E K E ~ E E J 8 ; ; ; 1 u , 1 y < & + < < y 1 1 1 1 1 1 1 1 1 1 1 p p p 8 1 1 1 1 1 1 1 < $ @ < < < < 1 y < ; $ $ ; > < < ; ; ; & & $ & < < & @ + & ; < : 1 1 1 u < + + & 6 i.@XK 8 1 y y 1 1 < < < < < < ; < < < y u y > a 9.J p a a p p g p 8 g 9 a 9 8 g 1 < < > = 1 p h p p h u y y + & & + O O $ $ $ $ > < y 1 d d 1 > $ & & % + + o o # & < y d 1 1 y & o X o & + $ $ < < y < ; < < < & $ & & < < ; < < < < ; @ $ ; ; ; ; & $ < ; & & & < < ; ; & ; < < 1 y u y 1 1 < < < = < : 1 1 1 1 1 < < < < ; ; < < < < y 1 y u : < < 1 > O $ ; ; ; ",
"& & & & & & & & & & < < < < < < ; ; ; & & & & & & & & & < < < & & & & & ; < < < & & & & < u p p 1 ; < & & < < 1 4 a E Y K 9 : 1 < < < < 1 < ; ; < 1 1 1 1 1 < < < < < < 1 1 1 1 1 1 1 1 1 1 1 1 u p u y y 8 8 J E K a a p a p p d q 1 1 1 1 u p g p h h J ' ( 9 9 8 d d p 8 g g 8 1 1 : 1 1 w 1 1 8 8 1 p u u u 1 y < ; ; < < u u 1 1 : 6 J L a p 8 8 8 8 a R E E K K J 9 , 1 y < < 1 1 8 r g r g 8 1 1 1 u > > < 1 h R R R R R E E E ~ ~ E J 8 = ; < d g p 1 < ; $ $ < < 1 1 1 1 1 1 1 1 1 1 1 p g g p 8 1 1 1 1 1 d 1 = $ & s < < 1 y < ; ; $ $ ; ; < < < < < & & & & < < ; $ + & ; ; < 1 1 1 1 < + + & 2 ;.@XI 8 u u y 1 1 1 < < < < < ; < < < y 1 y : a ' J p p h p p h a 9 9 9 p p p g u 1 < > 1 p p h 8 8 h g g d < $ & & & < < & $ < < y d g h h h 1 = & & & < & o # # ; y d u u 1 y & . o o & $ $ & < < < < < < < < & & & ; < < < ; ; ; @ @ O $ ; < < < & $ ; & & < ; < < ; $ $ $ < ; < y y < > < < 1 1 1 : > < 1 1 1 : < < < < < < < < < < < < < 1 1 1 < < < + # & ; ; ",
"& & < < < & & & & & ; < 1 1 1 < < ; & & & < < < ; & & & < < < < & & & & ; < < < & & & & < u p 1 < < < & & ; < : 8 a R E a 6 : < < < < < < < < < < 1 y 1 1 1 < < < < < 1 1 1 1 1 1 1 1 1 1 1 1 u 1 8 u u d 8 8 J E J a h p h i p d 1 1 1 1 1 u p g p z h R ' ` V 9 8 d d p p p g e 1 1 1 1 1 1 1 8 8 8 8 1 1 1 1 u u 1 < & < < d u 1 1 , 6 K K a g 8 8 8 p p 9 J E ` ` ~ J 8 1 < $ ; < 1 8 8 8 g p 1 : 1 a a , = = : 9 a R J R R E E E ~ ~ E J p : < 1 d d u 1 ; $ + & < 1 1 1 1 8 p 1 : 1 1 1 p p g p p 8 1 , 8 1 1 d 1 $ $ ; s < > < y ; ; > $ ; < < < < y s < & & < < & ; < + + & ; ; < 1 1 1 1 < + & & - @.@XU 9 u u 1 u 1 1 < < < < < < < < < 1 1 > = R [ V 8 8 p g p h h i 6 1 1 1 : 1 p h 1 < d g g p p p h g g d y + O $ $ < y > O < y d y u h h h p , 1 1 y d < O + + < d y u d d y & . . o + & < < y < $ < y < < < < < < & + $ $ < < & ; & @ & < < < < & & ; $ & < < < d ; & & & & < < < < < < 1 y 1 : 1 < < 1 1 1 1 1 1 < < < < ; < y y < < y < < 1 1 < ; ; + + & ; ; ",
"& < < < < < & & & @ < , 8 p , 1 < ; & & & & & < & & & & < < < < & & & & < ; < < & & & < y p p 8 1 < & ; ; ; < < 1 p h a p 1 > < < < < < < < < < < y y y y y < < < < < 1 1 1 d u 1 1 1 1 1 1 1 1 1 8 8 8 1 8 8 J ~ J 9 8 p 1 1 1 u 1 u 1 p p u u g p a a J ( ( V 9 p g d g p 8 d d 1 1 1 p g g p p p p p 1 1 1 p p 8 1 ; & & ; < 1 < < : a K J a 8 1 1 8 p p 8 g h R ( ` J 1 < ; $ @ < 1 u p p p p 1 ; 2 ' 0.I 5 - - p R J R R R R E ~ ~ E J J a 8 1 1 1 1 1 < ; + # & < y u u u 1 1 1 1 1 1 : 1 1 1 p 1 , , 1 p p u y < $ & < 1 < < < 1 > ; ; ; < < < < y d y ; $ < < $ & < < & + & $ ; < y u e 1 < + # + - @.OX+.5 1 1 1 1 1 < < < < < 1 1 1 < y y u < - ! ` 9 9 6 8 g 8 8 p 8 8 1 1 8 8 8 8 p : $ ; 1 p p 1 g p 1 1 g 1 > = = 1 d d 1 < 1 d 1 1 u u 1 : 8 p h h z u > $ + $ < < 1 g g u < o .   . # ; < y y > $ < < < y < < < < < & & & & & & & & & & & & & & & < & $ & < < ; ; + & & y < y < < < < ; d 1 < < 1 < 1 1 < < < ; ; ; ; ; < < y < < < y < < ; < ; < < @ o o + & < ",
"& & < < ; ; & & & ; 1 8 p p , 1 < < & & & & & & & & & & & & & & & & < < < < < < & & & < 1 p p 8 1 < & ; < < < < 1 p g h p 1 < < < < < < < < < < < < y y y 1 < < < < 1 1 1 1 d u 1 1 1 1 1 1 1 1 8 8 8 8 1 8 8 J E J 9 8 e 1 1 1 1 1 u 1 1 p g g g p h a J ( _ V 8 p g d e 8 1 d d 1 1 1 g g p p p p 8 , 1 < < 1 p , 1 < ; ; < < < < < , a J J p 1 1 1 8 p p 8 g h R K E J 8 < ; @ @ < 1 u p p u 1 < ; 7 %.p.t.$.J 7 a R J J J R R R E ~ E J J a 8 1 1 1 1 1 < & + # & < y u u u u 1 1 1 1 : : 1 1 1 g p , 1 1 p p u y ; $ ; < < < 1 1 < < < < < < < < < < y y ; > < < ; < < & & $ & ; ; < y u 8 1 ; $ & ; = ..OX@.5 1 1 1 1 < < < < < < 1 1 < < 1 y u : - ~ ` a 9 p p p 8 p g p 1 8 8 p g g 8 8 : $ @ < g g p p p p p u u 1 : 1 d g g u 1 1 1 < < 1 u u 1 1 8 h h g 1 O o # & 1 > > u g d < # . . o & ; < < < ; < < < < ; & ; < < < ; & ; & $ & & & & & & & & & < & $ + & & & & ; $ ; & < < < < < < < ; 1 1 1 1 < 1 1 < < < = $ ; < ; ; ; ; < < < y 1 < < > < < < < @ o o # & @ ",
"& & < < ; ; ; & ; < 1 8 p p 1 < < & & & & & & & & & & & & & & & & & < < < < < < & & & < 1 p p 8 1 < & ; < < < < 1 1 p p u 1 < < < < < < < < < < < < y y y 1 < < < < 1 1 1 1 d 1 1 1 1 1 1 1 1 1 1 8 8 8 8 8 9 J R a 8 8 1 1 1 1 1 1 1 u 1 8 p g p g g 8 J ( ( J 8 p p p 8 8 8 u 1 1 : 1 p g p p p 8 8 , 1 < < y u , 1 < > > 1 < < < 1 1 a J a 8 1 1 1 8 p p 8 p g R J E E a : > ; ; 1 1 u p p , 1 ; = J %.t.%.q.$.K a a J J J J R R E E E J J a 8 1 1 1 1 < < & + # & < u , 1 u u 1 8 1 1 1 1 1 1 1 g p 1 1 1 p p u 1 ; $ < < < < y 1 < y y y < < < ; < y y < ; > < < ; < < & & & & ; < y y u 1 < & & & > = U OX>.V 1 1 1 1 < < < < < 1 y y < ; 1 u u < - ~ ! 9 9 p p 8 p g g 8 1 1 8 g 8 8 p p : O @ 1 g p 8 g g 8 8 g d 1 1 u d g d u 1 1 1 < > < 1 d 1 1 1 p p 1 ; o o o + < < < d u y < % X . X # $ < 1 y < & & < y ; & < ; < ; < < $ & & & & & < & & & & & & + + & & < & & < < < ; < y < < y < ; 1 < 1 u u < 1 1 1 < < < ; ; < ; ; ; < < < < < y 1 < ; < < < < + o o o # + ",
"& & & < < < & & < 1 1 8 8 u 1 < < & & & & & & & & & & & & & & & & & < & ; < < < & & & < y p p 8 1 < & < < < ; < < 1 1 u 1 < < < < < < < < < < < < < y y y y < < < < < 1 < 1 1 1 1 1 1 1 1 1 1 1 1 1 8 8 8 8 9 J J a 8 1 1 1 1 1 1 1 u u 1 8 p g p 8 e 8 V E E J p p p 8 8 8 1 u 1 : < 1 u d p p 1 1 1 1 1 u u u u 1 1 < > > < < < 1 1 u a a a 8 1 1 8 8 p p 8 8 a a 9 J R z p < ; < < 1 u u u 1 ; < 6 K ' K K Y ' K J h h J K K K K E E E E J a 8 1 1 1 < ; < & @ # & < 1 , 1 1 1 p p g 1 , , 1 1 1 g u 1 1 1 p u u < $ & < < < < 1 < < y y y y < < < < < < < ; > ; y < < < & < < ; ; < < y y 1 ; $ # $ u p U @X<XC 1 1 1 < < < < < d y y 1 < ; 1 u 1 ; 6 ` J 9 p h p 8 8 g g 8 : 1 1 8 8 8 8 p : $ @ 1 g p p p p p p p u 1 g g g 1 1 1 : 1 1 1 < ; < ; ; ; ; < < 1 ; # o # + < < < 1 < < ; # . . X o & < y < & $ $ < < ; < < ; < < ; < ; ; < & & & & & & & & & & & & & < < & & ; < < < < y < < 1 1 < y < 1 1 : 1 1 1 1 1 1 1 1 < < ; < ; ; < ; < y < < < ; < < < < & + o . o + ",
"& & & < ; ; ; & < : 1 1 1 1 < < & & & & & & & & & & & & & & & & & & < & < < < < & & & < 1 p p 8 1 < & < < < ; ; < 1 1 1 < < < < < < < < < < < < < < y y 1 < < < < < < < < 1 1 1 1 1 1 1 1 1 1 1 1 1 1 8 8 8 a J J 9 8 1 1 1 1 1 1 1 u u 1 1 p p p 8 8 8 r E E a 8 8 8 1 8 8 1 u 1 < < 1 u u p 8 1 1 1 1 8 p p u u < < < ; & < < 1 1 1 d p p p 1 1 1 8 p g p p 8 9 h 9 9 R R p < ; < 1 y u u u u ; = 9 ` K h 9 7 J R h g h R J K K K E E E E R h 8 1 1 < < ; < & @ # & < 1 1 1 1 u p g g p 1 , , 1 1 g u 1 1 1 u u u < $ & < < 1 1 1 < < < < 1 1 1 1 < < < < > < < < < ; < < < < ; ; ; < y y < ; & & + < l h U @X<XS 8 1 1 < < < 1 1 d y y 1 1 < 1 u < $ 9 ` R g g h p p 8 p g p : 1 1 8 g p 8 8 1 ; $ < 1 8 p 1 1 g g 1 d 1 g d d 1 : : : 1 u 1 1 < < ; ; ; < = < d ; # o o & < < > < > > ; + X X o # & < 1 < $ ; < < < < < ; < < < ; < < < & & ; & & & & & & & & ; & & < < < ; ; < 1 y < < < 1 < 1 y 1 1 1 : < 1 1 1 1 1 1 1 1 y y < < ; ; < < < < 1 1 < < < y < ; & & o . o + ",
"& & < ; < < < ; < : 1 1 < ; ; < & & & & & & & & & < & & & < < < & & & & < < < < & & & < 1 p p 8 1 < & < < < < ; < 1 1 < < < < < < < < < < < < < < < y y 1 < < < < < < < < 1 1 1 1 1 1 1 1 1 1 1 1 1 1 1 8 8 9 a a 9 8 1 < 1 1 1 1 1 u u 1 1 u u p 8 1 1 g E E V 9 9 8 1 1 8 d d 1 > > 1 u u u 1 1 1 1 1 , 8 8 1 1 < < < & & & < 1 1 1 d p 8 8 1 1 1 8 p g p p 8 8 a g 9 a R h 1 < 1 1 y u y 1 u < : J ` J r w - : 8 g h g h h R J J J E E E R h 8 1 1 < = ; < & @ # & < 1 : 1 1 u p g g p 1 , , 1 1 d u 1 1 1 u u y < $ & < < y 1 < < < < < < 1 1 y < 1 1 < > < < < < > < < < < < ; < y 1 y < ; & # + < j 8 S @X2XS 8 1 1 < < < d 1 < < y d d < u u > O 6 I h 8 8 8 p p p p p 1 1 1 p p g p p h p = $ < 1 1 p 8 p p p u u 1 < : : 1 < : 1 1 1 1 d d d < ; ; < 1 1 < & o o o $ < < > < 1 u y & X . . # & < < < ; < y < < < < < < ; < < ; ; ; ; ; & ; < & & & < < ; ; & $ & < ; < ; < y d 1 1 < 1 1 y u u d 1 1 d 1 < < : 1 < 1 1 < y < < ; > < < < y y < < y < < ; $ < & # . . o ",
"& & < 1 8 8 1 1 , , : < ; ; & & & & & & < < < < < < & & & < < < & & & & ; < < < & & @ < 8 g h p : < < < < < < < < 1 1 < < < < < < < < < < < < < < 1 y y y < < < < < < 1 < 1 1 1 1 1 1 1 1 1 1 1 1 1 1 1 p p i i 9 9 1 y d d 1 1 u 1 u u 1 1 u u u 1 1 e 9 C +.*.U m 5 w d u 1 d 1 : < 1 g d 1 1 1 : > 1 g p 8 1 : ; < < O O < y 1 1 : 1 1 1 1 1 1 1 8 8 p p p 8 8 8 1 1 9 R h 1 : 1 d d d 1 < > > , ~ ` J a h e - 1 a R R h h h J J J J J R J a 1 < < < ; < y & + @ + ; 1 1 1 1 1 1 p h g p u 1 1 1 u u 1 1 u d d 1 $ $ < < < 1 1 < < < 1 1 1 1 1 1 < > > > > < < < < < < < < < < < < < < 1 1 ; & + & 1 1 = Z 1X2XD 8 1 1 < < < > < < 1 y d d < , 1 < ; a ` h e 8 8 p p , p p 1 1 g g p 1 , p g g < $ < p p 8 8 g g g g g 1 : : u 1 1 g 1 < u d u y 1 < 1 1 ; 1 d 1 < # o o & $ > 1 d 1 1 $ # X . o + < < 1 < $ & ; ; < < < < < < < ; $ < < < < ; ; ; < & & & ; < ; ; & & < & ; < < y 1 > < u y 1 1 y d < 1 1 1 1 1 1 1 d 1 1 1 < < < < < ; < y y < < y y < < y < < $ + # o o # ",
"& & < 8 i a a 9 8 1 : < ; & & & & & & & < < & & < < & & & & & < & & < & ; < < < ; & & < 8 a a p : ; < < < < < < < 1 1 < < < < < < < < < < < < < < 1 y y 1 < < < < < 1 1 < 1 1 1 1 1 1 1 1 1 1 1 1 1 1 1 p p i 9 8 8 1 1 q q 1 1 u u 1 1 1 1 d d 1 1 d e 9 U ;.}._.=.S 5 1 d u 1 1 1 1 1 g g u 1 1 1 : 1 p 8 1 1 : < < < $ > < y 1 : < 1 1 1 1 1 1 1 8 8 g p p 8 8 8 1 8 a a a 8 1 1 1 u u y y 1 : 9 ~ L a a h g ; 1 a R R R h h R R J J J R h a 1 : < < < 1 y & + @ + ; u 1 1 1 1 1 8 g g g g 1 1 1 1 1 u u u d d < $ $ < < < 1 1 < < < 1 1 1 < < < 1 < > < < 1 y 1 < < < < < < < < < < 1 1 < ; % + @ < 1 , B {.2X| 8 1 1 < < < ; ; < 1 y y d 1 u 1 > = R ` 9 1 8 p p 1 , 1 1 : 1 g d 1 1 1 , p p < O = 8 8 p 8 g p p h g 1 1 1 1 u 1 1 1 1 u d d d 1 1 1 1 < 1 u 1 < + o o # ; < < y u u < $ o . . + < < < < ; < < < < < < < < < < ; $ ; ; ; ; ; ; ; & & ; < ; ; & ; & & & & > > 1 d < > < < 1 1 1 1 1 : : 1 u 1 1 1 1 1 < < 1 < ; ; < < < y y y y < < < < < < < ; $ & & + . o ",
"& & < p J E J J 8 : < ; ; & & & & & & & & < < & < < & & & & < < < < ; & & < < < < ; ; : 9 a a p : ; < < ; ; < < < < < < < < < < < < < < < < < < < 1 y y 1 < < < < < < 1 1 1 1 1 1 1 1 1 1 1 1 1 1 1 1 1 8 8 8 8 8 1 1 1 1 1 1 1 u u u 1 1 1 u d 1 1 d e J $.{.*X=X+X,.I 9 u u : < 1 d u u g g 1 , 1 p 9 a 9 6 4 8 1 < ; < < < y 1 < < < 1 1 1 1 1 1 1 1 1 1 1 1 u u 1 p p a a i 8 1 1 1 u u y 1 6 a E J 9 p h g 1 1 9 R J J J J a a J J R R h p 1 < : 1 1 d < & o + @ < 1 8 1 1 1 8 8 g g g 1 1 1 u 1 1 u d 1 u y < $ & < < < 1 1 < < < 1 1 1 < < < y < < 1 1 1 y 1 1 < < < : : 1 1 1 1 1 y < & % o @ ; < 1 B i.7X .8 1 1 < < < < < < 1 y y 1 d 1 < > = E ` 9 1 8 p p , 1 1 : : 1 1 1 : 1 1 1 p g < $ < p p p p p p p g u < 1 g 1 u u 1 1 1 1 u u p 1 1 1 1 : 1 u 1 ; + o o o < d < 1 d u < & o . o + < < < 1 < < 1 1 : : < < < < < < ; < < ; ; ; ; ; & & < < < ; & < < & & & ; > d d < < < < 1 y 1 1 1 1 1 1 1 < < < < < ; ; < ; ; ; < < < y < < y y < < ; ; ; < ; ; & & % . o ",
"& & < p R ~ E J 8 : < ; & & & & & & & & & < & & < & & & & & < < < < < & & < < < ; ; < 1 9 a a p : < < < ; ; ; ; < < < < < < < < < < < < < < < < < y y y < < < < < < < 1 < 1 d u 1 1 1 1 1 1 1 1 1 1 1 1 8 8 8 1 1 1 1 1 1 1 1 1 u u 1 1 1 1 u d w d g g J +.}.*X9X9X*X>.K 9 , : : 1 u g u p p , , p h R R J K K V 6 - $ & y < < 1 < < < 1 1 1 1 1 1 1 1 1 1 1 1 1 1 1 1 8 p h a 8 : 1 p u y 1 > 6 L E a g p h h g 8 8 h R J J J h h a J R R h p 1 : 1 < 1 d < @ o + @ < 1 u 1 1 1 8 8 u u 1 1 1 1 1 8 p 1 1 u u y ; $ ; < < 1 1 1 1 < < y y 1 1 1 1 < < 1 y 1 y u d 1 < > < 1 u u u 1 1 1 1 < & o o @ ; = < 7 i.qX@.8 1 1 < < < < < < 1 1 1 1 d 1 < ; - E I r 8 8 , u p 1 1 1 1 1 1 1 1 , , , p p < O < 8 p p p p p p p 1 : 1 g u u 1 < 1 1 1 u u p u 1 1 1 1 < 1 1 ; + o . # < d < 1 1 1 > # o X . # < 1 1 1 < < 1 1 1 1 1 1 1 < 1 < ; < < < < ; ; ; < & & & < < & < < < & ; ; < y < > < < y 1 1 1 y y 1 1 y < ; = ; < < ; ; ; ; < < < < < < < < < ; < < ; ; < y < < < & + o o ",
"& & < 8 a R J a , < ; & & & & & ; ; < & & < & & & & & & & & & < < < < & & < < < ; ; < 8 a J J i : < < < < < < < < : < < < < < < < < < < < < < < < y y y < < < < < < < 1 < 1 d u 1 1 1 1 1 1 1 1 1 1 1 1 1 8 1 1 1 1 1 1 1 1 1 1 1 u 1 1 1 1 u u d w e e J @.{.XX+X8X8X$X;.B 9 1 : 1 1 p 1 8 1 , 8 h h R R E ' 0.$.C 6 = & < < < < < < < 1 1 1 1 1 1 1 1 1 1 1 1 1 1 , : 1 g z J 9 : 1 p u < > = 7 L R g g p h z h 8 8 h R J J J h h J J R R h a 8 1 1 < < 1 ; @ o o & 1 d p 1 1 1 8 e 1 u 1 1 1 1 1 p p 1 1 g u < ; $ ; y < 1 1 1 < < < y 1 1 1 1 1 < < y y < 1 y 1 1 1 1 : : g d u 1 1 < 1 < @ o o @ ; < y 7 %.3X@.8 1 1 < < < < < < < < 1 u 1 < < ; , ~ ( r 1 , , p g p 1 u d 1 < 1 1 1 1 1 p g < $ < p p p g p 8 p 1 , 1 1 1 g 1 1 < 1 u 1 1 1 u 1 1 < < < < < < ; # o . # < y < 1 1 > $ # o o . o ; u u 1 < 1 1 1 1 p g 1 1 1 1 1 < < < < < ; ; ; < ; & & < < < < < < & ; < y < ; ; < < < < > > < 1 < < < < < ; ; < < < ; ; ; y y < < < ; < < ; > < < ; < y y y < < & + + o ",
"; & < 1 p 9 9 8 : ; ; & & & & & ; ; ; & & & & & & & & & & & & & & & & & & < ; < ; 1 1 h J ~ J 9 : ; < < < < < < 1 1 1 < < < < < < < < < < < < < < < y y < < < < < < < 1 < 1 1 1 1 1 1 1 1 1 1 1 1 1 1 1 1 8 1 1 1 1 1 1 1 1 1 1 1 1 1 1 1 u 1 u u 1 8 e J +.y.:.=._.+X=X@X;.J , : 1 g 1 1 1 : , p h h g a K ' q.t.+.K 9 = ; < < < < < < 1 1 1 1 1 1 1 1 1 1 1 1 1 1 1 , 1 g h a a 8 8 1 1 < > : V ` J p p p h z h 8 4 h R J J J J J a a R R h 8 8 1 < < ; < ; @ o # & 1 d p 1 1 1 8 8 1 1 1 1 1 1 8 p p 8 p u y < $ $ < y < 1 1 1 1 < < y y 1 1 1 1 < < 1 y 1 < < : 1 u u 1 : u 1 1 1 1 1 u < & X . @ ; 1 d 4 +.2X;.8 1 1 < < < < < < 1 1 1 1 1 1 < $ 6 ` E 8 1 8 u u 1 p 1 1 1 1 < 1 1 g g g g g < $ < g p p g 8 8 p , 1 u 1 1 g 1 < 1 1 u 1 1 1 1 1 < ; ; ; ; < < & # o . # < y < 1 u 1 < & o o . # ; 1 1 1 1 d u 1 p 8 1 : 1 1 1 d 1 1 < < ; ; ; ; ; < < < < ; y ; < < < ; ; y < ; < ; < < < < < < < ; ; < < < < < < ; < < ; < < < < < y < < < < < ; ; < < < < < ; ; & % o o ",
"< ; < 1 , , 1 < ; < & & & & & & ; ; & & & & & & & & & & & & & & & & & & & & * ; : 8 J K Y ' J 9 : < < 1 8 p p 8 1 : < < < ; ; ; < < < < < < < < < < y y y < < < < < < < < < 1 1 1 1 1 1 1 1 1 1 1 u 1 1 1 1 < < 1 1 1 1 1 1 1 1 1 1 1 1 1 1 1 1 1 1 8 8 J ' $.) S { :.@X*X@XX.K 4 1 1 1 1 1 : 1 a l a a a a E ' q.i.%.I 9 : ; < < < ; < 1 1 1 1 1 1 1 1 1 1 1 1 1 1 1 1 1 1 p a E J 8 : < , , , K ` a g g g g h h 8 8 9 a J J R J J h h h h a a 8 1 < ; > & & & # O ; 1 g 8 8 8 1 e 1 1 1 1 8 1 1 1 1 1 p g 1 < & + + ; < < 1 1 1 1 < < 1 1 1 1 1 1 < > < 1 1 < : 1 u 1 1 1 1 1 1 y 1 1 1 y < + X . o < w g 6 ) 2X>.4 1 1 < ; y < ; > 1 1 < : 1 < ; > 6 ` E 8 8 , p , 1 d u 1 1 1 d u 1 d d 1 1 1 < $ = 1 8 8 g p 9 9 8 p g 8 g g 1 1 1 1 1 d d 1 < 1 1 < < ; ; < < < + o o # < y < d y < & % o X o # < < 1 1 u g 1 1 1 1 1 < 1 1 1 1 1 < ; ; ; ; < ; < < < < < < < < < < < ; < < < < y < < < < y y < ; > < y 1 < < < < < < ; ; < ; ; < 1 1 1 < < 1 1 < < < < < ; ; $ & & & o + ",
"< < 1 1 < < < ; & & & & & & & & & & & & ; & & & & & & & < < & & & & & ; & & * q 8 J K Y T ' J 9 1 : 1 a J J J a 8 1 : 1 < ; ; ; q & < < < < < < < < y y y y < < < < < < ; < 1 1 1 1 1 1 1 1 1 1 1 u 1 1 1 < < < 1 1 1 1 y < < 1 1 1 1 1 1 1 1 1 1 1 p a a E ~ E V V U >.@X$XXX;.I 9 1 1 1 1 : 1 i l a 8 a a h ~ $.y.y.@.C 2 ; < s < ; < y u 1 1 1 1 1 1 1 1 1 1 1 1 1 < < 1 p a ` T E 4 : , , 9 Y T a h h h g g g 8 8 9 g h a R R a a a a a a g 8 , : < & & & % + O < 1 g 8 8 8 8 e 1 1 1 e e 1 1 1 1 1 d d 1 & + # & ; < < 1 1 1 1 < < 1 : 1 1 1 1 1 1 1 1 1 1 1 w u 1 1 1 1 1 u u y 1 < y ; # X X O 1 g g - I 3Xi.9 , 1 1 < y y < > < < < 1 1 < $ > 4 E R 9 8 , p u 1 1 1 1 1 1 d 1 1 1 q < < 1 < $ O < g 8 g g a 9 a g 8 8 8 1 1 1 1 1 1 1 d 1 < y u 1 < < $ < < < + o o $ < y y < ; ; & % o X o # & ; 1 u p g 1 1 1 1 d < : : 1 d < ; ; ; ; + @ ; < < < < < < ; < < < < $ < < < y 1 1 < > < y y < ; > y u u 1 < < < < < ; ; < < < < 1 1 1 1 1 1 1 : 1 < < ; & & & & & & + + ",
"< < < < < < ; ; & & & & & & & & & & & & ; & & & & & & < < < < < & & & ; ; & < 1 9 J I I Y Y K a 9 p g a J J J h a 8 8 1 1 < ; ; q & & < < < < < < < y y y y < < < < < < ; < 1 1 1 1 1 < 1 1 1 1 1 1 1 : : : < < 1 1 1 1 y 1 < 1 1 1 1 1 1 1 1 1 1 u d p a a h 9 r r V I @.{.$X@X].$.N : 1 1 1 1 u g 8 8 p h h R ( $.;.;.U 7 , < ; ; ; < 1 1 1 1 1 1 1 u 1 1 < < 1 1 1 < < < 1 a Y %.e.( 8 < , J ` I J g p h g g g p 8 9 a g h R R a p 9 a a a g 8 1 < $ & & & # + $ < d g 8 8 8 8 e 1 1 1 1 8 1 1 1 1 1 d u < @ o + < < < < < 1 < < < < 1 1 1 1 1 1 u 1 1 1 1 1 1 1 u 1 1 1 1 1 1 u y y < y & o X X & d g p - K 3Xi.9 8 8 g 1 1 y y < 1 < 1 w 1 & $ $ 9 ~ V 9 8 8 8 1 1 1 : : 1 1 1 1 < < < ; < 1 1 = O < g p g g a g h p 8 g 8 : 1 1 1 1 1 1 < < < 1 y 1 ; & + + & + # . . o & & < > > ; & @ o . o # < < y g g g 8 g u 1 1 < < 1 1 1 < ; ; < ; $ @ < y < < < < ; ; y < < y $ ; < < < < > > > 1 1 1 < < y 1 1 1 < ; > < < ; < < < < < < < < < 1 < < < < 1 d < ; $ @ < & & < @ + ",
"< < < < < ; ; ; & & & & & & ; & & & & < < < & & & & < < < & & & & & & & & < < 8 J E E K K K K J a a R J J a h g a a p u 1 < ; ; < & < < < < < < < < y y y y < < < < < < < 1 1 u 1 1 1 1 1 1 1 1 1 1 < 1 1 8 : 1 1 1 1 1 < < < < 1 1 1 u 1 1 1 1 1 u d 1 8 8 r 1 e e 9 N I +.}.$X$X{.$.5 , , u u u 1 1 1 p a a a J K ) %.%.K a 1 < ; ; 1 1 1 1 1 1 1 u u 1 < 1 < 1 1 1 < ; < 1 a K %. Xq.V - 6 ` ' C a g p 8 p g h g 8 8 9 a a R J a a 9 9 9 9 8 g 1 < $ & & & # + & 1 d 8 8 8 8 8 8 1 1 1 1 1 1 1 u 1 1 1 1 < + o & s y < < < < < < < < 1 1 1 1 1 1 u u 1 1 : < : 1 u 1 1 1 : < < y u u d < + o X + < 1 e 1 - C @X{.9 8 g g u 1 u u 1 1 1 1 w < & $ O 6 E 9 9 g 1 1 1 : : : : 1 1 u 1 < = ; ; < u 1 < $ < p g p p a h z g p g 8 1 1 1 < 1 1 < = < < 1 1 < & + o # # # o . X o # & $ ; < ; & + o . o + < y y u u 1 8 g d 1 1 < < 1 1 < < < ; ; < < < < < < < < < < < < < < < ; $ & < ; < < > < 1 1 y y < 1 < > > > < < < < < < < < < < < < < < < 1 1 1 < < 1 < ; $ @ < ; < y & @ ",
"1 1 1 < < ; ; ; & & & & & & & & & & < < < < & & & & < < < < & & & & < & < < , 9 J K K J J K E J a a a a a p 8 8 8 a a p 1 < ; ; & < < < < < < < < < < y y y < < < < < < < 1 u u 1 1 1 < < < < 1 1 : : 8 g a 8 1 1 1 1 1 < < < < 1 1 1 u 1 1 1 1 1 1 1 1 1 e g 1 d w e 8 9 K +.].@X$X{.I 7 8 , p g 1 1 8 p p 8 p h R K U %.` J 9 r 8 8 1 1 1 < < < y 1 y 1 < < < < 1 1 < ; ; 1 8 J ' {.]...3 N 0.' V a a 8 8 p g g g 8 8 8 9 h a a a a a a 9 9 9 g 1 < & @ & & # + ; y g 8 8 8 8 8 1 1 1 1 1 1 1 8 u 1 1 1 < ; O $ < s y y < < < < < < ; 1 1 1 1 1 1 1 1 1 : : < 1 1 u 1 1 1 1 < 1 y y y < < + o o & s d w 1 = N @X XV 1 8 g p , p p , 1 < < < < $ $ = 6 ~ J 8 g 1 1 1 : : 1 1 1 < 1 1 < = = ; 1 g 1 : ; : 8 g 8 p h h h g g g 8 1 d 1 < 1 1 < < < < 1 < ; + o . o o o . . o o $ & < < > > & + o . o + < < < : : 8 1 1 1 1 1 < < < < < ; < < ; ; < < < < 1 1 < < < y < y y < < + + ; < < y < y u 1 1 1 1 1 < < < 1 d y < < < < < < < ; < ; ; < < < 1 1 < < < < ; ; ; < ; < < < & ",
"9 a 8 1 < ; ; ; & & & & & & & ; & & < < < < & & & & & < & & & & & < < < < < 8 i J J a 9 V J ! h 9 9 9 8 1 1 < < 1 8 a g 1 1 ; ; ; < < < < < < < < < < y y y < < < < < < < 1 u p 1 1 1 < < < < 1 : : 8 R E J 8 1 1 1 1 1 < < < < 1 1 1 1 1 1 1 1 1 1 1 , , e g 1 g w 1 8 8 9 N ) >.@X@XO.U J 9 p 8 8 8 g g p 1 r h h R E ` I K E h.k./ g : < < < < < y < < < < < < 1 q q ; ; < 8 a K @.].(.{ D t.' a a a 8 8 g g g g 8 8 8 8 h a a a a a a 9 9 8 g 1 < & @ + % # + < d g 8 8 8 8 8 1 8 1 1 : 1 1 u d 1 1 y < > $ < y < y y < < < < < ; ; : 1 < < 1 1 1 1 1 1 1 1 1 1 u 1 1 1 1 1 y y y < ; $ o o + & d d w : = 7 }.<XV 1 1 1 p p g u : 1 < ; ; $ $ > = 7 ' K a 8 1 1 < 1 1 1 1 1 1 1 1 < = = < d g g 1 < : 8 p 8 p h g 8 g g g g 8 1 1 1 < < 1 < < < < ; & # o . o o o o # + + + ; y ; $ @ & # o . . + < < 1 1 > g g 1 < 1 d 1 ; < 1 < = < < < < < < < 1 1 1 < < > < < y < ; < $ $ ; < < y y 1 u u 1 1 u d y 1 y y y y < < < < < < q < < ; ; ; < < < < < < < < < < < < < < < < < ",
"K K 7 8 1 ; & & & & & & & & & ; & & & < & & & & & & & & & & & & & < < < < < 1 i J a 8 8 9 J ! a 8 : 1 1 < ; & ; < 1 p g u 1 < ; & < < < < < < < < < < 1 y < < < < < < < < 1 1 1 1 1 1 < < < < 1 : 1 V ` ' E 8 1 1 1 1 1 < < < < 1 1 1 1 1 1 1 1 1 1 1 1 1 8 p 1 g g 1 1 1 r r G U ;.}.}.].+.K 9 1 , p p g d 1 e g 9 h R J J ~ m.5XQ.F.g.8 1 < < < < < < < < < < < < 1 < & ; < 1 8 9 C >.@X[.].y.` 9 a g r 8 g g g g 8 8 8 8 g g 9 a a a a a g g g g 1 ; & + % # + < d g 8 8 8 8 8 1 8 1 1 : 1 1 u d 1 1 < < $ $ < y < < y < < < < < ; ; < < < < 1 < 1 1 1 1 u d 1 1 1 1 1 1 1 1 1 y y < < + o # & y d u 1 1 = 7 {.<XJ : 1 : u p g , > 1 < & $ $ $ ; - N $.U 9 1 1 1 < d 1 1 y 1 1 d 1 < = = < 1 g h 1 = < p p p 8 a p 8 g 8 8 g 1 1 1 1 1 < 1 1 < < < & + # o o # + o $ > u > = $ $ $ @ @ @ # . . o + d d u u , g g g 1 d 1 < < < < ; = < 1 < 1 u 1 1 1 < < 1 1 1 > y y < < < ; & ; < y < y 1 1 u d u u d 1 < y d y < < < < y < < q < ; ; ; ; < < < < < < : < < < < < < < < < < ",
"Y ~ 9 8 < & & & & & & & & & & & & & < < < < & & & & & & & & & & < & & < & < 1 p a 8 : 1 8 J J a , 1 < ; ; q q q < 1 1 g u 1 < ; & & & & < < < < < < 1 1 y < < < < < < < < < 1 1 1 1 1 < < < 1 1 - 9 Y 0.0.J 8 1 < < 1 < 1 1 1 1 1 1 1 1 1 1 u u 1 1 1 1 1 p p 8 8 p p p p g g 9 K $.>.}.$X.X@.V 8 p p i 8 1 1 8 8 a g g g 9 ] K.AXnXL.A.h : 1 < < < < < < < < < < < < < < ; < 1 1 r 9 ) [.*X*X{.) 9 a g g g g g h g g 1 1 8 g g 9 a h h a a 9 8 g g 1 ; & & & % + ; 1 e p p 8 p p g u u 1 1 1 1 d d d y < & $ ; < < < < < < < < < < < ; < < < : 1 < < < < 1 1 1 1 : 1 1 1 1 : 1 1 y < < ; o o o + y d 1 1 y < 2 (.<XK : < : 1 1 u < 1 < < ; O > $ @ - S i.+.5 1 , u < 1 1 1 1 1 1 1 < = = < 1 u g h 1 = > p g g 8 9 g g 8 8 8 8 8 g d 1 1 < < < ; < $ # # # $ o + $ = p p h p , = ; $ & o o + . . o ; d y d u 1 p 1 1 1 1 < ; < ; < < < d y y d d 1 1 1 1 u d 1 y < y 1 < y < < < O > y < y y 1 y u 1 u d 1 < 1 y y < < ; < < < < ; < ; ; < ; ; < < < < < d 1 < < 1 1 < > ; < < ",
"` R 9 1 ; & & & & & & & & & & & & & < < < & & & ; & & & & & < < & & & < & < 1 p p 1 < < 8 R J a , < < ; ; ; ; q < < 1 g p 1 1 < ; & & & < < < < < < 1 1 y < < < < < < < < < 1 1 1 1 1 1 < 1 1 1 8 V $.u.' 9 8 1 < < < 1 1 1 1 1 1 1 1 1 1 1 u u 1 1 1 1 1 u g 1 1 u p p p p g h J K T @.}.$X[.} B i p p 8 8 1 8 8 a g g g g g.L.BXL.S.D.^ : 1 1 1 1 1 1 < ; < < < < < < < ; < 1 1 1 1 V ;.*X=X[.U 9 a p 8 g u u g g g 1 1 8 g g p a h a a a a 9 g 8 < ; & & & % & ; 1 1 p p p 8 p g p 1 1 1 1 1 u u d y ; + $ ; < < < < < < < < < < < < < < < < < 1 < 1 1 1 < 1 1 1 1 1 1 1 1 1 y 1 < ; & o o o & y y 1 1 < ; - :..XK - ; 1 1 u d u y < + & & ; < - m -.2X:.N 1 , u > < < < < < < < = = < d g g g h 1 = > g g 8 , g h 8 1 8 g 8 8 p g 1 < < ; ; < $ + # o + $ O < d u p i R ^ ^ g = $ @ o + + . . o < 1 1 l u 1 : 1 1 1 1 < < < < < < 1 d 1 u d d 1 : u 1 y 1 1 1 1 1 < 1 y y 1 d 1 $ < < < < 1 1 > > 1 1 1 1 1 1 < < < < < < < ; ; < ; ; < = < < < < < < d 1 < < < ; ; $ ; y < ",
"J a 1 < & & & & & & & & & & & & & & & < < & & & ; ; & & & & < < & & & & & < 1 u p 1 ; ; 8 a a 9 1 ; < & ; < < < < < 1 8 p 1 1 < ; < & & < < < < < < < y y < < < < < < < ; < < 1 1 1 1 1 1 1 1 1 9 I 0.0.I 9 1 1 < < < < 1 1 < < 1 1 1 1 1 1 u u 1 1 < < 1 d u 1 1 u u p p p h a J J V I @.}.+X/.| J i p p 8 8 8 8 p p g d 8 / S.K.N.c.z.h : 1 1 1 1 : 1 < ; < < < 1 < ; & & < 1 1 1 : 3 ..$X8XXX| V a 8 1 d 1 1 g g g 1 : 1 8 g p g a a a a a a g 8 : ; ; & & & & ; d 1 8 8 8 8 p 1 1 1 1 1 1 1 1 1 u 1 & O @ < 1 < < < < < < < < < < < < < < < < < < 1 1 1 : 1 1 1 1 1 1 1 1 1 1 y < & @ o o o < y u 1 q y @ - ;.{.Y - ; 1 1 u d < u < + + $ - 7 S -.%X9XOXI 6 1 1 < : < < < ; ; < ; = 1 d j g g g 1 = > u g 1 1 h h 1 8 8 8 8 g 1 g 1 < < ; ; < & # # o o O $ g l u p ^ R J ! ^ g < $ @ & o . . o < < > d 1 u > 1 g 1 1 1 < = 1 d < 1 1 1 1 1 : : 1 g y 1 < < 1 u 1 1 1 < < u g y = > < ; > < 1 1 1 1 y y y u y < ; < < y < < < < < ; < < < 1 < < < < < < 1 < 1 < < > $ ; < < ",
"8 1 < ; & & & < & & & & & & & & & & & < < & & & < ; & & & & & < & & & & ; < 1 p p 1 ; ; 1 a a p < < & < < < < < < < 1 1 p u 1 < ; < & & < < < < < < < y y < < < < < < < ; ; < 1 1 1 1 1 1 1 1 8 J ' $.I a 1 < < < < < 1 1 1 < < 1 1 1 1 1 1 u u 1 1 < < 1 u u 1 1 1 u u g p h p a h h F ( @.[.XX{.$.J p p 1 1 1 8 p p p p 8 2.F.C.<.2.s.g : < < < < < < < < < < < 1 < ; ; & < 1 1 1 1 7 ..1X7XXX .C a 8 1 u 1 1 d d d : - , 8 a a a a a a a a a a g 8 < < ; @ @ & < d 1 8 8 p 8 8 u u 1 1 1 1 u y 1 y < $ O & < 1 < < < < < ; ; < < 1 < < ; < < ; < < < < 1 1 1 1 1 1 u 1 1 1 1 1 < ; & # o o + < u u 1 < < @ - :.@XT 2 1 : 1 y y y < < + O - K ;.XXtXzXhXwXe.J 6 > 1 < < < < < ; < < < 1 d u g g d 1 ; < 1 8 1 8 8 8 1 8 1 1 1 8 p u 1 : < 1 < ; & # # # O < u j g 1 p l z i i h g g 1 < + o o X # < < 1 1 1 y : 1 1 1 1 1 < = 1 u : : 1 1 1 < = : 1 u u u 1 1 < 1 1 1 1 < 1 u d y < > ; 1 < y y d y > 1 1 1 1 < ; ; < < < < < < < < < < 1 < : 1 1 1 1 1 ; < < < < < < ; < < < ",
"; @ ; ; & ; < < ; & & & & & & & & & & < < & & & < < & & & < < < & & & < < 1 1 p 8 : ; ; 1 a i , < & & & < < & & < < < 1 p d u 1 ; < < < & < < < < < 1 1 1 < < < < < < < ; ; < 1 1 u 1 1 1 1 1 8 K $.' V 1 ; ; < < < < 1 1 < < < 1 1 1 1 u u 1 1 1 1 < < 1 p p 1 u y u u p p g 8 r g g h R ( @.]..Xi.I i u 1 1 1 1 g p u 8 g j.U.V.W 2.s.g < < < < < ; ; < < < < 1 1 1 < ; ; < 1 1 d y 7 X.{.OX+X:.S 9 g u 1 1 1 d d y : = : 8 g a a 9 9 a a h R h h g u 1 < @ + & < d 1 8 8 8 8 8 p 1 1 1 u 1 1 1 y < ; + + & < < < < < < < ; ; < < 1 y < < ; < < < < < < 1 1 1 1 1 u u u 1 1 1 1 < & @ # o o @ < u u 1 < y & - ;.1Xq.9 1 1 1 1 y u > > $ : I ].=XhXlXhX7X<Xq.K i < q < < < < < < 1 < = < 1 u 1 1 1 < @ ; 1 1 1 8 p 8 1 1 8 8 1 1 p p 1 : < < < ; $ # % + $ y , < 1 d d , p a h h h h p : O o o X + < y y 1 u 1 1 g 1 < < d 1 < 1 1 < 1 1 1 d 1 1 1 : 1 u 1 1 1 < 1 1 1 1 < 1 u u u y > > < < y y d d 1 u d u < > ; < < < < < < < < < < < < ; < 1 1 1 1 1 ; < < < ; < < < d < < ",
"@ @ & & ; ; < 1 < & & & & & & & & & < < < & & & & & & & < < < < & & & < < 1 1 p 8 : ; ; 1 a 8 1 ; & * & < & & & * & < 1 1 g d 1 < < < < & & < < < < < 1 1 < < < < < < < < < < 1 1 1 1 1 1 1 8 9 Y +.E 9 ; @ < < < < < 1 1 1 < < 1 1 1 1 u u 1 1 1 1 1 1 1 p p 1 1 1 u p 8 8 8 1 e r 8 g g a K U p.B.U 9 y q q 1 1 u u u 8 8 s.J.U.x.l.d.w < < ; ; ; < < < < < < < 1 1 < ; ; < 1 < 1 y J q.,.(.+X{.U 9 g d 1 < 1 d d y > = 1 p h a 9 9 9 a h h h h h h g d ; + @ & < d u 1 8 8 8 1 u 1 1 1 u u 1 1 y < $ + + & < < < < < < < ; ; < < y y < < ; ; < < < 1 1 1 : 1 1 w 1 1 1 u u 1 y < & @ o + o & < u u d d d & - ;.@Xi.a u u 1 1 d u < $ > J ].=XtXkXtX`.@.S Y ' J : ; 1 1 1 < < < < ; $ = 1 d 1 < < ; @ ; 1 1 e g g 8 1 1 1 1 8 8 1 p : = ; ; ; ; o o $ > u h , < = < < < 1 h h a 9 8 , 8 : O O # + < < > < u < 1 1 1 = = 1 1 1 1 1 1 d g 1 > = < 1 : 1 1 > < u u 1 1 1 1 1 1 u u u d < = $ < d d d u < y 1 < > > < < < ; ; < < < < 1 < 1 1 1 1 1 < 1 1 1 1 < < ; $ < ; ; < y y ",
"& & & & < < 1 1 < ; & & & & & & & ; < < < < & & & & & & & & & & & < < < < < 1 1 u 1 < 1 8 g p 1 < & < < < < & & & & < < y d d u < < < < & & < ; < < < < < < < < < ; ; < y y ; 1 1 w 1 u u p 8 K %.%.J 1 < < < < < < 1 1 < < < < < < 1 1 1 u 1 1 u 1 1 < 1 1 1 d u p p p p 8 g g g g e g g a 9 J ` ] / p g d 1 1 1 < u u u 1 a.H.U.b.x.a.1 : 1 < < < < < < < < < < < < < ; < < < 1 , 1 ` *.) | }..X| 9 e , 1 1 y d d < ; > 8 h h a h h 9 9 a 9 4 h h h h g < o + s d 1 u u u 1 1 1 1 < 1 1 1 1 1 < y & # + ; < < ; ; < ; ; < < < < < < < ; < < ; ; < = d g 1 : : 1 w g 1 e g 1 1 < < & + o o @ ; < u d 1 j l < - } 1Xi.7 y y 1 1 1 > & O 6 %.oXtXrX$X<X*.H 5 3 E J : = 1 < ; < > > < < < < < < q d 1 < $ @ < g h p , 1 1 1 d d h 9 1 1 1 1 ; $ & + o O - 9 E ! g 1 ; = < = ; d : 1 a 8 , p 6.~ 6 = = < < ; ; 1 d d < < = ; < : 1 1 u 1 : 1 1 : 1 1 < 1 u u 1 1 y 1 < y 1 > 1 d 1 8 d 1 < ; @ ; d d : < < d ; $ ; < ; ; ; ; < < ; < 1 1 w u 1 1 : 1 < 1 < ; < ; ; < < < < < < < < ",
"& & & & < < 1 1 1 < ; & & & & & ; ; < < < < & & & & & & & & & & & < < ; ; < 1 1 y < < 1 8 g p 1 < < < < < < < & & & & < y d u u 1 < < < & & < ; < < < < < < < < < < < < y < ; ; 1 1 1 u u 1 9 T t.%.5 : < 1 < < q < 1 1 < < < < < < 1 1 1 1 1 1 1 1 1 1 1 8 1 d u p p p p p g g g g g g g g 9 9 a R R 8 g g u 1 u : u 1 1 1 c v.l.a.l d 1 1 1 < < < < < < < < < < < < < ; ; < < 1 : 4 ` *.) S :..X@.V 8 , 1 1 y d d < ; < 8 a a a h h J a 9 9 8 h h a g e ; O $ < d y u u u 1 1 1 1 < 1 1 1 1 1 ; < & # + < < < ; ; < ; ; < < < < < < < & < < ; ; < < 1 u 1 : 1 1 1 1 1 1 g 1 1 < & @ + o o & ; < d d g g g < = U 1X{.N y y < : > > & O B ].>X$X-. .+.) E r 2 9 E 9 = < < ; < < < < < < < < 1 1 1 1 u ; @ ; u p 9 1 8 1 1 u u p , : 1 < 1 < + + $ = 2 K ` E a r r 1 = ; ; + ; > , h p > 1 h ~ J , = < < > < d < < ; ; < < < < u 1 1 1 < : 1 1 u 1 1 u g d 1 < < < d y y 1 1 u < : u d < ; + ; < 1 < < 1 d < < < < ; ; < 1 < 1 < ; < 1 1 1 1 1 1 1 1 < 1 1 ; ; < < < < < < < ; ; ",
"& & & & < < 1 y 1 < ; & & & & & ; < < < < ; ; & & & & & & & & & ; < < & & ; 1 1 1 < < 1 8 h p 1 < & < < < < < & & < < < < u u u 1 < < < < < < < < < < < < < < < < < < < u < & ; < 1 8 u u 8 V +.u.$.4 ; < y y < < < 1 < < < < < < < 1 1 1 1 1 1 1 1 1 1 r 9 8 w u p p p p 8 p p g g g g g g 8 9 9 a 9 r p p p 1 1 1 u 1 < < j c x g < @ ; ; < < < < < 1 < < < < < < < < < < < < < : 7 ' $.K B } {.y.K 8 1 1 1 y u y < ; < 8 a a a h a R a 9 9 a g a a g e ; $ & < y u u u u u 1 1 1 1 1 1 1 1 1 < & + # + < < < < < < ; ; < < < < < < < & < < < ; < < 1 1 1 1 1 1 1 1 1 1 1 1 y < & + + o + & < < y u g g g < = A @X}.B < < ; ; > & $ - +.@X}.@.U _ ( I E R 8 J 8.! : ; < < < < ; ; 1 1 1 1 p p , , : < @ $ 1 p 8 1 1 : 1 1 < < ; > < > > $ o O , 7 Y 0.` R 8 h h g 1 1 < & & ; > 8 1 > = : 9 h p > < ; ; < y < = = ; 1 d < 1 d d d 1 : 1 1 g g p h g y 1 < < 1 y 1 < < < u 1 : 1 1 1 < ; + @ ; ; < < 1 < < < ; < < < 1 1 < 1 < < 1 1 1 1 1 u d 1 1 < < < ; ; < < < < < ; < < $ ",
"& & & & < < 1 y 1 < < & & & & & ; < < < < ; & & & & & & & & < & ; & & & & ; 1 1 < ; < 1 r R p 1 < & < < < < < & & < < < < y y 1 1 < < < < < < < < < < < < < < < < < < < 1 ; & & < 1 p 1 1 4 I *.q.I 8 < q 1 < < < < < < ; < < < < < 1 1 1 1 1 1 1 1 , 8 h R a 1 u u u p p 8 p p p e e g g g p 8 8 9 8 r p p 1 1 1 1 1 1 < > < ; ; q q & * < < < < < 1 1 < < < < < < < < < < < < < < V ' ) V V I y.i.E 4 p 1 1 y y < < ; < 8 h a 9 9 9 R a 9 9 h h h h h g : O ; d d y u u u u 1 1 1 1 1 1 1 1 < < & # # $ < y < < < < ; ; < < < < < < < & < < < ; < = < 1 u 1 1 1 1 1 1 1 1 1 y < @ # o o @ ; < 1 y 1 1 g g < = A }.}.N < < ; & * > - Z .X$X@.C E ` E E E J 9 6 h 6., < < : : : : ; < < 1 8 p p 8 , : 1 < = : 8 8 p u < 1 1 < < > $ $ O O O O 7 I q.0.` R ! R a a h g 1 < + & > = 1 ; + # O = 1 < $ & < < < < 1 = < < 1 < < 1 1 d u u g g , : 1 8 g p 1 1 < < 1 1 < > > < u < : : > < < < ; $ $ ; < 1 < < ; = = < < d d d 1 1 < < < < 1 1 1 < 1 1 y < < < < < < ; < < ; $ < < ; ",
"& & & & < < 1 y 1 < ; & & & & & < < < < < & & & & & & & & < < < & & & & & < 1 < < ; < 1 g R p 1 & & & < < < < & < < < < < 1 y 1 1 < < < < < < < < < < < < < < < < < < < < ; & ; < 1 g 1 8 V $.>.+.V 1 < < < < < < < < < q < < < 1 1 1 1 1 1 1 1 1 1 1 8 R E a 1 1 u u p 8 8 8 1 1 1 e 8 e g g p 8 8 8 8 u p 1 1 1 1 y y < < ; ; q d q @ ; < < < 1 1 < < < < < < < < < < < < < < < : J ' I 9 9 J +.p.' 9 g q 1 y y < & $ < 8 h a 9 9 9 a a a a h a R R h 8 1 O ; d d 1 , u u u u 1 1 1 1 1 1 y < & # # # & < y < < < < ; ; ; < < < < < < < < < < ; < < < 1 d 1 1 1 1 : 1 1 1 1 y < + o o o & q 1 1 u 1 1 1 d < = A }.OXV ; < < $ y 6 I ].3X}.C h R R ! ! J R 9 - 1 g 8 < 1 : , , , ; ; < 1 u p 8 1 : : 1 < > 1 8 8 p 1 : 1 1 u < > $ $ = = = 2 T p.t.Y J h R 9 a 9 h h g d < < > < < & o o # O O o o & < ; < 1 1 < 1 < < < < < < 1 < < g g 8 p g g g 1 1 1 1 1 1 < 1 1 1 d 1 < 1 1 1 1 1 < < ; $ = < 1 < d < ; < < 1 1 1 d d < ; ; < 1 d d 1 < 1 1 1 < < < ; ; ; $ < < ; $ ; < < ",
"& & & & < < 1 y 1 < ; & & & & & < < < < < & & & & & & & & < < < & & & & ; < : < ; ; < 8 a R p < ; & & & < < & & & < < < < < 1 1 y < < < < < < < < < < < < < < < < < < < < ; & ; 1 1 1 1 2 U ,.:.$.9 1 q ; < < < < < < < q < < < 1 1 1 1 1 1 1 1 1 1 1 8 E ` J 1 1 y u u 8 8 8 1 1 1 e e e g g 8 1 1 1 8 p 1 1 1 1 u y y y < ; ; 1 1 : - - 1 < < 1 1 < < < < < < < < < < < < < < < : J ( J 9 8 8 K u.' 9 1 d 1 y y < & & < 8 a a 9 a 9 9 a J a a a a a a 8 : > < y d u , u u u u 1 1 1 , 1 1 y < & # # # & y y < < < < ; ; ; < < < < < ; ; < < < < < 1 1 1 u 1 : 1 : : 1 1 < < s & # o . o & < 1 1 1 < : 1 1 ; = A }.}.N ; ; < > 6 T }.=X$X@.G 9 J J R R h R h 1 : = - 8 8 - 6 6 : < < < < y u 1 : : : 1 < > y d , , 1 g u 8 p u > $ O > 8 J $.y.t.` J R R J 9 9 8 g g g h u 1 < ; & # X . o o o . o & < < < 1 < 1 < = 1 1 < < < 1 : > g g p g 1 , p , = 1 1 u 1 < < u u d < 1 u 1 1 u 1 1 d < $ $ < 1 1 1 < = 1 1 1 1 1 1 < < < = < 1 1 1 1 1 1 1 < ; ; ; $ < < ; < < ; $ $ & < ",
"& & & & < < < 1 < < < & & & & & < < < & & & & & & & & ; & & & < < ; ; ; : : : 1 < ; < 8 R R 8 < & & < < < < < & & & < < < < 1 1 1 < < < < & < < < < s q ; ; ; < q < < < ; & ; < 1 , 1 8 C X.].>.I 8 1 < ; < < < < < < < < < < < < 1 1 1 1 1 1 1 1 1 1 9 E ' R 8 1 1 u 1 8 8 8 8 8 e e e g g 1 1 1 1 1 8 p p p u u u y y < < ; < : 8 9 I ( 9 1 < < 1 < < < < < < < < y < ; ; < < ; 1 J K a p 1 1 V ' [ J 1 < < < < < & @ < 8 a a 9 9 a a J R a a a a a h g : > y d d u u u u u u 1 1 1 1 1 1 < & & # o & y < < < ; ; < < < ; < < < < < < < < < < < < 1 u d 1 < : : 1 1 1 1 1 1 < & # o o + < < 1 1 y 1 : : 1 ; = D 1XOXN 1 < < - P ].%X=X].E a a a a a h h ! ^ g 1 = - I ' B 3 4 : 1 ; < < y < 1 1 < < < > < ; < 1 , p z h h p y < > > , K q.p.t.' R J R h h h a 9 p 8 g g 8 p g < & % % # o o o . . & ; < < < < 1 1 1 1 1 : < < 1 < = 1 , , g p , , = 1 y < 1 1 > < 1 u d d d 1 1 1 < 1 1 d < = = < < 1 < < < < 1 1 1 1 1 1 1 1 1 y < < 1 1 < < < ; < < < < < < < < ; $ ; < ; < ",
"& & & & < < < < < < < < & & & < < < < ; & & & & & & & ; & & < & < ; ; 1 8 8 1 1 < ; < 8 R R 8 < & & < & < < < & & & & < < < 1 1 < < < < < & & & < q < ; ; ; ; < < ; < < < & < y u 1 1 9 U ].{.$.V 1 < < < < < < < < < < < < < < 1 1 1 1 1 1 1 1 1 1 1 9 K ' R 8 1 1 u 1 1 8 8 8 8 e e e g g 1 1 1 1 1 1 p p p p p u y y < ; ; 1 : 9 ' p.i.T 9 < < < < q < < < < < < y < ; ; < < > 1 R R 9 p u 1 8 R ` a : < < < < & & @ < 8 a a 9 a a J R R a a a a a h p : > y d u u u u u u u 1 1 1 , 1 < < & # o # & y < < < ; $ < < ; ; < < < < < < < < < < < < 1 d d 1 < < : 1 1 1 1 y s ; + # o o % < 1 1 1 y 1 1 1 y ; = A 1X}.N = ; 2 B [.%X%XOX+.R h a 9 i a h h ! ! R p 8 9 $.<X{.*.U m 2 2 - - < 1 < < ; ; > > < & < < 1 p h p a p ; & > 6 K %.%...Y J 9 a R h h h a a g 8 8 9 p p h 1 ; & & + o o X . . & < < ; < 1 < 1 1 1 1 1 < < : 1 , 1 g p p g g 1 = 1 1 y u < u y 1 d u u y y d 1 < : < : < < = = < < 1 < 1 q 1 1 1 1 < 1 1 < < < 1 y 1 1 < < < < < < < < < < < ; ; ; < < ; < ",
"& & & & & < < < < < ; & & & & ; < < < < & & & & & & & & & & & & & & < 8 h h 8 1 < ; < 8 J J 8 < & & < < < < < & & < & < < < < 1 < < < < < < ; & < < ; ; < 1 1 1 ; & & & < ; < < 1 1 2 I ;..Xt.K 9 : < < < ; < < < < < < < < < < < < 1 1 < 1 1 1 1 1 1 9 K ' R 8 1 1 y 1 1 1 8 8 8 8 8 p g g 1 1 1 1 1 1 1 u p p p 1 1 < < ; & < , J e.4X$X:.C : < < < 1 < < < < < < y < ; & < < > 1 h a 8 u y < 1 8 R 8 : < < < < ; & & < 8 h a a a a R R R h a a a h a 8 : < 1 1 1 1 y y y y y 1 1 1 < 1 y < & o o $ < < < < < ; ; < < ; < < < < < < < < < < < < < 1 u 1 1 < < 1 1 1 1 1 y s & + # o o % < 1 1 1 y 1 1 w y & = Z }.}.B - - C :.wX=XOX@.K h h a a a g g h J J ! R R ` ) u.}.+XOX-. .{ S V 5 : ; ; ; ; > , u < > ; : 8 g 8 8 1 & $ - B 0.q.Y K J J J h g h h a 9 9 a 9 8 8 h p p 8 u < & & o . . . o @ & < < < 1 < < 1 1 1 < d 1 1 p p 8 h g g h g : < 1 y d y < u 1 1 d u y 1 1 1 < < : > : u 1 = $ < < < < 1 1 1 d 1 1 1 1 1 1 1 1 d y 1 1 y y 1 < < < < < < ; < ; ; < < ; ; < ",
"& & & & & & < < < ; < & & & & ; < < < < & & & & & & & & & & & & & ; 1 h R R a 1 < < 1 i J J 8 < & & & < < < < < < < < & < < < 1 < < < < < < ; < < ; < 1 k ^ ^ x d ; < < ; ; ; < < 1 7 $.t.y.' 9 1 < < < ; ; < < < < < < < < < < < < < < < 1 1 1 1 1 1 9 K ' R 8 1 1 u 1 1 1 8 8 8 8 8 p g p 1 1 1 1 1 1 1 1 1 p p 1 1 < < & & < < 9 *.$X=X$X| 7 1 : < < 1 1 1 < < < y < & & < ; > 1 g 8 8 y y 1 < 1 8 8 : < < < < & & & < p h a a R a R R R h a a a a g 1 < > 1 1 < < 1 1 y y 1 1 1 < < < < & # o + < < < ; < < ; ; < < < < ; ; < < < < < < < < < 1 1 1 1 1 1 1 1 u 1 1 y y y & # o o o % < < 1 1 y 1 1 1 1 $ = A OX[.K 4 m o.+X>X$X;.E h h g 8 p g p g g a a h R E ` [ ) | -.2X7X7X7X+X{.@.V 4 1 < < > u p > = 1 1 1 1 1 1 1 ; = 7 ..t.' R h h J J R 9 a a a 9 8 p 9 g g h p 9 8 g 1 < & o . . . o + & < < < 1 1 1 1 1 1 : g d 1 1 g h p p h g 1 = 1 1 1 y 1 < 1 1 1 y y 1 1 < ; < 1 1 : u g u = = ; ; = < < < 1 1 1 1 1 1 < 1 1 < y 1 < 1 u y y < < < ; < ; ; < ; ; < < < ; $ ",
"& & & & & & ; < ; ; ; & & & & ; < < < < & & & & & & & & & & ; & & < 9 J ~ E a 8 < < 1 p J J 8 < & & * < < < < < < < & & < < < 1 < < < < < < ; < ; < g ^ l.A.b.f.c d < s ; ; < ; < 8 C @.%.' a 1 y < < < ; ; < ; < < < < < < < < < < 1 1 1 1 1 1 1 1 1 9 K ' R 8 1 1 1 1 1 1 1 8 8 8 8 p p p u 1 1 1 1 1 1 1 1 1 1 1 1 < ; & & & > 2 +.+X;XrX}.P 7 1 < 1 1 1 1 < < < < < & & < ; > 1 g 8 1 < y < < q 1 1 1 < < < ; & & & ; 8 h a 9 R R R R R h a a a a g 1 = > < 1 < < 1 1 1 y 1 < < < ; < & & # o $ < < < < < < ; ; < < < < < < ; < < < < < < < < 1 1 1 1 1 1 1 1 1 1 1 < < < $ o o o X + < < 1 1 y < 1 1 < $ - P @X(.B N { XX=X$X,.C a a a 8 8 g g a 8 8 p g p a R K ` E E S >.}.%XyXtX=X$X;.I 7 - = = 1 u > > d g 1 1 < 1 u < - K u.t.E h r h h 9 9 9 a a g g g g 8 h h h 8 9 8 8 1 1 < o . . . o o & < < < y : 1 1 u 1 1 1 1 g p h h 8 p p u 1 : 1 > > < < 1 1 1 1 y 1 < < = ; 1 1 1 , g g u 1 < $ ; < 1 1 1 1 1 1 1 1 1 < 1 < < < < 1 1 < 1 < < < ; < < ; < < ; ; ; ; ; ; O ",
"& & & & & & & ; ; ; ; & & & & & < < < & & & & & & & & & & & & ; < 1 a K K K 9 1 < < 1 a R J 8 < & & * < < < < < < ; & & & < < < < < < < < < ; ; ; 1 a.n.Q.!.!.D.d.g < < < 1 u 1 1 9 T | ) r < < < < < < < ; ; ; < < 1 1 < < < < < < < 1 1 1 1 1 1 1 1 9 E ' R 1 1 1 , 1 1 1 1 8 8 8 8 p p p u 1 1 1 1 1 1 1 8 1 1 1 1 < & & & & < 8 H }.9XtX=Xy.I 8 < < < 1 1 < < < < < & & < & ; 1 p , < < y < < q < q < < < < ; & & @ ; 8 a 9 9 a R R R R h a a a a g 1 $ = 1 y 1 1 < < < < < < < < < & # o o O < < < < < ; < ; ; < < < < < < ; < < < < < < < < 1 1 < < 1 1 1 1 1 1 < < & & # o o . o % < < < 1 y < 1 1 1 O = A @X[.Z P ).8X8X{.T J h 8 9 8 8 8 a a 8 8 w g e 1 g R a J ` ` _ ) @.}.*X=XrXwX{.T 7 = + & & & < 1 8 p g d > : = 2 Y e.T J g 8 J a 9 9 9 9 a g p p a 8 g g r 8 8 1 : 1 g 1 O . . . o o + ; < 1 1 < 1 1 1 1 1 < 1 g p p 8 1 , : : 1 d < > < 1 < y u y 1 y 1 < > = < 1 1 u 1 1 g 1 d 1 $ ; d 1 1 1 1 1 1 1 1 1 u 1 < > > ; 1 < < > ; < < < < < < < < ; ; ; $ $ & $ ",
"& & & & & & & & & ; & & & & & & ; < < ; & & & & & & & & & & ; ; ; 1 a a a a 8 1 < 1 1 a R a , < & & & & < < < < & < ; & & < < < < 1 1 < < < & & < g l.Q.mXVXNXU.d.g < < 8 V J 4 4 9 ' Y V : ; ; < < < < < < < < < < < < < < < < < < < < 1 1 1 1 1 1 1 9 J ` R 1 1 1 1 1 1 1 1 1 1 8 8 g p 1 1 1 1 1 1 1 1 1 1 1 1 1 < < & & & & y r K ;.*X:X,X$X;.N : < < < 1 1 1 1 < < ; & & & ; y g 1 ; < < < < < ; < ; ; < < < < & @ = 1 9 9 9 a a J R R h a a a a p 1 $ $ 1 y 1 1 < < 1 1 < < < < & & # # # $ < < < < y < < < < < < < < < < < < < < < < < 1 1 1 1 < < < 1 < < 1 < < < & + o o . . o & < < < < < < 1 d < $ = D $X+Xo.(.=X9X+X+.K a l a 9 8 8 8 9 a p 8 1 g g 8 g h a a ~ ` E E ) ..;.}.qXyXqX].| 7 $ @ $ < u p p g g u 1 < O 3 $.w.J 9 9 a 9 8 8 9 a a 8 8 8 8 8 8 g g 8 8 r : < 1 1 1 $ o . . . o & < ; < y < 1 u 1 1 : = 1 1 u p 1 1 : > > < 1 < 1 d 1 > u 1 1 : 1 1 1 1 < 1 1 d g g p g u 1 < @ $ 1 1 < < < < < < < 1 1 < < < = > < < < < < < ; ; & < < ; > > & $ + + $ $ ",
"& & & & & & & & & & & & & & & < < < ; ; ; ; & & & & & & & & ; ; ; 1 8 8 1 1 < < < 1 8 g h a < < < & & < < < & & & & & < < & & < < 1 1 y < < & & < c A.!.BXBXNXU.j.h 1 4 C +...C 5 F ` E 8 < < < < < < < < < < < < < < < < < < < < < < < < 1 1 1 1 1 1 8 a ! h 1 1 1 1 1 1 1 1 1 1 1 p g u 1 < < 1 p u 1 u 1 1 1 < < < < & & & ; 1 g J U (.=XhX:XXXU 4 < < < 1 1 , 1 < 1 < & + + ; y d < < < < < ; ; ; < < ; < 1 y d < ; ; : 8 a J R a a a a a a h a a p 1 $ = < 1 1 < < 1 1 1 1 < < < # # # $ $ $ < < < < < < < < < < < < < < < < < < < 1 1 1 1 1 1 < < < < < < < < < < < & o o X . o # & ; ; ; < < < < < < ; - } $X=X&X9X0X%X;.( J a h a 9 9 8 8 8 p g 8 8 8 g g p p g g R ~ E ` [ ( ) +.y.@XOXXX}.U 8 O ; 8 8 g p p g p u = O N q.` g 9 8 8 8 9 a a a a g a 8 8 8 8 8 g 8 8 1 : : : : 1 < # . . . . % & > < u 1 1 d 1 1 1 , u 1 u u 1 1 1 > < 1 1 1 u p 1 1 1 : 1 < : 1 : 1 1 1 1 g g p g u 1 < < @ O < ; < q < ; > < 1 1 < ; < 1 : < < < < < < < ; & & < > $ $ $ $ O o O + $ ",
"& & & & & & & & & & & & & & ; < < < < ; ; & & & & & & & & & & ; ; < , 1 < < < < < 1 1 g h a < < < < & & < & & & & & < < < & & < < 1 1 1 < < & ; 1 a.J.mXNXVX^.I.j.! J ` @.y.t.) K E ~ J 1 ; ; < < < < < < < < < < < < < < < < < < < < < < 1 1 1 1 1 1 1 a ! h 8 1 1 1 1 1 1 1 1 1 8 p p u 1 < : 1 g 1 u 1 1 1 1 < < < < & & & < 1 h R V +.OXtXhXtX[.S - < < : < < y y y < & + + ; y y < < ; < < < < < < < ; < 1 y y < ; ; : 8 a J R a a a a a a a a a p 1 & = < 1 < < 1 1 1 1 < < < & # o # & < ; < < < < < < < < < < < < < < < < < < < 1 1 1 1 < < < < < < < < < < < < < & o o o . o # & ; < ; < < < < < < > - } *X:X:XhX9X-.S R h R h a 9 8 p 8 8 8 g p 8 p p p 8 8 a a h E ~ ] [ E ( ' U  .:.OXqX.XY = ; 8 8 g 8 , u u < O = J 0.K a J J a 8 8 a a a a g a 8 8 p g 8 p p 1 : - : : 1 1 y & o . . . # & < < u d 1 1 < : g p g u u 1 > < < < 1 1 1 1 1 1 g d : < 1 1 1 1 < 1 1 u 1 1 1 , 1 1 1 1 < ; $ ; ; ; ; < > < < < < < ; ; : : < < < < < < < ; & & < < $ $ $ & + o o O $ ",
"& & & & & & & & & & & < ; < < 1 1 < < ; < & & & & & & & & & & ; ; < : < < ; & & < < 1 p a 9 < < < < & & & & & < & & < < < & & < < < < 1 < ; & ; 1 s.U.!.!.!.U.D.g.` T %.].y.t.$.Y ` K a : ; ; < < < < < < < < < < < < < < < < < < < < < < 1 1 y 1 1 : 8 a h h 8 8 1 1 1 1 1 1 1 1 1 8 u 1 1 < : 1 1 u u 1 1 1 1 1 < < < ; & & 1 h z h R E @.+XiXhX&X=.3 : < : < < y u u < $ $ ; < 1 < < < ; ; < < < < < < ; < < 1 y < ; ; 1 9 a J R a a a a a a a a a p 1 $ = 1 1 1 1 1 1 1 1 < < ; & # # & < < < < < < < < < < < < < < < < < < < < < < 1 1 < < < < < < < < < < < < < < < & o o o o o # & ; < < < y 1 1 u < $ = D $XtXaXtXOX+.E h a a h p 8 8 8 8 8 g g p p p 8 8 8 8 9 8 h R J E E E E E ( Y U | [.4Xp.3 , p g g 1 > > > = = 1 E ` a a J J a p 8 p a a a a a 8 8 g g p 8 z p 8 1 8 g 8 e u ; # . . . # & < < 1 1 1 1 : 1 p p u u < > 1 1 > 1 1 y 1 1 : 1 g g 1 : 1 1 1 : : < : 1 1 1 1 : : 1 1 d 1 < ; ; @ @ & ; ; y 1 < > ; < ; > ; ; < < y < < < < ; & < < & $ $ & $ + o $ = ",
"& & & & & & & & & & & < < 1 u u u 1 < < ; & & & & & & & & & & ; < < < < ; & & & ; 1 1 p a 9 : < < & ; ; & ; & & & & & < < & < < < < < < < < & < d d.J.Y.Y.U.D.D.k.$.%.t.y.%.T Y ' ` J 9 : < < < < < < < < < < < < < < < < < < < < < < < < 1 y y 1 1 1 1 8 g R ^ c g 1 < 1 : : 1 1 1 8 u 1 1 < < 1 1 1 1 1 1 1 1 1 < < < ; & > 1 g h g g r S (.;XhX,XXXD 4 : 1 q < y u y < = = : 1 1 < < < ; ; < < < < < < < ; < < y y & ; 1 g a J J a a a a a a h a a h y $ > 1 1 1 1 1 1 1 1 < < & + # + & < < < < < < < < < < < < < < < < < < < < < < < < < < ; > < < < < < < < < < < < & o o o o o # & < < < < y < 1 1 1 ; = A $XhX,X+X@.E R h 9 8 g p p 8 8 p g p p 8 p 8 8 8 8 8 a p a h a J J R R h ! ! R N A .X#XI 6 i p , > $ O < $ = 6 ~ R 8 8 a a 9 9 8 9 9 a a a g 9 8 a g g 8 h p p 8 8 g g 8 1 > o o X . o & < < < 1 1 u : 1 1 , 1 1 1 1 1 1 1 y y < < > > 1 1 u 1 1 1 u 1 : < : : < 1 u 1 1 : 1 1 1 1 1 1 < O @ ; & ; y 1 < > & & & & & ; < < < < < < < ; ; ; ; & & & & & $ + = - ",
"& & & & & & & & & & ; < 1 , u p p y < < < & & & & & & & & & & < < < < ; ; & & & ; < , 8 a 8 : < < ; ; < ; ; & & & & & < < < < & < < < < < ; & & q a.z.A.D.D.D.A.N.&.t.t.%.K V K ` ~ 9 1 < < ; < < < < < < < < < < < < < < < < < < < < < < 1 y 1 1 1 1 1 8 h g.z.j.x q < < < : : 1 1 1 1 1 1 < < 1 1 1 1 1 1 1 1 1 < < < ; $ $ < 1 p 8 8 r V +.XX,XhX=X(.K 8 : q y y y < > = - 8 g < ; < < ; ; < < < < < < < ; ; < y y & = 1 g a J a a a a a a a h a a p 1 $ > < 1 1 1 1 1 1 y y < @ # + & < < ; < < < < < < < < < < < < < < < < < < < < y < < < > > < < < < < < < < < < < & o o o o o # ; : < < < < < u 1 1 $ = A *XhX%X=.I J R a 9 8 g p a 8 8 p g 8 p g 8 8 8 8 8 p a h 8 a h h a g g g g 8 h 6 2 | #Xu.K 6 p , = O O ; O = 6 R R h h h a 9 9 a 8 8 a a 8 g 8 a 8 8 g a p 9 8 8 8 p 8 8 1 > o . . . o $ < < < 1 1 1 1 1 1 1 1 1 1 y < 1 u u 1 < > < 1 1 1 1 1 < = u d < < 1 1 1 u d 1 1 : : 1 1 1 1 d < $ ; < < < < < < < & $ & & & & $ $ $ < < ; ; ; ; ; @ @ + + $ $ + + = 2 ",
"& & & & & & & & & & ; < y u p p p y < < ; & & & & & & & & & & < ; ; < < < & & & & < 1 p a 9 < < < & & < < < & & & & & < & < & & & < < < < ; ; @ q j 1.g.g.k.c.z.h.' %.$.E 9 8 9 E R 8 : < < < & < < < < < < < < < < < < < < < < < < < < < 1 1 1 1 < < 1 g ^ z.J.z.c q < < < : 1 1 1 1 1 1 < < < 1 1 1 1 1 1 1 1 < < < < & & & < 1 p p 8 g ! S o.&XhX:X=X .N - < y y < & $ = 2 a g 1 > < < ; & < < < < < < < ; > < 1 < & = 8 h R a a a a a a a a a a a p 1 $ ; < y 1 1 1 1 1 y y & # o + y s < ; < < < < < < < < < < < < < < < < ; < < y y < < ; > $ < < < < 1 1 < < < < < & o o o o o + ; < < < < < y u 1 d ; = Z +XrX(.S J J L a 9 r g a i h 8 8 8 p p p 8 8 8 8 g g , 8 p g p g p g g g g 8 p 1 = N  X.XU 6 8 1 = O O = ; : 9 a a J R a 9 , 8 8 8 8 a p 8 g a a 9 8 g g 8 8 8 8 g 8 8 1 1 ; o . . . o & < < < 1 1 d 1 1 1 1 y > 1 u 1 1 1 1 < < 1 d d u 1 < < = > 1 1 1 1 1 d d d u 1 1 < > 1 u d 1 d 1 ; $ ; < s < < < < & & & & & & > > $ < < & ; ; = ; @ + + O $ # o O - 3 ",
"& & & & & & & & & & < < u g h p u 1 < < ; & & & & & & & & & & & ; ; < < & & & & & < 1 p a 8 1 ; & < < & ; ; & & & & & ; < < & & & & ; < < < > = 1 g ^ ^ ^ ^ / 2./ E K E r 1 : 9 h g 1 < ; & & & < < < < < < < < < < < < < < < < < < < < < 1 1 < 1 < 1 1 h s.A.G.b.^ q < < 1 1 1 1 1 1 1 < ; < q 1 1 1 1 < < < < < & & @ + + & < 1 1 1 g g g E | [.rXiXhXOXA 5 1 1 1 y < = 6 R J 8 < < < < < < < < < < < < ; < < < < ; + $ 1 h a 9 9 a a a a a g a a a p > + ; 1 y 1 u 1 1 < < < & # # & ; < < < 1 > < < < ; ; $ ; < ; < y < < y y < < < y < > < < < < < < < 1 1 < < y < & & & # o o # & < : 1 < < y < 1 1 y $ - A OX7X@.( J J h a h 9 9 a a a p p p 8 8 8 8 8 8 g g 8 g p p p p p 8 1 8 8 8 p p 1 = 5 ) @X:.N - : - - - 6 J J 9 9 a a 9 a a 8 8 p a a p p p 8 a 8 9 8 a 8 h g 1 8 g 1 1 : 1 < + o . . . # ; y y 1 1 < : , = < 1 1 1 1 1 1 1 < < 1 d d < 1 : < : < < < 1 1 < < 1 d 1 < < : 1 1 1 < 1 u : 1 y ; $ $ & ; < > $ + + # & + < < < $ $ ; ; < $ $ ; ; @ O $ $ $ + = 2 Z ",
"& & & & & & & & & & < < u u p p u < ; ; < & & & & & & & & & & ; < < < < & & & & & < 1 8 a 8 1 ; & < < & ; < & & & & < < & & & & & @ ; ; < : , 4 9 h h k k k ^ ^ W r 9 8 w 1 : 8 g g 1 ; ; & & & < < < < < < < < < < < < < < < < < < < < < 1 1 1 1 < 1 : h j.b.z.j.x < ; < 1 1 1 1 1 1 1 < ; < 1 1 1 1 < < < < & < $ & @ + + & < < < 1 1 g e a E @.+XiXjX,X:.B 8 : > < & = 7 ` R 8 < < < < < < & ; < < < < ; < < < < ; + $ 1 g a 9 a a a a a g g a a a p > + ; 1 1 1 y 1 < < < & # # $ < < < < < < < < ; ; ; ; > < 1 < < 1 y y y 1 < 1 y y < < < < < < < < < 1 1 < < < ; & & & # o o # & < 1 1 1 y y y < < < = - { $X+X| K L J R h 9 9 g a p p 8 8 8 p p 8 8 8 8 g g 8 8 p p 8 8 8 1 1 8 p p a 1 ; = - K 1X3X .I K K Y $.0.u.%.Y J a 8 1 p p 8 1 8 8 p 8 a g 8 8 a 8 9 a a h p 1 1 8 1 1 : 1 < $ . . . o + < y < < 1 < 1 : = < 1 < < < < > < 1 > 1 u u < < < < < < < < < 1 < < < : < < < 1 1 1 1 < 1 u u d d < O & < $ < < + # + + @ + 1 c a.j ; @ ; < < < ; ; @ O + + + $ 2 B  .",
"& & & & & & & & & & < < y u d u 1 < ; ; < & & & & & & & & & & ; < < < < < & & & & < 1 8 a 8 1 ; & < < ; ; < & & & & & < & & & ; & & ; ; < 8 a J E R g e g j c c k e q 1 < : 1 8 g g d < ; ; & < < < < < < < < < < < < < < < < < < < < < < 1 1 1 1 1 < : h j.b.j.^ g < ; < 1 1 1 1 1 1 1 < ; < < < : < < < < & @ & + & & + + & < < < < 1 u u 8 g I (.;XjXiX$X .5 1 1 < > = V ' R , < < < < < < & ; < < < < < < < < < ; @ @ 1 g a 9 a a a a a a a a a p p > + ; 1 1 1 1 < < < < + # + & < < < < < < 1 < ; ; ; < < 1 y 1 1 1 y u u y < 1 u < < < < < < < < < < < < < < < ; & & & o o o # & < 1 1 1 y y y < = > O 2 o.6X}.A V J J ^ h 8 9 g g a i p 8 8 g p 8 8 8 8 p g 8 p p p p p p 1 1 p p p p < @ O = 7 i.3X@X Xp.q.%.X.%.y. Xe.K 7 8 1 8 p , - 1 8 p 8 g h g 8 8 g 9 9 g 8 8 8 8 8 1 1 8 u y & o . . o # > < y < y 1 : < 1 < > > < < < 1 1 < < < 1 1 = < 1 = = < < = ; ; ; ; > 1 1 < < < 1 < 1 < : 1 g d d y $ ; < $ < < $ o # @ O 1 x.H.n.v.j ; & < < < < ; $ O O O O - m } ).",
"& & & & & & & & & & ; < < y y y < < ; & < & & & & & & & & & & ; < < < < < & & & & < 1 8 g 8 1 ; ; < < & & ; & & & & & & & < ; ; ; < < < 1 p R ` ` E p 1 d j l x g d q q ; < 1 p h p 1 < ; ; < < < < < < < < < < < < < < < < < < < < < < < < < 1 1 1 : 1 g s.j.a.g 1 ; ; < < < < 1 1 1 1 < < < < < < ; & & & + O + $ & & $ $ & < y < 1 1 1 1 d g R | XXhXiX;XXXS 3 8 1 = , K ' J 1 < < < ; ; ; & ; ; < < < ; < < < < < @ @ : g a 9 a a a a a a a 9 a p p > + > 1 1 < < < & & $ + + & < < 1 < 1 1 < 1 < ; ; ; < < 1 1 1 < 1 1 y u y 1 1 1 1 1 y 1 < < < < < < < < ; < < < < & & # o o + ; < < 1 1 u 1 u < ; ; O 2 (.wX{.S 9 h a h g 8 r g a a a g p 8 8 8 8 p g 8 8 p 8 e 8 8 8 8 1 u p 8 8 p 1 & % + > 6 Y u..Xi.0.` K I ' U %.e.7.J p p p p p p 8 8 8 8 8 p g 8 a a 9 9 9 8 , p g 8 8 8 g g d < o o . . o $ < u 1 < < = > 1 > < < > < 1 1 1 1 1 1 < > > 1 < = < < < ; < = ; < < 1 1 1 1 1 1 1 1 1 < < 1 , 1 y < $ & & & & $ # o O O a.^.!.n.n.a.d $ & < ; < & $ + + O = 3 A (.oX",
"& & & & & & & & & & & < < < < < < & & & < & & & & & & & & & & ; < < < < < < & & & < 1 8 g p 1 ; & < < & & ; & & & & & & < & ; ; ; ; < 1 1 i J ` E J 8 < s d d l d 1 < ; < < 1 p a J i 1 < ; < < < < < < < < < < < < < < < < < < < < < < < 1 1 1 1 1 1 1 a ! z g w < < < ; < < < 1 1 1 1 < < < < < < $ + + & & + & < y y < > > y y 1 1 1 1 1 d g h C o.7X0XiX=X,.B 2 < > 6 K ' a 1 < < < ; ; ; & ; ; < < < < < 1 < < < & @ : 8 8 9 g a a a a a a 9 9 8 p > + > < < < < < & & # + $ & < < < < 1 1 1 1 < < < ; < < 1 1 1 > < < 1 y y < < < 1 u u y 1 < < < < < < < ; ; < ; < < & o o o + ; < < 1 1 u u u y < & = 3 [.qXy.C r g g a r r r 9 8 a a g p 8 8 8 8 g g 8 8 8 8 1 1 8 8 1 : p 8 8 1 < & o o + ; : 9 K ( I I R J ` ] E ( ' 9.~ h p 1 , , 8 p 8 8 g 8 8 g h g h g a a a 8 p 8 8 p a g p g < o o . . # ; < < 1 < 1 > 1 1 1 < < < < 1 1 1 , > 1 u 1 1 < < 1 1 < < 1 < < < 1 1 : : 1 d 1 1 < 1 y 1 1 1 1 < < ; O + & & & $ # o O g !.!.A.b.W.f.c ; & $ > ; $ + + + = 2 Z O.oX=X",
"& & & & & & & & & & & & < < < < & & & & < & & & & & & & & & & ; ; < 1 < < < & & & < 1 1 h p 1 ; & < < & & < & & & & < & < < < ; ; & ; < : 6 a R a 8 : < < < y u u 1 < < y s 1 p J E i 1 < ; ; < < < < < < < < < < < < < < < < < < < < < < 1 1 1 1 1 1 , a R p 1 < < 1 < < < < < 1 1 1 : ; < < < < < $ $ $ ; ; ; < y d d y > > u u u 1 1 1 1 p p p V I ,.8XiXtX*X@.N , : 9 I Y 9 1 < < ; < < < & & ; < < < < < 1 < < < & & : 8 8 a g a a a 9 9 8 8 9 p p = O > < < < < & & # o + < < ; < < < 1 1 1 < < < < < < < < 1 < > > < < 1 < > > < < u d y 1 1 < < < < < < ; ; < ; < < & # o o + ; < < 1 1 u u u y ; $ = B +X$X%.V r e 8 9 9 h g 9 9 a p 8 8 p 8 8 8 g h 8 8 8 8 8 8 8 , 1 1 p 8 8 > $ o . # $ < > i p r r E R h ! E r R ! J R z p - = < u p 8 8 8 8 9 8 p 8 a h a a a h p 8 g h a 8 p u > o . . . o $ < < < < 1 1 d 1 1 1 1 1 1 y u d u : 1 1 y 1 < < 1 1 < 1 1 < < 1 y 1 1 1 1 : = < ; < d d 1 : : 1 < ; + + & & & $ o o ; f.^.U.z.z.n.f.a.< @ $ ; $ O + + O - N ;.*X&X&X",
"& & & & & & & & & & ; < < ; & & & & & & & & & & & & & & & & & ; < < < < ; & & & & < < 1 1 u < ; < < & & & & & & & & & < < < & < < ; ; < < < 1 1 : : < < < < < < < < < < < ; < 8 a E R 1 ; ; ; < < < ; < < < < < < < < < < < < < < < < < < < 1 1 1 < 1 8 R E 9 ; ; 1 1 : > ; y < < < ; ; & < y < > $ > = < : 1 1 d d u y < > > y 1 y 1 1 1 1 1 1 p g R U ).9X:X0X%XO.V - 7 T I 9 : < ; & & < ; & & & < < < < < < ; < < ; > 1 g g 8 8 a i a a a 9 8 a a p > + $ < < < & & # o # & < y y < < < < < < < < < < < < > > 1 y < > > < < < ; ; 1 1 1 1 1 1 < y < < < < < & & < < < & # o o # @ ; < ; < 1 u y < < ; = 2 D *XOX' R 9 p 9 6 8 h h a a p 8 8 8 8 8 8 8 8 8 8 8 8 8 8 p 8 , 1 1 , p u > o o o & ; < < p g p 8 g g g p p 8 g h p g 1 1 ; O ; d g 8 9 a h h g 8 8 9 9 9 8 6 8 8 8 h a 8 8 g p > o . . . o $ 1 < 1 > > : 1 > < u 1 1 1 1 1 u 1 1 1 : : 1 : 1 1 1 1 : < < : 1 1 1 < < < 1 1 1 1 1 1 1 1 1 p p 1 & # # # & $ # # o d W.W.2.s.s.f.f.v < O O ; $ + O O = 3 { `.&X&X%X",
"& & & & & & & & & & < < < < ; & & & & & & & & & & & & & & & & ; < < < < ; & & & & ; < 1 1 1 < < < < ; ; & & < < & < < < ; ; & ; < ; & < < < < < < < < < y y y y < < < < q ; ; 1 h E ! 8 ; < ; < < < < < < < < < < < < < < < < < < < < < < < 1 1 1 < 1 9 E L 9 ; ; 1 1 1 < ; < < < < < < ; < < < ; < < : : 1 1 u u u u y < > > < 1 1 1 1 1 1 1 1 g h h J @.3X0XdX;X*X;.C Z ..T 9 < ; < & & < & & & & < < < ; ; ; < < < > $ < g g p i a i a a a 8 p a a p ; + $ < & & & + o o + & < 1 1 < < < < < ; < < < < < < < < < y < < < < y < < < < 1 1 1 1 < < < < < < < & & & ; ; < & # o o o + & < < 1 1 y y < < = = 2  .7X{.K a 9 h a 8 p h g p p p , 8 g 8 8 8 8 8 8 8 8 8 p 8 8 8 8 p 1 p u < + o o o & d d 1 1 g h p p 1 g u d g p p 1 1 < < ; O ; u p p 8 8 a a 9 9 a a a p 8 9 8 8 8 g 9 9 p g u < O . . . o $ < 1 < < < < < < : 1 1 : 1 1 < < < < < 1 d 1 1 1 1 1 1 u u g u 1 u 1 < 1 1 1 : 1 : : : 1 1 1 1 , 1 & # . o # o + & @ x n.n.^ n.H.f.g g 1 $ O & $ + $ = 2 Z -.'.-X9X}.",
"& & & & & & & & & & ; < < < < & & & & & & & & & & & & & & & & ; < < < < ; & & & & & < < 1 1 ; & ; & & & & & < < & & < < & ; ; ; ; ; < < < < < < < < 1 1 y y y y < < < < ; ; < 1 a ~ E 8 ; < < < < & < < < < < < < < < < < < < < < < < < < < 1 1 1 < 1 9 ~ L 9 : < 1 g d 1 < < < < < < < < < < < < y u 1 1 1 1 1 u y y 1 < > > < 1 1 1 1 < < 1 1 8 p g h E >.%X0X:X,X*X:. .;.T 9 < ; < < < < < & ; ; ; < < ; ; ; < < < ; $ < d p p p p a a a a 9 8 9 p u > O + $ $ + # o o O & < < 1 < < < < < < < < < < < < < < < < < < < < y y y < < y 1 1 1 1 < < < < < < & & & & ; ; < & + # o # + & ; < : 1 y < < < ; = 3 ,.qX:.V 8 p h g 8 p 1 : : 1 1 1 8 8 8 8 8 8 8 8 8 8 8 8 8 8 8 8 8 , d < $ O o + O ; d 1 1 1 g 1 p g 8 g 1 1 u 8 1 1 < < 1 < @ ; 1 8 g g 8 a h 9 a a 9 8 g h 9 9 8 8 p 9 9 8 p p 1 o . . . o $ < 1 1 1 1 < = < 1 , 1 : 1 1 < < < < : 1 u 1 1 1 u 1 1 1 1 u : : 1 1 1 1 1 1 : : : : : 1 : , , : ; + # . . o o o # + j x g c n.n.g g j j 1 1 ; $ + = - M o.`.&X;X+X@.",
"& & & & & & & & & & < < < < ; & & & & & & & & & & & & & & & & ; < < : < ; ; & & & & ; ; < < ; & ; ; & & & & < < & & & & & & & & & & & & ; ; ; < < < 1 1 1 u y y < < < < ; ; < : a ` ` a : < < < & < < < < < < < < < < < < < < < < < < < < < < 1 < < 1 a ~ L 9 : < 1 p j d 1 < < < < < < < ; ; < < d d g d u 1 1 1 1 1 1 ; $ > < 1 1 1 < < < 1 1 1 p g g h ( ;.+X;X:X;X+X).}.;.7 < ; < < < < < ; < ; ; < < < ; ; < < < ; $ > u p p p p a a a 8 8 p p p u > + + + O o o o O $ < y y < < < < < < < < < < < 1 1 1 1 < < 1 1 < 1 y < y y < < < < < < < < < < < < & & & & ; ; < & + # # o + & ; : 1 y y 1 : > = - M }.qX@.9 8 8 g g u u < = = < : 1 8 8 8 8 8 8 8 8 8 8 8 8 8 8 8 8 8 8 u ; O o o & ; < 1 d u u d 1 1 1 1 1 1 1 1 p u 1 1 1 1 < $ = : , p g 9 8 a 9 9 9 9 8 g g a p g 8 8 8 9 8 8 g 1 O . . . o $ < 1 : 1 1 1 1 u : 1 < = > = < 1 1 u 1 1 1 1 1 d g 1 < 1 < 1 : 1 1 1 < 1 < y y 1 1 1 1 1 1 1 : < < & # . . . + o o @ x n < j x l < j c j 1 d ; + > : 3 } ).%X&X%X=.C ",
"& & & & & & & & & & ; < < < < ; & & & & & & & & & & & & & & & ; < < 1 1 ; ; & & & & & ; ; ; & & & ; & & & & & & & & & & & & & & & & & & ; ; < < < < 1 1 u u u y < < < < < < < < 9 ` ' J 1 : < < < < < < < < < < < < < < < < < < < < < < < < < < < < , J ` L 9 1 1 1 1 d d 1 < < < < < < ; ; ; < < y u d u u 1 1 1 < 1 < ; ; ; < < < < < < < 1 1 1 1 8 8 g h ( ,.*X,X:X-X&X=XXXZ - ; < 1 y < < < < < ; < < ; < < < < < ; $ > 1 p p p p a a a 8 8 p p p u > + & # o O O O > < 1 1 y 1 < : : < < < < 1 1 1 1 1 1 1 < 1 1 1 1 < < < < < < < < < < < < < < < < < & & & & ; & < & # o o o + & ; : 1 y y 1 1 > = 2 { +X2XU 9 g 1 1 1 1 < < $ $ ; ; 1 8 g 8 8 8 8 8 8 8 8 8 e e 8 8 p 8 1 < $ o o O > < < ; < 1 u 1 1 1 1 < < < d 1 p u : < < < ; @ ; 1 p g g 8 9 a 9 9 9 9 8 p 8 h p g 8 , 4 9 8 1 1 y $ . . . o > 1 < : 1 1 d d g u g 1 1 1 : < > : 1 1 : = = 1 d u 1 : 1 1 1 u g d 1 1 d y 1 < 1 y 1 1 1 < < < < & & # X X X % o o f f.n q v ; O q a.l < = < > O > 2 B O.oX;X8X{.S 9 ",
"& & & & & & & & & & ; < < < < ; & & & & & & & & & & & & & & ; ; < < : : ; < & & & & & & ; ; & & & & & & ; ; ; ; ; & & & & & & & & & & & & < < < < < y y u u , 1 < < < < < < < < 9 ` $.K 8 1 < < < < < < < < < < < < < < < < < < < < < < < < < < < : 8 J ` K 9 1 : 1 1 < 1 d 1 1 < < < < ; $ > < < 1 < 1 1 1 1 1 1 < < < ; & ; < 1 < < < < < 1 1 1 1 1 8 p g a U >.$X9X:X-X:X=XO.N : < < < y < < < ; ; < 1 < < < < < < ; $ > 1 8 p p p a a 9 8 p 8 8 p , > O & # O + $ > 1 y y 1 1 1 1 1 : : : < : 1 1 1 1 1 1 < < y y 1 1 < < ; < < < ; < < < < < < < < < < & & & & < & < & # o o o + & < : 1 y 1 1 1 < = 5 o.%X{.C 8 w w u 1 < < < @ + & ; 1 8 p 8 8 8 8 8 8 8 8 8 8 e 8 8 p 8 1 ; + o # & < > ; < 1 < < < < < < < < ; ; < 1 1 < ; ; ; < ; ; 1 8 8 g a 9 a h h a 6 8 a g h g g 8 , 6 8 8 , u u & . . . o $ 1 1 1 : : 1 1 1 d g d 1 1 , : : , 1 1 1 1 : : : < < < : 1 : 1 : : 1 1 1 1 1 < < < < < < & $ & & $ # o . . . X # & a.a.s @ s O $ j n d 1 = = = = - 3 P ).%X&XOXU V a ",
"& & & & & & & & & & & < < 1 < ; & & & & & & & & & & & & & & ; ; ; < : < ; < & & & & & @ ; ; & & & < < & & & & & & & & & & & & & & & & & & < < < < < 1 1 u , , 1 < < < < < < < ; 8 Y 0.I 9 : ; < < < < < < < < < < < < < ; < < < < < < < < < < < < 1 8 K ` J 8 1 : 1 1 < 1 1 u y y < < < ; ; ; < < 1 < 1 1 1 1 1 1 < < < ; & < < 1 < < < < < < 1 1 1 1 1 1 8 8 9 I ;.+X;X-X-X:XXXU 6 : 1 y < < < < ; ; < 1 < < < < < < ; & > < 1 p p p a a 9 8 8 8 p p p ; + @ @ & ; < 1 u u 1 1 1 1 1 1 1 1 1 1 1 1 1 : : 1 1 1 1 y y y 1 < < ; < < < < < < < < < ; < < ; ; < & & & & < < & # . o o @ < < ; 1 d u 1 : = = M (.=X;.V 8 1 1 1 1 < ; < ; $ & ; 1 p p p 8 8 8 8 8 8 8 1 1 1 8 8 p 8 1 ; o o # < 1 < < < < < < < < < ; ; < ; & < < < < ; ; < < & $ 1 1 8 g a a g h h a 9 9 g g a g 8 8 8 9 8 8 1 1 1 $ o . . o $ 1 1 : < < < 1 u u 1 1 1 1 : : 1 : , 1 1 1 : : < 1 1 : : 1 < 1 1 1 g g u 1 < > ; < ; & & & @ o o o o o . . . . + < f.a.d @ q ; d d < ; < O $ = > - M  .XX%X`.=.K a p ",
"& & & & & & & & & & & < < y 1 ; ; & & & & & & & & & & & & & & ; ; < < < < < & & & & & & < < < & & < < & & & & & & & & & & & & & & & & & < < & < < < 1 1 , , , 1 < < & & < < ; & 8 I 0.' 9 = ; < < < < < < < < < < < < < ; < < < < < < < < < < < < 1 a L L a 1 1 1 1 1 < 1 1 d u y < < < ; ; < < < 1 1 1 1 1 1 1 1 1 < < & $ & < < < < < < < < 1 1 1 1 1 1 1 1 p a K =.+X%X-X0X&X:.C 2 1 y < < < < & ; < < < < 1 1 < < < & > < 1 p p g p p 8 8 8 8 p h p ; + @ & < < y 1 , , 1 1 1 1 1 1 1 1 1 1 1 1 : : : 1 1 1 1 1 1 1 y 1 ; < < < < < < < < ; ; ; < < ; ; ; ; & & & < & & # o o o @ < < < 1 p g 1 : = - A XX*XU a 8 1 1 < 1 < < < < $ $ ; u p g g p 8 p p 8 8 8 1 1 e e 8 8 8 > < o o O < y < ; < < < < < < < < < < < & < < < ; & < < < & $ 1 1 8 8 8 8 a a h 9 h h h g a 8 1 8 a a 8 8 , : < $ o . . o $ y 1 : : = < 1 u 1 1 1 u 1 : 1 1 , 1 p 1 : 1 1 u 1 1 1 < < 1 1 1 1 u u 1 < > < ; ; & @ & + o + o o o # . # o o ; x D.x.l ; 1 j f.d > $ $ O $ = = 2 Z o.XXoX:.) a p p ",
"& & & & & & & & & & & < 1 y 1 ; ; ; & & & & & & & & & & & & & & < < < < < < & & & & & < d y < & & < < & & & & & & & & & & & & & & & & & & & & < < < < 1 1 1 1 1 < < & & < < ; ; 8 K 0.' a : ; < ; ; < < < < < < < < < < ; < < < < < < < < < < < < 1 a E K 9 : 1 1 1 < 1 1 1 d u y y < < ; ; < < < 1 1 1 1 1 1 1 1 1 < < & $ & < 1 1 1 1 1 < 1 1 1 1 1 1 1 1 u p p 9 C @._.+X9X;XXX| 3 - 1 u y < & & ; < < < < : 1 < < < & & < 1 p p p p 8 8 8 1 8 p h p ; + & & < < 1 1 1 1 1 1 1 1 1 1 1 1 1 1 1 > : 1 1 1 : 1 1 1 1 1 y 1 < ; < < < < < < < ; ; & ; < ; ; ; ; & & & < & & # o o o & < < < 1 u u : ; = 3 =.7XOXC r 1 1 1 : 1 1 < < < $ $ ; 1 p p g p 8 p p 8 8 8 1 1 8 8 8 8 1 < & o o $ < 1 > ; ; ; ; ; ; ; < < < < < & ; > > ; & < < < $ $ < p 8 8 g a 9 a 9 6 a h 9 h h 8 1 8 h h 8 8 , , < $ o . . o > 1 1 1 < < 1 1 1 1 1 1 1 1 : 1 1 p g g 1 1 u d 1 : 1 1 < < 1 1 1 1 1 < 1 > > < $ $ & ; + o o o o o o o o # $ O d H.CXH.x d a.n.f.$ $ $ + $ + $ = 2 I O.oX}.+.G 8 p p ",
"& & & & & & & & & & & < 1 1 1 ; ; ; & & & & & & & & & & & & & & < < < < ; & & & & ; < u g g y < & & ; ; & & & & & & & & & & & & & & & & & & & < < < < < 1 1 < < < < < & < < < ; 1 J $.' J : & < < < ; < < < < < < < < < & < < < < < < < < < < < < , a J J 8 : 1 1 < < 1 1 1 u u y 1 < < < < < < < 1 1 : < < < < < < < ; & $ & < 1 1 1 1 < < 1 1 1 1 1 1 : 1 u u p 8 9 K U ;.$X;X%X_.S 2 : y y < < < < < < < < : 1 < < < & & < 1 p 8 p p 8 8 8 1 8 8 g p ; + & ; < < < 1 1 1 1 1 1 1 1 1 1 1 1 1 : < 1 1 1 1 < < < 1 1 1 y 1 < < < < < < < < ; ; & & < < & & & ; ; < ; & & % o o o o & < y < < 1 < ; $ = N (.3X:.7 p u 1 1 1 1 1 < < ; $ + & 1 8 8 p p 8 8 8 8 8 8 8 , 1 1 1 p d < + o + < y < > < < ; < < < < < ; < < < y < < ; < < < < & + + < p 8 8 g g 9 8 9 9 9 9 a a h 8 8 8 8 h g 8 , , > & o . . + < y 1 : 1 1 1 : , 1 1 1 < 1 1 1 1 u g g 8 : 1 : = < 1 < 1 : < < : 1 < < < > = < O O = 1 g j j j j q & o o o o < n.!.^.n.v.v.E.W.n ; $ + O O + $ = 2 P ].@X>.C h 8 u u ",
"& & & & & & & & & & ; < 1 u 1 ; ; & & & & & & & & & & & & & & & & ; ; ; ; & & & & < d g z g y < & & & & & & & & & & & & & & & & & & & & & & & & < < < < < < < < < < & & < < < ; : a ' ' K 1 @ & & & < ; < < < < < < < < & < < < < < < < < < < < < , a J a 8 : 1 < < < 1 1 1 u 1 1 < y < < ; < < < 1 1 < < < < < < < < ; & & & < 1 1 1 1 : < < 1 1 1 1 1 < 1 y u u g 8 8 9 C :.*X9X%X=.B 1 1 y < < < < < 1 < < < < < < < ; & ; 1 1 1 1 8 8 8 8 8 8 8 g u > O < < < ; < 1 1 1 1 1 1 1 1 1 1 1 1 < < 1 1 1 1 < < < < < < < 1 1 < < < < < ; < & & & & & & & & & & & ; < ; & & # o o o # & < y < < < ; $ O - Z }.2X+.7 1 1 1 1 1 1 u 1 < ; + + + < 8 8 8 8 8 8 8 8 8 8 8 1 8 8 1 1 1 ; o o $ < y < < < < < < < < < < < < < ; < < ; > ; & & < & + + < 1 8 8 8 a 8 9 9 a 9 9 a a 9 8 p g 8 9 8 8 1 u 1 $ o . o # < y 1 1 1 1 1 1 1 > 1 < < 1 1 1 1 1 d g 1 > > < > > 1 1 : : : < < < ; ; & $ $ = = 1 a.n.I.W.H.H.b.v.a.d + o y a.W.n.d.c n n n x s & + + O O + $ - 3 | ].{.) 9 8 1 1 < ",
"& & & & & & & & & & ; < 1 u 1 < ; & & & & & & & & & & & & & & & & ; ; ; ; & & & ; < d z ^ z d < & & & & & & & & & & & & & & & & & & ; ; < & < ; < < < < < < < < < < < & < < < ; ; 9 ` ' L 1 @ ; ; & ; ; ; < < < ; < ; ; & < < < < < < < < < < < < , a R 9 1 : < < < < 1 1 1 y 1 1 y y y < ; < < < 1 1 < < < < < < < < < $ & & < < < 1 1 : : : : 1 1 : 1 < 1 1 < 1 8 1 < < 8 U OX;X;X}.U 4 ; < < 1 1 1 1 1 < < < < < < < & & ; < 1 1 1 1 8 8 8 8 8 8 p u > O < < < ; < < < 1 1 1 1 1 1 1 1 1 < < < y 1 1 < < < < < < < < 1 < < < < < < ; < & & & & & & & & & & & ; ; ; & & # . o o o & < y & & @ @ & > 2 +.$X1XS 9 1 1 1 < 1 1 d y < & + + + < 1 8 8 8 8 p p 8 8 8 8 1 8 9 1 1 < @ o O ; < < < < < < < < < < ; < < < < ; & ; ; ; & & & < & # O ; , p p p a g a a a 9 9 9 9 9 8 8 g p 9 8 8 8 p u $ o X o o > y u g 1 : 1 1 1 1 < ; ; < 1 1 : : 1 1 1 > : 1 1 < 1 1 : : 1 : < > @ & $ $ $ ; x n.!.CX^.!.!.!.U.D.v.a.d < a.n.n.x = ; & o o o # + % # O O O = - M o.].@.V 1 < < < ; ",
"& & & & & & & & & & & < 1 y 1 ; & & & & & & & & & & & & & & & & & ; ; ; & & & & ; 1 g z ^ z d < & & & & & & & & & & & & & & & & & & ; < < < < ; ; < < < < < < < < < < < < < y ; ; 8 ~ ' Y 6 ; ; ; & & ; ; < < < ; ; ; ; & < < < < < < < < < < < < 1 p g 8 : : < < < < 1 1 1 1 y y y < y < ; < < < 1 1 < < < < < < < < < $ & & < < < < 1 : : < : 1 1 : 1 q < < ; : , 1 < & 1 J :.%X0X%X .5 < < 1 , 1 1 1 1 < < < < < < < & & ; < < 1 1 1 8 8 8 8 8 8 g u > + < < < ; < < < < 1 1 1 1 1 1 1 1 < < < 1 1 1 < < < < ; < < < < < < < < < ; ; < & & & & & & & & & & & ; ; < & & # o o X o + & < & & + @ $ > V u.4XB.G 8 1 1 1 < 1 < d < ; & @ + # ; 1 1 8 8 8 8 8 8 8 8 8 8 8 8 , 1 < @ o + < < > < ; ; ; ; ; < < ; ; < ; ; ; < < < < < & ; < & + o ; < : 8 p 8 8 a h h a 9 9 9 a 8 1 8 8 8 8 8 1 1 < $ o o o o > u u 1 1 < ; < u 1 = ; < < : 1 1 : : : , 1 1 g p g g , 1 1 : < > < ; & O O ; a.W.^.CXNXY.F.Y.Q.G.b.l.f.l j v.n.n.c O o o o . . o + $ + O O $ = 2 Z ,.>.S 9 1 ; ; ; @ ",
"& & & & & & & & & + & < < 1 < & & & & & & & & & & & & & & & & & & < < ; ; & & & ; 1 g z z z < < & & & < ; ; & & & & & & & & & & & & & & & & & < < < < < & & < < < < < < < < < < < ; a ` Y J - < ; & & & & < < < < < < ; & & & & ; < < < < < < < < 1 u u , : < < 1 < < < < < 1 < < < ; < < < < < < < < < < < < < < < < ; & & & < < < < < < : 1 1 1 1 < < < < < < 1 1 1 < < 1 9 U `.0X;X).I 1 y u u g 1 < < < < < < < < ; & $ $ $ ; < 1 1 , 8 8 8 p p 1 < + $ < < < < < < < 1 1 1 < 1 1 1 1 1 1 1 1 1 1 1 < < < < < < < < ; ; < < < < < < ; ; ; ; ; ; & & & & & & & ; < < % o o o o X X + ; & & O O = 9 N.nXMXm.9 6 u y < ; ; < < & & & & @ o $ 1 p 8 8 8 8 1 1 1 8 p 8 , , 1 d ; O O ; < : > < ; & & & & < < < & & & $ $ < < < & < < < < & + + $ > : 8 p 8 6 a h a a h a 9 - , 1 8 p p , : 1 < ; + o o . o > 1 1 < < < < ; , 1 ; ; : 1 : 1 : 1 1 1 8 8 8 8 p g g h g 8 1 : < ; > $ + @ a.!.CXNX!.Q.F.A.J.J.n.n.v.n j j a.a.f.a.< + o . . . + > $ O + @ = - 3 U y.+.K 8 < < < ; ; ",
"& & & & & & & & & & & < < < < & & & & & & & & & & & & & & & & & & & < ; & & & & @ < d g h h < & & & & < ; ; & & & & & & & & & & & & & & & & & < < < < < & & < < < < < < < & < < < < 8 ~ ' K 9 g j d ; @ ; < < < < < ; ; & & & & < < < < < < < < < 1 u 1 1 : < < 1 1 < < < < < < < < < ; < < < < < < < < < < < < < < < ; & & & < < < < < < < < 1 1 1 < < < < < < 1 1 y < < 1 9 Y ).0XhX*X;.7 : u u 1 1 < < < < < < < < ; ; $ $ & & < 1 1 , 1 8 8 p p 1 < + $ < < < < < < < 1 1 1 < 1 1 1 1 1 1 1 1 1 1 < < < < < < < < < < < < < < < < < ; & & & & & & & & & & & & < < & # o o # # + o + < $ $ + O - h.!.ZXZXg.1 y y y < ; ; < < & & & & @ o $ 1 u 8 8 8 1 1 1 1 1 p 8 1 , , 1 = O > < < 1 1 < & & & & & < < < < & & & $ < < < & & & & < < $ O $ ; 1 g p 8 6 8 a h a h h a 1 8 8 8 p 8 : : u y ; + o o o o > 1 1 > < < & < , 1 < < 1 1 : : : 1 1 g g g 1 1 8 8 a p 8 , 1 : < < < < O k W.CXCXNX!.Y.F.D.D.b.b.n.v.c d < c x j n f.f & q f f f $ + O O = 2 m A @.+.I a 1 < < < < & ",
"& & & & & & & & & & & ; < < ; & & & & & & & & & & & & & & & & & & & ; ; & & & & @ < 1 d g d < & & & & < ; ; & & & & & & & & & & & & & & & & & < < < < < ; ; < < < < < < < & & < < < 1 R ' ` / l.v.a.w ; ; < < < < < < & & & & < < < < < < < < < < 1 1 1 1 : < < 1 1 < < < < < < < < & < ; < < < < < < < < < < < < < < < + & & ; < < < < < < < 1 1 1 < < < < < < 1 1 < < < 1 9 I O.;XjX0X`.I 6 1 u 1 < < < < < < < < < < ; > $ & & < 1 1 1 1 8 8 p u 1 < $ $ < < < < < < < < 1 1 < 1 1 1 1 1 1 1 1 < < < < < < < < < < < < < < < < < < < ; & & & & & & & & & & & & < < & o X o # & & # + < < + + O R BXBX!.Q.1.< @ ; < < < ; ; ; & & & & @ o $ 1 u 8 8 8 8 8 1 1 1 p 8 8 , 1 : = O 1 < ; , u < & & & ; ; < ; ; & & & & & ; ; ; ; & & & ; ; & $ & ; : 1 8 8 8 a 9 4 4 9 9 8 p 8 p 8 , , : 1 1 y < $ o o o o > 1 1 : 1 < > < , 1 < < 1 1 1 : : , 1 p g g 1 1 1 , 8 8 : : : 1 < < < = : H.CXCXNXNX!.Y.Y.!.D.b.x.n.f.v q < n c l x a.v n n.n.v.b % + $ O - C ..;.*.( 9 8 1 < < < & & ",
"& & & & & & & & & & & ; < < ; & & & & & & & & & & & & & & & & & & & ; ; & & & & & ; < 1 1 1 < & & & & ; & & & & & & & & & & & & & & & & & & & < < < < < < ; < < < < < < < & < < < ; : a [ N.F.Q.W.n.x 1 < < ; ; < < < & & & < < < < < < < < < < < < 1 1 1 : : < 1 1 < < < < < ; < < & & < < < < < < < < < < < < < < < & + & & < < < < < < < < 1 1 1 < < < < ; < 1 1 < < & 1 8 K  .%XfXgX&Xo.B 8 u : < < < < < 1 < < < < ; ; & & & < 1 1 1 1 8 p p u 1 < $ $ < < < < < < < < 1 1 1 1 1 < 1 1 1 1 1 < < < < < < < < < < < < < < < ; ; < < & & & & & & & & & & & & & < < + o . o # & ; $ $ > > O $ 2 M.ZXBX!.I.f.s @ ; < < < < & & & & & & & o $ < u 8 8 8 8 8 1 1 , , 8 8 8 1 = = : g < & 1 y & & & ; ; ; ; ; & & ; & & & ; ; ; ; & & < & & < < & > 1 1 , 1 8 a a 9 9 a g 8 8 8 8 8 8 p 8 , , y y > O o o o > 1 1 1 1 1 < u p 1 < > 1 : 1 1 1 1 , : : > < < 1 1 : : : < 1 1 < $ ; : / NXAXBXmX!.!.!.!.W.I.b.l.a.x d @ ; d d d d j d v f.n b < $ # $ = 3 ...X].U F : ; 1 < < < & & ",
"& & & & & & & & & & & ; ; > ; & & & & & & & & & & & & & & & & & & & < & & & & & & ; ; < < < < & & & & & & & & & & & & & & & & & & & & & & < & < < < < < < & < < < < < < < & < < < ; < 9 9.L.NXNX^.H.1.w < ; & & < < ; & & < < < < < < < < < < < < < < < < : : : < < < < < < < ; < < & & ; ; < < < < < < < < < < < ; < & $ + & ; < < < < < < < 1 < < < < < < ; < < < < < & 1 r V D ).iXgXiXoX| 7 , < < < 1 1 1 1 < < < < ; ; & & & < 1 1 1 1 p p p u 1 < $ $ < < < < < < < 1 1 1 1 1 1 < < < < < < < < ; ; ; ; < < < < < < < < < ; < < < & & & & & & & & & & & & & < < $ o . o + > < & $ $ ; O - 3 Z.nXnX!.n.f.< @ @ ; < < < & & & & & & & # $ < 1 8 8 8 8 8 1 1 , , 8 8 p 1 = - i p ; & < < & & & & ; ; < < & & & ; < < & & & ; & & < & & < < ; ; 1 u : , 8 9 a a a h g 8 1 8 8 6 p p p 8 1 u y ; O o o # ; 1 1 1 , , 1 u 1 1 < > : 1 1 1 1 : : : : : 1 1 1 1 1 < < < < > > = = 5 J.CXBXmXNXmX!.!.!.U.D.d.^ g < ; & ; d j < & s @ @ + # $ O O + $ - P ]..X;.C r 1 = = ; ; ; & & ",
"& & & & & & & & & & & & ; > > ; ; ; ; > ; & & & & & & & & & & & & & < & & & & & ; ; ; < < < < & & & & & & & & & & & & & & & & & & & & & & < & < < < < < < ; < < < < < < ; & < < < ; 1 8 g.Y.BXBXNXJ.1.w < ; & & & ; < & & < < < < < < < < < < < < < < < < < : 1 < < < < < < < & & < & & ; ; < < < < < < < < < < < ; < & & + & ; < < < < < < < < < < < < < < ; < < < < < & < r 5 S ,.9XfXfX0X).Z 6 < < 1 , 1 1 1 < < < < ; ; & & & < 1 1 u 1 p p p u 1 < $ $ < < < < < < 1 1 1 1 1 1 1 < < < < < < < < < ; ; ; < < < < < < < & & ; ; < < & & & & & & & & & & & & & & & + o . o & ; < & & $ O - 2 Z B.Z.K.z.c x ; @ + ; < < < & $ & & & < & # + < 1 1 8 8 8 8 1 1 , , , 8 p 1 = , J 1 ; & > ; & & & & ; ; < & & & & ; < < & & & & & & & & < < < < ; < 1 : 1 8 a h a a a 8 8 8 8 9 p p 8 8 8 p p u > O # o # & < 1 1 : : u 1 < 1 > < 1 1 < 1 1 1 1 1 1 1 : 1 , 1 1 < < $ $ = = : 2 ( BXZXBXVXNXT.F.Y.Q.J.z.^ x w < < s & f n d & + o o o . . # O $ = 2  .{.,.U 9 0 w = = ; & & & & ",
"& & & & & & & & & & & & & ; < < u u p , < & & & & & & & & & & & & & & & & & & & & ; ; < < > ; & & & & & & & & & & & & & & & & & & & & & & & & < < < < ; & & & & < < < < & ; < < < < < 8 s.L.bXBXNXQ.d.e ; & < & & & & < < & & < < < < < < < < < < < < < < < < < < < < < < < < < & + $ $ ; < < ; ; < ; < < < < < < < < < & & & ; < < < < < < < < < < < < < < < < < < s q ; q 8 r ( 4.3X0XjXdX&Xo.N u y 1 : : < < < < < < < ; & & < < 1 1 1 1 1 1 u 1 1 < > ; ; < < < < < < 1 1 1 1 1 1 < < < < ; ; < < < < < < < ; & & & & & ; ; & & & & & & & & & & & & & & & ; & & $ o o # o + < < & & $ - 3 A i.<XM.g.g 1 j ; O + & & & & & & & & & & + # o ; 1 1 8 8 p p g g , 8 p p 8 : = a J < & & $ & & & & & & & & & & & & ; & & & & & & & & & < < & ; & $ $ 1 1 1 p h a a a h g 8 8 g p 8 h p 8 p h 1 u 1 $ # o o O < y 1 1 , y y < < > < 1 1 1 d d 1 > > : 1 8 , d > = u > $ $ = 2 N ) 5XBXBXmXNX!.C.z.F.A.c.f.^ g j f s < & s f s + o o o o . . o O = 2 B O.;.S 5 1 1 1 < = & & & & & ",
"& & & & & & & & & & & & & ; < 1 p h p p 1 & & & & & & & & & & & & & ; & & & & & & ; < < : < ; & & & & & & & & & & & & & & & & & & & & & & & & < ; < < & & & & & < < < < ; ; < < < < < 1 2.D.T.!.!.J.s.e ; ; & & & & & < & & & < < < < < < < < < < < < < < < < < < < < < < < < & & $ $ ; ; < < ; < < ; < < < < < < < < < & & & ; < < < < < < < < < < < < < < < < < < s < ; 1 e 2.S.5X5X6XtXdX;X).P 9 1 1 1 < < < < < < < < ; & & < < 1 y 1 1 1 1 1 1 1 < > < < < < < ; < < < < < < < < < < < < ; ; ; ; ; ; < < ; ; & & & & & ; ; & & & & & & & & & & & & & & & & & & $ o o # + & & & @ $ - M X.[.$X4XK.k.s.d.w $ o & + & & + + & & & & & + # o & 1 1 8 8 8 8 g 8 8 p p 8 1 = : h a < & & & & & & & & & & & & & & & ; & & & & & & & & & < ; & & & + O ; 1 p p p a 9 6 g 8 8 8 g p 8 p 9 6 p p 1 1 < + o o o $ < 1 < : : < < < < < < 1 1 1 u 1 1 1 1 1 1 p 1 y ; > > > > ; 2 Z o.<XvXbXT.!.bXY.z.k.A.A.j.c g j x f & & & $ & & & o . o o o . o o = 6 Y %.I 5 : < < ; & & & & & & & ",
"& & & & & & & & & & & & & ; < u p p p p u & & & & & & & & & & & & & ; < & & & & ; ; < 1 1 1 < ; & & & & & & & & & & & & & & & & & & & & & & & < & & < < < < < < ; < < < ; ; < & < < < 1 ^ c.F.U.U.n.1.1 @ & & & & & ; ; & & & < < < < < < < < < < < < < < < < < < < < < < < & & & & & ; < < < < < ; ; < < < < < < < < < & & & ; < < < < < < < < < < < < < < < < ; < q ; ; 1 W D.bXcXZ.{.*X0X:X%X:.K 8 1 ; < < < < < < < < ; & & < < < 1 1 1 1 1 : 1 1 < ; < y < < ; < < < < < < < < < < < < < < ; ; ; ; & & & < ; & & & & & ; ; & & & & & & & & & & & & & & & & & & + # o # & & + O O - m o.$XrX,XeXB.k.x.x.j @ # # # # # # # & & & & & + # o & 1 1 8 8 p 8 8 8 8 p 8 1 1 = 8 h 9 < & & & & & & ; & & & & & & & & & ; ; & & & & & & ; < ; & & & + o ; 1 1 p a i 9 6 8 8 p h g p 8 i p 8 p p u 1 < $ o o o = : < ; : , < ; < < < < 1 1 1 1 1 1 y y y 1 1 < ; & > > = - 7 D _.&X3X5XT.T.!.T.V.z.A.D.b.a.g w d f s & & # o o # + . . o o o . . o = 9 L J 9 1 < < = @ % & & & @ & & ",
"& & & & & & & & & & & & & & ; 1 , u u , 1 & & & & & & & & & & & & & ; ; < < < < ; < : , , 1 y < & & & & & & & & & & & & & & & & & & & & & & & < & & < < < < < < ; < < < ; ; & & < < ; 1 c d.c.b.n.l.x 1 ; & & & < ; < ; ; & & < < < < < < < < < < < < < < < < < < < < < < < & & & & ; ; < < < < < < ; ; < < < < < < < ; & & & ; ; < < < < < < < < < < < < < < < ; ; < < < 1 s.U.!.cXZ...O.=X0X=X+Xo.3 6 : < < < < < < < < ; & & < < < 1 1 1 1 1 < : 1 < < < ; & ; < < < < < < < < < < < < < ; < ; & & & & & & < ; & & & & & ; ; & & ; ; & & & & & & & & & & & & & & + # o # & + + O = 3 } +XtXtXyXeXB.k.c.s.v q + & # + + % & & # & & & + + o $ < 1 8 8 8 8 8 8 1 , 1 : < = i h 1 ; & & & & & ; ; ; & & & & ; ; < ; ; ; & & & & ; & < ; < & & & + o & < 1 g h i a 9 , 1 8 8 8 8 p p p p p p u 1 < $ # o O , 1 = : 1 1 < < < < 1 1 < 1 1 1 1 y u 1 < > @ @ $ ; > = 2 m | ).=XrX4XnXbXY.Y.L.V.A.A.A.j.h 1 q < @ + & o # # # o o . o # . . . . o = 6 9 8 w < y 1 < & % % & & & & & ",
"& & & & & & & & & & & & & & ; < < , < < ; & & & & & & & & & & & & ; < < < < < < < < : , 8 p y < ; & & & & & & & & & & & & & & & & & & & & & & < & & & ; & & & & & < < < < < & & & ; ; 1 g 1.d.l.l.a.j < & & & & < < < ; ; & & < < < < < < < < < < < < < < < < < < < < < ; ; + & & < < < < < < < & & ; ; < < < < < < < ; $ + & ; ; < < < < < < < < < < < < < < < ; ; < < 1 h c.U.!.T.k.K ..OX=X;X;XoX} 7 , 1 < < < < < < < $ $ & < < < < < : 1 1 : 1 1 < > < + + ; < < < < < < < < < < < < < < ; ; & & & & < ; ; ; & ; ; & & & ; & & ; ; & & & & & & & & & & & & & & + o + % & + + O 2 P }.0X0XwX1X>.Z.Q.^.b.k ; o & + # + & & # # + & & $ + o $ < 1 p 8 9 8 8 8 , 8 1 < = = i p ; ; & $ & & ; ; ; ; & & & & & ; < & < ; & & & & & & < ; & < & & & o + ; 1 g 8 9 a 9 , 8 g - : 8 p p p 8 8 u 1 < > $ o o = a h 1 1 1 1 1 1 1 1 1 1 < 1 1 < 1 1 1 < > $ + $ $ = = 2 B  .XX*X%XOXB.nX!.Y.F.J.A.V.c.j.^ 1 @ < ; + # # o # # o o . . . o . . . . o = , 8 1 y 1 y y < & + + @ & $ $ & ",
"& & & & & & & & & ; & & & & & ; ; < ; ; & & & & & & & & & & & & & & < < < < < < < < : , p g d < ; $ & & & & & & & & & & & & & & & & & & & & & < & & ; ; & & & & < < < < < < & & & ; < : 1 g a.f.f.c d ; & & & < < < < ; ; & & < < < < < < < < < < < < < < < < < < < < < ; ; + & & < < < < < < < & & & < ; < < < < < < & $ + & ; ; ; < < < < < < < < < < < < < < ; < ; < 1 h j.D.C.k./ R K ;.+X:XdX;X(.U 6 : < < < < < < ; > $ & < < < < < : 1 1 1 1 1 < > > & & & & & < < < < < < < < < < ; < ; ; ; < < < < < < ; & ; ; & & & & & & ; ; & & & & & & & & & & & & & & @ o + & & # + = m >.8XtX%X:.) _ C.U.Q.d.: O # + o o o + # o # # & & $ + o + < u p 8 8 8 8 8 : , 1 = O : a 8 ; & & & @ & ; < ; ; ; & & & & < < & < & & & ; ; & & < ; < & & & & @ O $ : p p a i 6 8 8 h : : , , 8 8 8 8 u u 1 > $ o O : R R 8 1 : : 1 1 : < 1 1 < < < > > > ; > > > $ $ = - 3 P -.+X&X+X-.+._ F.F.J.S.D.V.z.z.s.g q & ; < & & # o o o o o . . . . . . . . o + 1 u 1 < u < & & & & + @ & > $ & ",
"& & & & & & & & & & & & & & & & & & & & & & & & & & & & & & & & & & ; < 1 , 1 : : < : , 8 p h 1 & & @ & & & & & & & & & & & & & & & & & & & & ; & & & < < & ; ; & < < < ; ; ; < < ; < < 1 g c n a.c d ; & & & < < < & & & & < & < < < < < < < < < < < < ; ; ; ; < < < < < ; & & < < < < < < < ; & & < < < < < < < ; ; & + + & ; ; ; ; < < < < < < < < < < < < < < ; < ; < g 1.d.l.2.r a J T (.=XiX:X%X:.Z - - < < < y 1 : < ; $ > y < < < < < < y 1 < > $ & s < & $ $ & < < < < < ; ; < ; ; ; & < < < < < < < & ; & & & & & & & & & & & & & & & & & & & & & & & & & @ + & & # o $ 2 D }.wX3X@.B V R c.d.j e < @ @ + o o o o + o o # & & & + + & , , 8 p 8 1 , , 1 , 1 = $ 1 1 1 ; & & & & & ; & & & & & & & & & & & & & & & ; ; < < < ; ; < & & ; & O $ < u p g p 9 a 8 g p : : 1 8 1 1 1 1 , 1 < + o O 6 ` ` 8 , < < < ; ; < < > = < 1 < > O $ = > = O = 2 m D y.[.(.;.@.B V E c.c.A.c.l.s.s.a.x d < @ < < & # o % o # # o o X . + X . o # + ; < < < > < $ & & $ $ $ $ $ $ $ & ",
"& & & & & & & & & & & & & & & & & & & & & & & & & & & & & & & & & & ; : , 8 8 1 : < < 1 8 p R 8 ; & @ & & & & & & & & & & & & & & & & & & & & < & & & < < < < ; & < < & ; ; < < < & & < < 1 j j j d y < < < < < < < & & & & < < < < < ; < < y 1 < < < < ; ; ; ; < < < < < ; & & ; < < < < < < ; & & < < < < < < < < ; & + + & ; ; ; < < < < < < < < < ; < < < < < & < ; ; w d.b.n.l.c h a V } ).;XdX;X%X-.B 4 : < < 1 1 : < ; $ > y 1 1 < < < < y 1 < > + & s < & & $ & < < < < < < < ; < ; ; & < < < ; ; ; & & & & & & & & & & & & & & & & & & & & & & & & & & & & # @ % % # O = V ,.3X2X$.V 9 9 9 a.1 ; ; q < + + o % + + % + + @ & & & & % & , , u p 8 1 , 1 1 1 < = $ < ; < < & & & & & & & & & & & & & & & & & & & & & ; ; < < & & ; ; ; < < < O $ < 1 1 8 a 9 a a g 8 : 1 w w 1 1 1 1 , 1 1 + o o 2 ' ` 9 < < < < ; < 1 = ; > O > < = = = = - - 6 3 B ..y.O.} I K E h a 9 s.b.l.s.^ c a.v d ; ; s x f s % + + o o # # # o . X o o # $ & < < < & $ + & & & $ $ $ $ & & & & ",
"& & & & & & & & & & & & & & & & & & & & & & & & & & & & & & & & & & ; 1 1 8 8 , : < ; : 1 8 h 8 ; & @ & & & & & & & & & & & & & & & & & & & & < ; ; & < < < < < < < < ; ; ; < < < < & < < : 1 1 < < < < y y < < < < < & & & & < & & < ; < < 1 1 < < < < < < ; < < < < ; ; ; & & ; < < < < < < ; ; & < < < < < < < < < & + + & ; ; ; < < < < < < < < < ; ; ; < < < ; < ; ; 1 a.b.l.1.g d h J I  .OX9XtX;X*X;.V 1 1 1 1 1 < ; @ @ ; < , 1 1 1 < < 1 1 < > $ & < ; < < & & & & ; ; ; ; < < < < & & & < < ; < ; & & & & & & & & & & & & & & & & & & & & & & & & & & & + o @ @ + o O 2 | $X3X=.S 9 8 8 k x.c < 1 a.j $ @ o + + o o o @ & & & & & $ $ & ; 1 8 8 8 , 1 y < $ $ > ; & & & & & & & & & & & & & & & & & & & & & & & & & & & < $ & ; ; < < < < + O @ 1 1 8 a 8 9 g p 9 9 8 1 : 1 1 : 1 : < ; + o o - ) ( 6 < < < < < = < > < > = = - - 2 2 3 B B Z } O.{.t.I N 9 9 a 8 1 1 ^ d.a.^ h g g g < $ & y f s & + o . o o # + # o . . o # # & ; ; ; & & & & + & & $ & & & & & & & ",
"& & & & & & & & & & & & & & & & & & & & & & & & & & & & & & & & & & < 1 1 8 8 1 < ; ; < : , a 8 < & @ & & & & & & & & & & & & & & & & & & & & < < ; & < < < < < < < < < & ; < < < & & < : 1 8 : = $ & < < y < < < < < & < & & < & & & ; < < < < < < < < < < < < < < ; ; ; ; & & ; < < < < < < ; ; & < & < < < < < < < & + + & ; ; ; < < < < < < < < ; < ; ; ; ; ; ; < & & 1 g k c k q q g a R ( @.OX=X,X,XXX .N 1 1 1 1 ; ; @ ; 1 : 1 1 1 < < < 1 : < > $ & & ; ; < & & & & & & ; ; ; < < < & & & & < < & & & & & & & & & & & & & & & & & & & & & & & & & & @ @ @ + o + O + o O B (.*X}.A 3 8 8 r e c c g g x w : d < @ @ + o o + + + + + + O + @ & ; < , 8 , 1 y ; O $ < ; & & + & & & & & & & & & & & & & < & & & & & & & & & & < < ; ; ; < < ; < & O O ; 1 , p 8 9 p 8 a a g p 1 8 8 1 : < y < # o o - T ( , > < ; > < ; > > > , 9 N B P .. . .O.:.:.].{.;.T V R 8 8 1 > > = h d.c g e w 1 ; & & & & & # o . . . . o & & + o . . o # & & & ; & & & $ $ + & & & & & + + + + + ",
"& & & & & & & & & & & & & & & & & & & & & & & & & & & & & & & & & & < 1 1 1 1 1 < ; & ; < : 9 p 1 ; & & & & & & & & & & & & & & & & & & & & & < < < < < < < & & ; < < & & ; ; ; ; & & < 1 8 p 8 1 & & < < < < < < < < < & & & & & & & ; ; < < < < < < < ; ; ; ; < < ; ; ; ; & ; < < < < < < < ; ; & & & < < < < < < < ; & & & ; ; ; < < < < < < < < < < ; ; ; ; ; < & & & < 1 : : 1 < < 1 , 8 9 V } ).;X:X;XXX@.7 - 1 1 > < ; 8 g 8 1 < < ; < < 1 : < > $ ; @ ; ; < < & & & & & & & & ; ; ; ; ; ; & & & & & & & & & & & & & & & & & & & & & & & & & & & & @ @ @ @ & @ O O @ O 2 | *XwXy.N 8 8 e e 1 w a.v.f.g : 1 g g d < = O + + + o o o o o o # + @ @ @ > < < < $ O ; y > $ & + & & & & & & & & & & & & & < < ; & & & & & & & < < < < & ; < ; ; < < + o $ 1 p p p a g h a a a h p 8 1 : : < < & o o o - T ( 8 = & & > < : : > 6 N I ;.].XXXXXXoX$X+X[.;.+.( R 9 h 8 1 1 & & > g f.a.g g g < @ & & & # # o . . . . . + & & + o . . o + & & & $ $ $ & & & & & & $ + + + + + + + ",
"& & & & & & & & & & & & & & & & & & & & & & & & & & & & & & & & & & ; < 1 1 1 < < & & & & < 8 g 1 < ; & & & & & & & & & & & & & & & & & & & & < < < < < < < & & ; < < < & & ; ; ; & & < : 8 h R p < & < < 1 < < < < < < & & & & & & < ; ; < < < < < < < ; ; & ; < ; ; & & & ; ; ; < < < < < < ; ; ; ; & < < < < < < < ; & & & ; ; ; < < < < < < < < < < ; ; ; < ; ; & & & & < 1 < < 1 1 u 1 1 , 8 N } XX;X:X;X+XX.N 8 : = < 8 a ~ a 1 < < < < : 1 1 < > $ < $ ; ; & < & & & & & & @ & ; ; ; < ; ; < & & & & & ; & & & & & & & & & & & & & & & & & & & @ @ @ + + + & & @ @ + - I }.wX}.) 9 d w g g 1 1 j n.n.j : 8 h h h 8 : = O $ + # o o o . . o o o + + + @ & & $ O y < < < $ + & & & & & & & & & ; ; ; < < < ; & & & & & & & < < & & ; < ; ; < ; & + O $ ; 1 p p p p h z a p p 1 1 : 1 1 < < & + o O 6 $.` 9 > $ & & & ; : 2 C | /.+X=X=X%X+X}._.=.) C V R R h a g 1 < & & $ > n f.x d < ; $ & & # o . o . . . . . + & # o o . . # & & & $ $ & $ & & & & & & $ + + + + + + + ",
"& & & & & & & & & & & & & & & & & & & & & < ; & & & & & & & & & & & ; < 1 1 < < < & & & & ; 8 g 8 : ; & & & & & & & & & & & & & & & & & & & & < < < < < < & & & < < < < & ; ; ; ; < < ; : 8 R E p < ; < < y 1 1 < < < < < & & & < < < < ; < < < < < < < < < & & ; ; ; & & & < < < < < < < < < < ; ; & & ; & < < < < < < & & ; ; ; ; < < < < < < < < < < ; ; ; < ; ; < & & $ < < & ; : : 1 < y u < 8 V @.*XiXiX:X+X .C 6 = - 6 K ' K 8 1 < < 1 , , 1 < < $ < ; ; ; & < & & & & & & & & ; & < < < < < ; & & & & < ; ; & & & & & & & & & & & & ; & ; & & & @ + # + + & & & $ $ 2 @.3X7X+.9 1 < 1 8 , 1 1 1 a.c 1 1 g h h h h g 1 > < $ + # o o . . . o o o # + o o + $ < y > y < + + & & & & & & & & & & & & & < < ; & & & & & & ; < < & & < ; & < < < & + O O $ : , , 8 , , i p p g 1 1 1 1 : < < $ o o O 2 $.' 9 = $ & & & ; = 8 I %.{.OX[.).{.y.+.S V R 9 9 9 8 g 8 u < & & & & $ x n d d f s & & & + o o o o . . . . # # o o o o o + % @ + + $ + $ & & & + + + + + + + $ + + + ",
"& & & & & & & & & & & & & & & & & & & & & < < ; & & & & & & & & & ; < < < ; ; ; & & & & & & 1 8 8 : ; & & & & & & & & & & & & & & & & & & & & < < < < ; & & & & < < < < & < < < ; ; < < : 8 E ` a ; ; ; < 1 1 y < < ; < < < & & < < < < < < < < < < < < < < < < & & & & & & < < < < < < < < < < ; ; ; & & & & < ; & < & & & & < < < < < < < < < < < < < ; ; ; < ; ; & & & & < < ; & < < < < y > $ < 4 S ).:XpXfX,XoXO.U 7 2 3 K %.U 7 , 1 1 , , , , > $ $ & $ ; < < < & & & # # @ & < & & & & & & < < < ; < < < < < & & & & & & & & & & & & < < < & & & & + # # & & < < > = 3 ;.3X}.C 1 1 1 1 8 8 1 1 = ; < < w g a h a h a 8 8 1 > $ + + # o o # # O O O : : = o > 1 < ; y ; + + & & & & & & & & & & & & & & & & & & ; & & & ; < < < & ; ; < < < ; $ & o o & < 1 : 1 : : , , p g w 1 1 1 , : > O o o O 2 q.w.4 = $ & % % & @ 1 J Y +...S C E E V 9 h R h r 1 1 1 : < ; & + o @ $ & s < < & & & & & + o o o . . o o o # + # # o o + # # # # # & & & & & & + + + + + + & & $ & $ ",
"& & & & & & & & & & & & & & & & & & & & & < < ; & & & & & & & & & < < < < ; & & & & & & & & 1 8 8 , > & & & & & & & & & & & & & & & & & & & & ; & & & ; < < < < < < < < & & < < < < < ; < 8 E ` a < ; ; < < < < < < < < < ; ; & < < & < < < < < < < < ; & < < < ; & & & & & < < < < < < < < < < < < < & & & & < < & < & + @ & < < < < < < < < < < < < < ; ; ; ; ; ; & & & & < < < & ; ; ; < < > & < 1 N =.0XaXgXlXiX=XOXO.U Z P O.X.9 - 1 1 1 , 1 > $ O $ > = ; ; ; < & & & & & & & < ; & & & & & & < < ; ; & < < ; & & & & & & & & & & & ; < < & & & & & @ + @ < < < < = = 3 ;.1X .5 1 1 1 8 8 8 1 1 : = = 1 u 1 1 8 8 8 8 g g p 1 1 1 < ; ; ; ; < > = 6 ~ ` 6 O < 1 < ; < & + + & & & & & & & & & & & & & & & & & & & & & & ; < < & & ; < < < < < ; < & o + < y u 1 : = 1 < < < < : 1 1 1 1 > O o o O 2 %.w.6 O $ & % % + O : J K I C V h a a a a a a a p p 1 < ; ; ; @ O o & & & & & & O + # + + % . o o o o o # # $ + # # # o # o o # # & + & $ + + & + + + + + + & & $ $ & ",
"& & & & & & & & & & & & & & & & & & & & & < < < & & & & & & & & & < < < ; & & & & & & & & & < 8 8 8 < & & & & & & & & & & & & & & & & & & & & < & & & & ; ; & & < < < < & < & < < ; < ; < 8 K Y a < ; < < < < < < < < < < & < & < < & < < < < < < < < ; & < < < < & & & & & < < < < < < ; ; < ; < < < & & & < < < & < & + @ & < < < < < < < < < < < < < & & ; ; ; ; & & & & & < < < & & & ; < & & < , V +.*X:XpXpXpXaXiX=X@X(.O./.;.C 2 1 1 1 1 u < $ $ > h g < ; ; ; < & & & & & & & ; & & & & & & < < ; < & < ; ; & & & & & & & & & & & & & & & & @ & & @ + @ < < < < = = V :.,.Z 4 1 1 1 8 8 8 1 8 1 1 1 : 1 1 1 1 e 1 8 g p g p p h g p d d g g h a a ` 0.7.9 : < ; & < & + @ & & & & & & & & & & & & & & & & & & & & & & ; ; < & & ; ; < < < < ; < & + O < < y : 1 1 1 < = $ > < 1 1 u 1 < $ o o + 2 $.' - O $ & # @ O = 4 ! ~ V 9 g h g a a a a 8 p p p 1 > & & @ ; @ O & < & < & < < O o & & s % % & % + % + + $ + + # # o o o # @ # & # + + + + # + + + + + + & & $ $ $ ",
"& & & & & & & & & & & & & & & & & & & & & < < < & & & & & & & & & < < < ; & & & & & & & & & ; 1 8 8 < & & & & & & & & & & & & & & & & & & & & < & & < < ; ; & & < & < < < & & < < < & & ; 8 K Y J 1 < < < < & < < < < < < < < ; & ; ; < < < < < < < & & & & ; & < & & & & ; < < < < < < & & < ; < < < & & & ; < < < < & + @ & < < < < < < < < < < < < < & & & < ; ; & & & & & < < < & & & ; ; & & < 8 J ' ,.).=XiXiXiXpXiX:X=X%X`.}. .M 3 8 , , y < $ $ g b.x.g < < ; < & < & & & & & ; ; & & & & & < & ; & < & ; & & & & & & & & & & & & & & & & + + @ & @ + @ < 1 < ; = - S _.>.N 9 1 1 8 8 1 1 8 8 1 g g , p u 1 : 1 1 8 8 8 h h g h g 8 p p p R R R a J T r.` - O & & & + + & & & & & & ; & & & & & & & & & & & & & & & & & & < & & ; ; < < < < < < & @ + $ ; y 1 u 1 y < ; = ; < 1 1 1 < ; + # o + - ) ( - $ + + $ O : 9 V V R 9 9 8 1 1 1 1 p 8 : 1 1 < ; > $ & @ @ & @ & & + & & ; q @ O & * & & & & % % % + O O O O o o o # # # @ # & # # # + + # + + + + & & & & & & & ",
"& & & & & & & & & & & & & & & & & & & & & y < < & & & & & & & & & < < < & & & & & & & & & & @ 1 p p 1 & & & & & & & & & & & & & & & & & & & & < & & < < < < & & & & < < < & & < < & & & ; 8 K Y J 1 < < ; & & < < < < < < < < < < < < < < < < < < < & & & & & & < & $ $ & < < < < < < < & & ; < < < < & & ; ; < < ; < & $ @ & < < < < < < < < < < < < < & & & < ; ; & & & & < < < < & & & $ $ & & ; 8 a E K P :.*X:XiXiXiXiXiX-X;X%X`.o.U C J 9 , < $ = j.!.H.v 1 < ; < < < & & & & & ; ; & & & & & < ; ; ; < & & & & & ; & & & & & & & & & & & @ + + & & & & & < 1 < ; $ - ..OX;.9 i 8 8 9 8 1 1 1 8 , p p i p p 1 1 1 1 1 8 8 p a 9 h g a 8 9 9 h R h h 9 J 0.q.9 O + & @ o # & & & & & ; ; ; & & & & & & & & & & & & ; & & & & & & & & ; ; < < < < & & + + o $ < y y 1 1 < < < ; > < 1 1 < & # o o o - ( J = & # + > = 9 J a 8 8 g p p u d < ; ; < : < ; & & & + & $ & & & & & & ; & & q & @ & & @ o + + + o + + o O O $ + o o # # # @ # @ & # $ & # # + + $ & & & & & & & & ",
"& & & & & & & & & & & & & & & & & & & & & < < < < & & & & & & & & & < < & & & & & & & & & & @ 1 p p 1 ; & & & & & & & & & & & & & & & & & & & & & & < < ; < & & & & & & < < < & & & & & ; 1 K Y J , < < ; & & & < 1 1 < > < < < < < < < < < < < < ; & & & & & & < & + + & < < < ; < < < & $ & < < < < & & ; < < < < < & $ & & < < < < < < < < < < < < < & & & ; ; ; & & & $ < < < < & & & $ $ & < : 8 9 9 4 2 B :.%X:XiXdXiXiXiX:X:X-X%XOX>...B 3 2 = r V.!.D.d.w < ; ; < < & & & & $ & & & & & & < < < & & < & $ & & & & & & & & & & & & & & & + o & < < < < y 1 : = < $ 2 ;.3X@.9 p p 4 9 8 1 1 1 8 8 8 6 6 8 u 1 : ; : 1 8 8 p 8 6 8 8 8 a 8 9 h R g 9 h a K q.~ O $ & + o o & & & ; ; ; ; ; & & & & & & & & & & & & & < & & & & & & ; ; ; ; < < < $ # + @ O + & ; < < = ; < < ; O > < < & + o o o o - ( 9 = + + O = 6 a a a u y < u u u d y ; $ < < ; & & & & + & $ $ & & & < + & ; @ $ ; ; & & + o . o o o + + o O > 1 > o # & & # # # # & $ & & + & + $ $ $ & & & & $ & & ",
"& & & & & & & & + + & & & & & + & & & & & & < < < ; & % + & & & & ; < ; & & & & & & & @ @ @ $ < u p y < > & & & & & & & & & & & & & & & & & & & & & & < < < < < & & & & & & < ; & & < < < 1 a K a : > < ; & & & < y 1 < ; < ; < < < < > < < 1 1 < ; & & & & < < & $ $ $ ; < y < < < ; & @ + @ ; < 1 1 < & & & ; < ; < & + + & < < < < < < < < < < < < < & & ; ; ; & & & & $ < < & & & & & ; > : 6 a V 5 : 8 8 9 I >.@X=X,XiXiXiX:X:X:X:X;X&XoX(. .S m [ S.F.J.1.g < + & < & & & # # & & & & & ; & < < < & & < & & & & & & & < < ; ; ; & & & & @ + + > > < 1 1 1 1 1 < > = N >.].U 8 p p r 8 8 1 1 1 1 1 1 8 8 8 1 : : : , 8 p g p p 8 8 8 8 h p 8 8 9 h g g : 7 $.` = O + # # & < < < < ; ; ; & & & & & & & & & & & & & & < < & < & & & & ; & ; < & O + $ + o O @ & & & @ O ; < < < ; $ & & + o o o O = 4 Y a = O > 6 J a g u 1 1 < < < < < < < ; $ ; & & & & & & & & & & & & & & & & & & & & & + & < o o + $ > $ $ & O - 9 - O o o + & & & & + O $ $ + & + + + + + + $ $ $ & & ",
"& & & & & & & & @ @ & & & + + + % & & & & & < 1 : < = @ + & & & & ; < < ; & & & & & & & @ @ $ < y u y < > & & & & & & & & & & & & & & & & & & & & & & < ; ; ; < < < < & & & & & & & < < < 1 a K a : ; ; & & & & < 1 1 ; & & ; < < < < < ; , p 8 ; @ & & & < & < & $ $ $ ; < < < < ; & & @ + @ ; < 1 1 < & & & < < ; ; & + + & < < < < < < < < < < < < < & & < < < & & & & $ < < < & & & & ; : 7 L ` J 4 : 1 8 9 J ( +.,.XX=X:XiXiXiXiXiX:X:X:X;X*X}.o.B.K.F.U.l.g ; & & < < & & # + & & ; & & & ; < ; ; & ; ; & & & & & & & & & & & & & & & & @ + $ ; < 1 1 1 1 1 1 < O = B y.;.C 8 8 p 8 8 8 8 8 8 1 1 8 1 1 1 1 1 1 , 1 1 8 p 8 p 8 8 p p p 1 , 1 9 a g h 1 9 ' w.2 O # @ @ & < < < < ; ; & & & & & & & & & & & & & & & < < & ; & & & & & & ; & & + ; < < & o o o o # # O = < 1 < $ & + o + o o o + = N I 2 $ < 8 R E i g 1 1 < < < < < < < < ; > & & & & & & & & & & & & & & & & & & & & ; & @ < s & + q d < $ $ + = 2 V 6 O # o $ & # & & + O $ $ $ & + + + + + + + + + + + ",
"& & & & & & & & & & & & & + + @ & & & & & ; < 1 6 6 8 ; @ % % & & < : < ; & & & & & & & & & & ; y y 1 < > & & & & & & & & & & & & & & & & & & & < < < & ; ; ; & < < < < & ; & & & & & < < 1 a K a : ; ; & & & < < < < ; & & < < < & & & ; 9 J 9 ; & & & & < & & & $ $ $ ; < < < < & & & & & & ; < 1 1 < & & & < < ; ; & + + & < < < < < < < < < < < < < & & < < < & & & & $ < < > $ % @ $ = 7 Y q.e.R 1 1 1 8 9 a R G U @.}.%X:XiX:X:X:X:X:XiX:X:X;X*X1XB.z.U.n.g ; & < < < ; & # + & & ; & ; ; ; < < & & ; ; & & & & & & ; & & & & & & & & & + + & < < 1 u u 1 1 d < O - P {.@.N 8 8 8 p 8 8 8 8 8 8 8 1 1 1 1 1 1 1 1 1 1 , , 1 8 8 p g 8 8 , 1 1 8 8 a g g 9 ( B.V O o + # & < < < ; ; ; & & & & & & & & & & & & & ; < < & & & & & & & & ; ; & & & < d d < $ + o o # # & + > > > $ % X . o o o o O 2 U ;.C = - 9 E 9 6 : < < < ; < ; > ; < > ; < & & & & & & & & & & & & & & & & & & & & & & & q s q @ f f & $ # + = 2 K K = + + & & # # # + + $ & # & + + + + + + $ $ $ + + ",
"& & & & $ $ & & & ; & & & + + @ & & & $ > ; < 8 9 J E 9 : ; O + > : , 1 ; & & & & & & & & & & ; < 1 < ; > & & & & & & & & & & & & & & & & & & ; < < ; & & & & & < < < < & ; & & & & & < ; : a K a 1 ; & & & < < < < < 1 < ; ; < < & & ; - J T Z 8 ; & & & & & & & & $ $ & < < < ; & & & & & ; < < 1 < < & & & ; < & ; & + @ & < < < < < < < < < < < < < & & & < < & & & & & ; < < & & O = V ) y.t.' a : d 8 8 e g r r 5 C +.-.XX;X:XiXiXiXiXiX:X:X:X;X2X>.3.b.f.1 ; < < < ; ; & & $ & ; ; & & & & & & & ; < ; & & ; ; ; ; ; & & & & & & & & @ + + < < y 1 u 1 1 1 1 ; O 2 X.<XU 7 8 , , , 8 8 8 8 8 8 1 1 1 1 1 1 , p 8 1 1 , , , 8 8 8 g 8 8 8 8 8 8 8 8 p 8 9 ( u.K $ + o o & s < < < ; ; & & & & & & & & & & ; ; & & < & ; & & & & & & & < < < < ; ; < < < y < & + # o % o # $ # # # X X o o O = 2 U {.$X;.3 V E V 6 : 1 < < ; ; ; ; & & & $ & < & & & & & + & & & & & & & & & & & & & @ + + & & < & & f s % o # o O 2 ' $.- + $ & & + # # + + $ $ # + + + + + + + & & & & & ",
"& & & & & $ $ $ < 1 < < & @ @ @ & & & & $ $ < 8 a ( ' Y V 4 = = ; : 1 < ; & & & & & & & & % @ & < < < ; & & & & & & & & & & & & & & & & & & & ; ; < ; & & & & & < < < < & ; & & & & & < ; : a K a 1 ; & & < < < < < 1 8 g ; < < y * & < 4 P %...a > & & & & & & & & $ $ ; < < < & & & $ & ; ; < 1 1 < < & & & ; < & ; & + @ & < < < < < < < < < < < < < & & & & & < ; < & + ; < < < = - 5 ..>.y.) V 8 1 d g g 1 1 e e 9 5 E ) ;.}.*X9X:X:XiXiX:X-XdX:X7X,.3.2.g ; ; ; < ; ; ; & & $ & ; ; ; & & & & & & ; ; ; & & ; & & ; & & & & & & & & & @ + $ < < y 1 1 1 1 1 < $ = 5 y..XK 9 8 1 , p p 8 8 8 8 8 1 1 1 8 1 1 1 p p 8 1 , , , 8 8 8 8 8 8 p 8 8 g g p p 1 8 K u.U + + . o & s < < < ; ; < & & & & & & & & & & ; & & ; & ; ; & & & & & & < < < < ; ; ; < < y y ; + + o o . # # o o o o o O = i L Y %.}.*XOX .) K 6 : < 1 < ; ; ; $ & & + $ $ & & & & & & + + & & & & & & & & & & & & & + + + + & & & + < & + o o o O 2 %.t.2 O $ $ $ & o # & + $ + # + + + + + + + + + + # # ",
"& & & & & $ $ > , 8 , 1 < & @ @ & & & & & & ; 1 9 E ' %.U I 9 6 : < < < & & & & & & & & % % & & & ; ; ; & & & & & & & & & & & & & & & & & & & ; ; ; & & & & & & & & < < & < < & & & & < ; : 9 K a 1 ; & & < > < < 1 8 J E 2 : < y * & 1 V X.y.%.J : ; & < & & & & & & $ & < < & & & + $ & < < < 1 1 < < & & & ; < & & & @ @ & < < < < < < < < < < < < < & & & & & < ; < & $ ; < < = - V ..:.:.+.N 2 1 1 d 1 1 1 1 1 1 : e h R ( $.;.OX%X=X;X;X;X-X:X;X8X<XZ.3.1 < < ; < ; < ; & & $ & ; & & & & & & < < ; ; < & & & & ; ; & & & & & & & & & + O $ < < 1 1 1 : : < < O = C .X XJ 8 8 8 8 p p 8 8 8 8 8 8 8 1 1 1 8 , 8 1 8 8 p p 8 8 1 8 8 8 8 8 9 9 r g h h 8 - V p.U $ + o o @ y < < < < < & & & & & & & & & & & & & ; ; ; ; < $ ; ; $ ; ; ; ; < ; < < < < < < y < > $ O o o o o o o + O = 6 a ~ 8.L C  .$X8XOX@.N - 1 > < ; < ; & & & $ + + & & & < & $ + & & + ; & & & & & & & & & & & & + + & @ @ & $ + o o # & o O - U  XB = O $ & % # % & + & + # # + + + + + + + & & + + ",
"% % & & & & < < p h a p < $ & & & & & & & & @ ; 8 V I $.%...I J 9 1 < ; & @ + & & & & & % % & & & ; ; ; & & & & & & & & & & & & & & & & & & & < ; < & & & & & & & & & & & < < & & & < < ; > 9 E h u $ & < < < < < 1 9 I q.K 9 < & & & 8 Y :.@.I a , < < & & & & & & & < < & < & + + + & < < < < 1 1 1 < < ; & ; < & < & @ @ & < < < < < ; ; ; ; ; ; ; ; < & & & < < < $ + $ < 8 8 6 7 +.i.t.) N 5 1 1 1 d 1 1 1 , 1 1 < 1 e a J J I +.;.:.).).`.=X;X;XeX<Xm./ 8 1 < < < < < < & # $ & & & & & & & < < < < < < & & & & & & ; & & & & & & & @ + $ ; < 1 1 1 1 1 : < ; = - U 1Xt.9 1 1 8 , 8 8 8 8 8 8 8 8 1 8 8 8 8 8 p 8 p p p 8 p 8 8 8 p g 8 p a a 8 8 p p 8 2 V <X..O . o o O & < < ; ; ; $ $ & & & & & & & & & $ & & ; < ; ; ; < ; ; ; < < < < < < < < < < ; < y < < $ # . . . o O = 6 J J J 9 a i : V [.=X$X;.3 - > < < $ ; & $ + + & + $ & & & & & & $ & & & & & & & & & & & & & & + & & + + @ @ & ; @ & & & & + O = Z  XU - O & # o # & & & & & $ # # + + o o + $ $ & + + ",
"% % & & & $ < < p a a p < $ $ & & % % % & & & ; : 9 V I ......T K a : ; ; @ + @ @ & & & & & & & & ; ; ; & & & & & & & & & & & & & & & & & & & ; & & & & & & & & & & & & & < < & & & & < ; = 9 E R u > & < < ; < ; 1 9 U y.%.I 8 > ; < N ..X.T 9 9 u < ; & & & & + & & < < ; & & + + + & < < < < 1 1 1 < < ; & < < & & & @ @ & < < < < < ; < ; ; ; ; < < < < & < < < < & @ = , i 7 N U i.y.' V 8 1 1 1 1 1 1 , : 1 1 y y y u p g g h E ( ) ) +.@._.$X7XeXB.E W h 1 > < < < 1 < & # $ & & & & & & & ; < < < < & & & & & & & & & & & & & & & + + $ < 1 1 1 1 1 1 < < = = 3 *.<XU 9 1 1 8 8 8 8 8 8 8 8 8 8 8 8 8 8 8 8 p , , 8 p 8 p p 8 8 8 8 8 p 9 8 8 , 8 p 8 8 K p.P = o @ + O + < < < ; & $ & & & & & & & $ & & & & ; < < < $ ; < < < < < < < < < < < < < < < < < < & & % o o o $ h ~ ` ` ~ a : : 1 ; -  .oX=X].C - < y < $ $ $ & & & & & & & & & & & & & & & & & & & & & & & & & & & $ $ + @ & & @ @ & @ & & $ & @ @ ; B  X*.3 > < # % # $ + $ ; & & $ & & + + & & & & & + + ",
"% % & & & $ ; < p a p u < $ & & % % % % & & & ; ; : 1 9 C T $.$.Y J 8 - = ; ; @ @ @ @ & & & & & & ; ; ; & & & & & & & & & & & & & & & & & & & & & & & & ; ; ; ; ; ; ; ; & < < & & & & < ; = 9 E R 1 > > < < ; < & ; 9 U y.{.%.C - - 7 P t.+.V 1 1 y < < & & & & # + & < < < & & @ + & ; < < < < < 1 1 < < ; ; & < & & & @ @ & < < < < < < < ; ; ; ; ; < < < < ; ; & & @ $ = a E J I %.%.Y 9 1 1 1 1 1 1 1 1 : < < < y y u u p p g a J R E E E ( ) ;..X5X&.E / g 1 > ; < ; < ; & # $ & & & & & & & ; < < & & & ; ; ; ; & & & & & & & & & & & & ; < 1 1 1 1 1 1 < ; > = B y.p.M 8 1 1 8 8 8 8 8 8 8 8 8 8 8 p p g h p 8 8 8 p p 8 g p 8 8 8 8 g g 8 8 8 p p p 1 4 K u.Z 1 $ $ + O $ < < < & & ; & & & & & & & & & & < < < < ; ; $ ; < ; ; ; < < < < < < < < < < < < < < & & . o + = 9 ' ' I E ! g e e u < = B [.rX*X| 4 < < < ; & & & ; ; & & & & & & & & & & & & & & & & & & & & & & @ & & $ $ & & & @ + & @ & & = ; + + + 7 t.<XN = $ + # o # $ & $ ; $ $ & + # + & & & @ & $ + ",
"% % & & & $ ; < , p u 1 > > & & & & & % & & & & & & ; = 6 J K Y Y K 9 6 6 9 8 : ; @ @ + $ & & & & ; ; ; & & & & & & & & & & & & & & & & & & & & & ; ; ; < < 1 < < < ; ; & ; ; & & & & & ; = 9 E R , > ; < < ; & @ : 9 Y ;.].].| B C U t.u.I 4 < ; < < < & $ & & # + & & < < & & & & & < < < < < < : 1 1 < < ; & < & & & @ @ & < < < < < < < < ; ; ; < < < < < ; ; ; & ; < , 9 J K T ' K 9 1 1 < < < 1 1 1 < < ; < < y u u , 1 1 1 8 p a h R R ! E I ' B.[ W R 2 - < < < ; ; & @ # $ & & & & & < ; < < < ; & & ; ; ; ; & & & & & & & & @ & & & ; < 1 1 1 1 1 : < > = - S {.e.7 1 1 1 8 8 8 8 8 8 8 8 8 8 8 8 8 a h g 8 , 8 p p p p 8 8 8 8 p g g 8 8 8 p p 8 : 6 Y u.S 9 1 < $ + + & & & & & < ; & $ + $ & & ; < < < < < < ; ; ; ; < ; ; < < < < < ; < < ; < ; ; < < & & # . o = 6 J J J 9 9 r h g 1 w < O 6 %.>XrX,.5 = ; > < < ; < < & & & $ & & & & & & & & & & & & & & & & & ; & + & & + & @ & & & & & @ & & $ $ O o o - T <XI : O $ $ # & & & $ $ + + & & & $ & & & & & & + ",
"% % & & & $ ; < < 1 < ; $ & < & & & & & & & & & & & + & > , 6 9 V J K B K K K 9 8 1 @ + & & & & ; ; ; ; ; & & & & & & & & & & & & & & & & & & & & ; < < , 1 8 , 1 1 < < & ; & & & & & & ; = 9 R R , > ; < < & & ; 1 g J T :.].(.@.;.i.y.q.J 1 1 ; < y < & $ & & # & & & & $ & & & & & < < < < < < : 1 1 < < ; & < & & & @ @ & < < < < < < < ; < ; ; < < < < < & & ; = , 9 9 6 9 9 K a 8 1 , 1 < < < 1 1 1 < ; @ < < y < 1 1 1 1 < < 1 1 g h h h h r V E E 9 9 2 - 1 ; $ & & @ + # $ & & & & < < ; ; ; & & & & ; ; ; ; & & & & & & & @ @ & & ; < 1 1 1 1 1 1 < < O O 2 +..X' 2 : 1 1 8 8 8 8 8 8 8 8 8 9 8 8 9 9 8 9 8 , 8 p p 8 8 8 8 1 8 g 8 8 8 8 1 1 p , < 6 ' M.C 9 8 1 < $ O & & & & & < ; & $ + + & ; < < < < < ; < ; $ ; ; ; ; ; ; < < < < < < < ; < ; ; < < & + o . o 1 a h g 8 e d 1 g 1 < < ; O O B }.=XXXU - ; < ; ; ; < < < & & $ $ & & & & & & & & & & & & & & & & & & & & & + & @ + + & & @ @ % $ $ $ @ & + > V {.%.6 = = $ & s $ $ + & & & & & & + + & & & & & + ",
"% % % & & $ & < ; & & & $ & < & & & & & & $ & & & % & & & & > , 4 V K T T ..$.Y J 8 < & + & & & ; ; < < ; & & & & & & & & & & & & & & & & & & & & ; < 1 8 8 p 8 8 1 1 < & ; & & & & & < ; = 9 E R 8 > ; & < & ; < q g 9 V D ;.].[.}.{...K , < < < y y < & $ + + & & & & $ + $ & & & < < < < < < < : 1 1 < < ; & < & & & + + & < < < < < < < < < ; < < < ; & & & & < - V L J , ; : 1 : ; : 1 , : < < < 1 , : < ; ; & < < < < < ; ; < : 1 p h h g g h h ! R 4 5 J 9 1 $ & & & @ + # $ < & & & ; ; < & & & & & & ; ; ; ; ; & & & & & + + @ + & < < < 1 1 1 1 1 < < $ O 3 ;.{.K - < : 1 p p 8 8 8 8 8 8 8 8 8 9 9 9 9 8 8 8 8 p 8 1 p 8 1 1 8 8 9 8 8 8 8 , u p 1 7 0.&.V 9 p 8 1 ; + + + & $ $ ; ; & + O + & ; & ; ; < < < < ; $ ; < ; $ $ & ; < < < < < < < ; ; ; < & & # o o o < p p 8 : 1 q < < , , 1 ; $ ; 7 @.%X&X_.5 ; > $ ; ; ; $ ; ; & $ $ $ $ $ & & & & & & & & & & & & & & & & + + + & & & & & @ @ @ % $ $ $ @ & o $ 2 ;.p.a = = > $ & & + # # % & $ + # # + + $ & $ & + ",
"& & & & & & & & & & & & > 1 , 1 1 < ; & & & & & & & & & & & & < : 9 J I T ....T K a : $ & & + $ < , 6 9 1 ; & $ $ & & & & & & & & & & & & & & & ; < 1 1 , 8 p p p 1 , < & & & & & & & & ; ; 9 J R 8 > ; < < & ; < 1 g 8 8 m U ;.{.{.t.Z 6 < ; ; < y y < ; & & & & & & & $ + & & & < < < < < < < < < < y < < ; & & & & & @ + & < < < < < ; & & ; ; ; ; ; ; < & & > : 7 Y ' 9 - = = < < < 1 1 1 : < < < < 1 < < ; ; < < < < < ; ; ; ; < 1 u p p p g h g g 8 9 C $.Y 2 O + $ $ $ + + & ; ; ; ; & & < < ; ; ; & & ; ; ; ; & & & & & & $ $ @ + & < y y y 1 , : 1 < > > - A {.y.N = 1 1 : 8 9 i 8 8 8 8 8 8 8 8 8 8 8 8 p 8 8 8 8 1 , p 8 1 1 8 8 8 8 e 8 8 p 1 1 1 V u.[ 9 9 a g d < + o # # & & $ & & + + & & ; ; > > < < ; < $ $ ; ; ; ; ; < ; < < < ; < < & ; ; & < $ + o . + $ < u u < < < ; ; ; < 1 < > $ y : K }.8X$XU - $ O $ & = $ @ + $ $ $ $ $ $ & & & & & & & & & & & + & & & & & + & $ & & & & + @ + + & $ + @ & O O - I B.T - = > & + & & % # % & & + o + & $ & & $ & & ",
"< < > & & & & & & @ & ; 1 p i a i p < & & & & & & & & & @ & & ; < , 9 7 J K K L J a , = & & + = 8 V K K 9 : = $ $ & & & & & & & & & & & & & ; ; > < < 1 1 1 u u u , , < ; & & ; ; ; & & ; < 9 J R u < ; & < & & < 1 u u 1 1 V Y q.%.Y 7 : ; ; ; < < < ; ; ; ; & < & & & & + < < < < < < < < < < < < < y < < < & & & & & $ $ > < < < < & & & ; < ; ; ; > ; & & & > i T $.E 4 : > > < < < < < < < < < < < < < < < < < < < < < < < < ; ; < 1 u d g g z h g 8 2 U i.].U 7 = > > $ # + @ $ > > > & & < > < < ; & & ; ; ; & & & & & & & & & + @ > < y u y u 1 : 1 < > > 2 o..X+.7 : u 1 1 1 9 i 8 8 8 8 8 8 8 8 8 8 8 8 8 8 1 8 1 1 1 8 8 8 8 8 8 p 8 1 1 , p , ; : B i.' h 8 p g g 1 @ o o # & % # # # # + & & > < < < < ; ; ; $ $ $ ; < < < < < < < < ; < & & ; ; & $ > # . . & 1 1 y y > > ; ; ; ; ; ; ; > $ & $ 9 ;.$X*X,.N O $ & + O = & # & > > & > > & & & & & $ & & @ + + & & & & & & & & & & & & & & & + + & & @ & & $ O = 9 B.%.- & + + $ $ + + % & $ $ + # + & # # & @ @ # ",
"< < > & & & & & & @ $ & < , i z h p 1 < & & & < < & & @ @ & & ; < < : : 1 8 8 8 8 8 : > & & @ = 9 Y $.( J 8 < ; @ & & & & & & & & & & & & ; ; ; ; ; < < 1 1 1 y u 1 1 < & & & ; ; ; & & ; < 8 J z , < ; & & & & < 1 u u 1 1 8 9 J a 9 1 : < ; < & & < < < ; ; & < & & & & @ < < < < < < < < < < < < < y < < < & & & & & $ $ > < < < < < < < < < < < < < & % % @ 2 I u.e.K 6 < $ ; < < < < < < < < < < < < < < < < < < < < < < < < ; ; < < 1 u u 1 p h z 1 - D OX>X$X;.m - = = = O # + $ ; < & < ; < < < & < < ; ; & & & & & & & & & & $ < < < < < : 1 1 , 1 < > - B [..XS 4 u u 1 1 1 8 i , 8 8 1 1 8 8 p 8 8 8 8 1 1 1 8 8 , 8 8 8 p 8 8 8 p 8 1 1 p p , : , K y.( h 9 8 1 g 1 = O o o o # o o o o + & < < < < < < ; < < ; $ $ ; < < < < < < < < ; ; & < < > $ + + # o # < 1 < 1 y < < < < < ; < ; < < > & o - B ,.$X@XU - $ & @ ; < ; & & > > & $ > ; & & & & $ & & & & & & & & & & & & & & & & & & & & & & & & & & & O = = , ' u.2 @ + $ < $ & @ + # $ O o + & & # # + @ # # ",
"; ; & & & & & & & & & & ; 1 p p p u 1 < < < < < < & & & & & & ; < < ; ; ; @ @ @ ; 1 < ; $ $ ; 8 K $.0.' R g 1 ; & $ & & & & & & & & & & & ; ; ; < < < < < < 1 y y 1 1 < & & & & ; ; & & & < 8 a h u < ; & < & & < y u 1 1 < ; ; : : < : 1 1 < < & & < < < < < ; & & & & & & ; < < < < < ; < < < < < < 1 < < < & & & & & $ $ > < < < < < < < < u u u < < @ o @ - M  .u.$.9 - > $ < < < < < < < < < < < < < < < < < < < ; < < < < < ; ; < < 1 1 1 1 1 g g : - Z OX,X;X*X-.A B N 7 , $ @ $ & < < ; ; ; ; < & < < < ; & & & & & & & & & & $ ; ; ; < < : 1 : 1 , , > 6 ..1Xi.V 4 8 , 1 1 1 8 i 8 8 8 8 8 8 p p 8 8 8 8 1 1 1 8 8 8 8 8 8 p p p p p 8 8 8 8 p p 1 8 I t.I a 8 8 8 , 1 : = O O + $ + + + + + & < ; < 1 < ; & < ; ; ; ; < < < < < < ; < ; ; < ; ; < > & # o o + > y y < < y 1 < ; ; < < < < < ; $ $ $ < 2 P @X*X{.C = % & ; ; ; & & > & & $ > ; & & & & & & & & & & + & & & $ & & & & & $ $ $ $ & & & & & & & $ ; = = = V e.3 = O + $ $ & @ + # O + + # # # # # # # # # ",
"; & & & & & & & & & & @ & < 1 , 1 < ; ; & y y y < ; & & & & & ; < < < & & & + @ ; < 1 < = = 1 J T ..T ` R g 1 ; & $ & & & & & & & & & & & ; ; < < < < < ; < < 1 1 1 < < ; & & & ; < & & & < 1 a h u ; & & < & & < 1 , 1 < ; ; ; < < < < 1 1 1 < < < < < < < & & & < & & < < ; ; < < < < ; ; < < < < < 1 < < < & & & & & & $ > < ; < < < < y u u u 1 > > = - 5 Z  .,.+.V 8 = $ < y 1 < < < < < ; < < < < < < < < < < < ; < < < < < ; ; < < 1 1 1 1 1 1 1 : 1 K y.=X:X0X=X+X).;.P B 6 : $ & < < 1 < ; ; ; < < < < < & & & & & & & & & & & & & ; ; : ; ; ; 1 , , , B ,.4X%.7 8 p , , 1 1 p p 8 8 8 8 8 8 8 8 8 8 8 8 8 1 1 8 8 8 8 8 8 8 g p 8 , p 8 8 8 p p 1 6 ' *.K h 8 8 8 8 , 1 u 1 < < < < < < & + + & ; < < < ; & < $ & < < < ; < < < ; ; < ; & < < > > < & + o o + > u y > < 1 < < ; ; < ; ; ; ; & & & & ; ; V t.$X#Xt.3 O = $ & ; < ; & & & & & ; ; ; & & & & & & & & & & & & $ $ & & & & & & & & + $ & + + & $ $ ; > O O 2 ' J = + o $ $ $ + # + # + + + o # # @ # # # # ",
"& & & & & & & & & & & @ & & ; > > > ; ; ; d y y y < & & & & & ; ; < < ; & & @ @ ; < 1 1 - 6 9 K U I K J h a , ; & & & & & & & & & & & & & ; ; < < < ; ; ; ; < < < 1 < > ; & & < < < & & & ; , a h 1 > & & ; & & < 1 1 < ; < < > 1 1 < < < < < < < < < < < & & & & ; ; < < < ; < < < < < ; ; < < < < < y < < < & & & & & & & & < < < < < < y < < 1 , 8 7 B U ;.).XX{.I : ; & $ < 1 1 < < ; ; ; < ; < < < < < < < < < < ; < < < < < < < < < < < < 1 u 1 1 1 : 9 $.OX;XpXiX-X;X*XOX;.P N - > ; < : 1 < ; < < < < < < < & & & & & & & & & & & & ; ; ; ; & $ > 1 , 7 | OX.XI 8 p 9 8 , 8 u p p 8 8 8 8 8 8 8 8 8 8 8 8 8 8 8 1 8 8 8 8 8 1 1 8 p u p 8 8 8 a g 1 3 0.%.C h p 8 8 p p 8 h p 1 1 1 < y y < $ $ & ; ; > ; < < & $ ; < < < ; ; ; > ; < < < & < < > > ; @ # o # $ < < < > < 1 < < < < < < < ; < & < < ; = $ : V t.@X@XD - = $ < ; < ; & & & & & ; ; ; & & & & & & & & & $ $ & & & & & & & & & & & + & & $ + & ; > > > O o - E ~ - $ $ $ + & & + + & + & & + # @ & & # @ # ",
"& & & & & & & & & & @ @ & & & + $ ; < < < d y y y < ; & & & & ; ; ; > > $ & & @ ; > 1 8 6 9 Z I I B 7 4 8 9 , > & & & & & & & & & & & & & ; ; < < < ; & & ; < < < 1 < < ; ; & < & < & & & ; 1 g h 1 > & & ; ; & < 1 1 < ; y 1 > : , < < < < < < < < < < < < & & & < ; < < < < < < < < < ; ; < < < < < < < < ; & & & & & & & & < < < < < < < ; = - 3 B | :.[.$X*X3X{.F ; & < > 1 u 1 < < ; ; ; < ; < < < < < < < < < < ; < < < < < < < < < < < < < y 1 d d 1 1 K  .`.:XiXiX:X:X;X+X).;.B 7 - = = > : < < < < < < < < < & & & & & & & & & & < < = O $ & $ $ : 2 M (.+X;.J p p 9 8 8 p p u 1 8 8 p 8 8 8 8 8 8 8 8 8 8 g e 1 1 8 1 1 1 1 1 1 8 p u 8 8 g a h 9 m e.$.V a 8 8 g h p p a 8 , 1 1 < y d y $ $ < < < > > < < & $ ; ; < < < > > > ; < < < & > > < ; & O O O & < 1 < < > ; < > > ; ; ; < < < < $ ; < < < > O = B y.qX{.Z - O & & ; ; & & & & & ; ; & & & & & & & & & & & $ $ & & & & $ $ $ + + + $ & & & & < < < = & # o = J 8.- & & & + + $ & & & + & & & & @ & & & # @ ",
"& & % & & & & & & @ & & & & & & & & & & ; < y y y 1 < & & & & < < ; & & $ & & & & @ = 1 a K U I V 6 - 1 8 8 1 < & & & & & & & & & & & & & ; ; < < < < ; & & ; < < 1 y y ; ; & & & & & & & ; : 1 , > ; & < ; $ ; < 1 1 < < < < < 1 < < < ; & & < < < ; ; & < < < < < ; ; ; < ; ; ; ; ; < < < < < ; < < < < ; ; & & < & & & $ & < < < < = = - - 3 S  .].$X+X*X8X$X,.) 4 ; < > < 1 1 < < < < < < < < < < < < < < < < < < < < < ; ; ; < < < < < < < < < 1 u d 1 8 9 V  .XX;X:XiX:X:X;X&X*X]...7 : : > > > $ & < ; ; ; & & & & & + + + # + + $ > > > < = $ & 1 5 B -.oX+XU 9 p p p 8 p i p 1 1 1 8 8 8 8 8 8 8 8 8 8 8 8 8 8 1 1 1 8 1 1 8 8 8 8 p p p g a a h 9 M e.' J h 8 p p p a p a p 8 , 1 > 1 < O O $ & < ; ; < < < & < < < < < ; < < < < < < < & > > < < & = > > < < < < < < < < < ; ; & & & & < < > > 1 d j y < ; - I .X4X:.N = $ @ ; ; ; & $ & $ & & & & & & + & & & + & & & & & & & & & & $ $ & & $ & & & & & ; > $ $ # o O 6 E 6 $ $ + & @ @ & & & + + + # + # # & # # @ ",
"& @ & & & & & & & % & & & & & & & & & & < < < y 1 < < & & & & < < & & & & & & % & @ < 8 J I T Y 9 - = : 1 1 < & & & & & & & & & & & & & & ; ; < < < ; & & & ; < < 1 1 y < ; & & & & & & & & < 1 , < ; & ; ; $ ; < 1 1 < < < < < < < < < ; & & & < < ; ; ; < < < < < ; ; ; < ; < ; ; < < < < < < < < ; ; < ; < & ; < & & & & & y < < < - 2 N D  .(.$XwXwX*X$X}.@.S 5 1 < < > < 1 1 < < < < < < < < < < < < < < < < < < < < < ; ; < < < < < < < < < < < y y 1 , 8 9 ( %.}.*X;X;X-X;X-X;X*X[.| m - 1 1 1 < ; ; ; ; ; ; & & & & & & & + + + O > > > < > = - N } (.%X=XXXI 9 p p 1 8 p i p 1 1 1 8 8 8 8 8 8 8 8 8 8 8 8 8 1 1 1 1 1 1 8 1 1 1 8 u , 8 8 8 9 8 6 Z e.K J a p p 8 p 9 p p p p p p 1 y < O O $ < < < ; ; ; < < < < < < < ; ; < < < < < < ; > < < & $ - 8 , 1 < $ ; < < < < < ; ; & & & & < < < ; < 1 d u 1 ; O 2 U }.1X$.6 < O ; ; ; ; $ $ $ & & & & & & & & & & & & & & & & & & & & & $ & & & + @ & & & & & & & & o . o = a t $ + & + @ @ $ $ & + + + # # # # & # # # ",
"@ + % & & & & & & % & & & & & % % & & & < < < y < < < & & & ; < < & & & & & & % % & < 9 L Y Y K 8 ; < 1 d < & & & & & & & & & & & & & & & ; ; < < < < & & & & ; < 1 1 y < ; & & & & < & & & ; 1 1 < & & ; ; $ ; < < 1 < ; ; ; < < < < < < < & & < < ; ; < < < < < < & & ; < < < & & < & ; ; ; ; < ; ; ; < < & & ; < & & & & & y > = - 2 B =.OX*X=X=X*XXX}.;.A 3 8 1 1 < < > < 1 1 < < < < ; < < < < < < < < < < < < < < < < ; ; ; ; < < < < < < < < < y 1 < 1 1 1 g V U ,.@X*X%X=X-X-X;X=XXX| 7 : 1 1 1 < ; = ; ; & & & & & & & & & & $ & < < < > - 6 B  .XX8X9X+X(.K 9 p 8 1 1 , p p , 1 8 8 8 8 8 8 8 8 8 8 8 8 8 1 1 1 1 1 1 1 1 8 1 1 1 , , , 8 8 8 8 2 P %.J a 9 p p p p 8 8 8 8 8 , , , 1 y > O & < ; < < ; ; ; & < < < < < ; ; ; < < < < < ; ; < & + = 2 J p 1 < < < < < < y < ; ; & & & & < < < ; ; < y 1 u < o O 2 | 1X.XI : = ; ; ; ; ; > ; & & & & & & & & & & & & & & & $ $ $ $ & & $ $ & & + + & & & & & & & % o . o O p t O + & @ @ @ + + $ & + + + + # # # # # # ",
"@ @ & & < < & & & % & & & & & % % % & & & < < < < < ; & & & ; < < & & & & & & & % & < 9 J K J 9 : < d l j d ; @ @ @ & & & & & & & & & & & ; ; < < < < < & & & ; < 1 1 y < < & & & & < & & & ; < < < & & ; ; $ ; < < 1 < ; ; ; < < 1 1 1 < < ; ; < < < < < < < < < < & & & < < < & & & & ; ; ; ; < < ; < & & & & ; < & & & & & & $ = 7 Z ;.OX=XrX&XOX,.| U V 2 - < < 1 > > $ < , 1 < < < ; ; < < < < < < < < < < < < < < < < ; ; < ; ; ; < < < < < < < < < ; < < < 8 9 9 V ) ;.{.+X=X;X:X:X;XXX| 7 1 > : 1 < < ; ; & & & & & & & & & & $ $ & & & = 2 A O.%XrX8X`.-.@.( 9 8 1 8 1 , p p 1 8 8 8 8 8 8 8 8 8 8 8 8 8 8 1 1 1 1 1 1 1 8 1 1 : : 1 , , 8 8 8 , 6 ..+.J 9 a a p p 8 8 , 1 1 1 1 1 1 1 y > O & < < < < < < ; ; < < < < < ; ; ; < < < < < < ; & + $ - J ~ 8 1 1 1 1 < < < < < < ; & & & & < < & & ; ; ; 1 u 1 = + O 3 ;.4Xt.3 = < ; < ; ; > ; & & & & & & & & & & & & & & & $ & $ $ & $ $ $ & & + @ + & & & & % % # o . o o > > O $ # @ @ @ + + $ & & & + + # # # # # # ",
"& & & & < < & & % % & & & & & % % % & & & & < < < < & & & & ; < < & & & & & & & & & < , 9 9 8 : ; y l c x j q @ @ @ & & & & & & & & & & & ; ; < < ; < < & & & < < 1 1 1 < ; & & & & < & & & & ; < < & & ; ; $ ; < < 1 < ; ; ; < < 1 , , 1 < ; ; ; ; < < < < < < < ; & & & < ; < < < & < & & & & & & & < ; ; < & & & & & & + & & = 6 I ;.OX*X%XOX,...S N 2 1 1 < < y 1 < ; $ ; y < < < ; ; ; ; < < < < < < < < < < < < < < < < < < < < < < ; < ; < < < < < $ $ < < 1 g p p J K T ;.[.=X;X:X-X=X[.P 9 : < u < < ; ; & & & & & & & & & & $ $ + @ O 2 Z -.%X;X*X). .I Y ' J 4 4 r 8 p u u 8 8 8 8 8 8 1 1 8 8 8 1 8 8 8 8 1 1 1 , 8 1 1 1 : : : 1 u 1 8 8 8 , 6 @.+.9 9 a 8 9 8 8 1 1 1 1 1 8 e g d y > O & < < ; < < < < < < < ; < < ; ; ; ; ; ; ; < < + + o = 9 ` L 1 1 1 : < < < ; < < < ; & & & & & & & & ; ; ; 1 : u u < $ - S @X}.} 6 < < < ; < ; ; & & & ; ; & & & & & & & & & & $ $ $ $ $ $ + + + $ + + + $ & & + + o X o o o . o O $ & + @ @ + + $ $ & & & @ + # # # # # # ",
"& & & & < < & & % % & & & & % % % % & & & & & < < ; & & & & ; < < ; & & & & & & & & ; : 1 1 < $ ; d l c c x d ; @ @ & & & & & & & & & & & & ; < ; < < & & & & ; < 1 1 1 > > & & & & < < & & & ; < < & & < ; $ ; < 1 1 < < < ; < < < : 1 1 < ; ; & ; < < < < < < < ; & & & < ; ; & < & & & & & & ; & & < & ; < & ; ; $ $ $ + & & ; B %..X$XOX:.+.B 9 8 8 1 < < < y < 1 ; ; $ ; y < < ; ; ; ; ; < < < < < < < < < < < < < < < < < ; ; < < < < < & < < < < ; $ $ ; < u g , 8 p a J K | ).%X;X:X:X=X(.B 8 < y < $ & ; & & & & & & & + + + + O O = 2 Z :.7X8X+X:.U K J K 0.K : 8 r 8 p u 1 8 8 p 8 8 1 1 1 1 1 8 1 8 8 8 8 8 8 1 8 8 1 1 1 : = : 1 u u 8 8 g 8 6 *.$.a h 9 8 8 8 8 1 u 1 1 1 1 1 1 u y $ + & < < < ; < < < < < < ; < < ; ; ; ; ; ; ; < < o o o - J ' J : < 1 - < ; ; ; < < ; & & & ; & & @ & & ; ; < ; < d l y $ ; V ,.$X}.B = & < ; < ; & & & & ; ; ; ; & + & < & & & & $ $ $ $ $ $ @ + @ @ + + + $ & & # o . . o # # . . o $ # & @ @ + + $ + & & @ @ @ @ # # # # # ",
"& + & & & & & & & % & & & & % % & % & & & & & & & & & & & & & & < & & & & & & & & $ < , 1 < @ & < d h ^ a.^ j ; @ @ & & ; & & & & & & & & & ; < ; < < & & & & < < > 1 u > > & & & & & < ; $ O $ < < < < & < < : 8 9 9 6 : < < & ; < : : 1 : < < & @ ; < ; & & s & > > & ; < < < < < ; ; & & & & & & & < & & < < > < & $ + + $ ; 4 Y t. X;.P m 5 1 1 , , 1 < < < < < < ; & & < y < < < < < < < < < < < < < ; < < ; ; < ; < < & & < < & & & & & & < < < < & + & < ; < 1 : 1 1 8 g h J ) _.=X:XaXhX&XO.Z , & & & & & & & @ @ @ @ & & O o # O = 3 } (.$X7X}.@.U ~ E J J T K - 8 1 1 1 1 1 8 8 p p 8 8 8 p , , 8 8 , 8 g g 8 , , : 8 1 1 , , 1 : < : , p p 1 1 9 $.Y J a 7 a 8 1 : 1 : 8 8 8 8 1 1 u < + + ; < < ; ; > > < < < ; & < < < > $ & & & ; y $ + O O B 0.K 8 1 1 1 > ; ; & & & & & & & & & & & + $ & < < y $ $ < g y ; O - I @XqX| 2 < < < ; ; ; ; & & ; ; & ; ; ; & & & $ & < & + & & & & & & # + % & & # o . o o . o & & & o X . o o o # o o + + + o # & & # # + # # # # ",
"& & & & & & & ; & & & & & & & & & & & & & & & & & & & & & & & & & & & & & & & & & > : 8 , ; @ & < d h ^ ^ c g < & & & & & ; & & & & & & & & ; ; ; < & & & & & < > < 1 p 1 > & & & & & < < ; $ & > = & & $ & < 8 V C 9 8 : < < & < ; < : 1 : < < ; @ @ ; < ; & ; < : 6 8 , 1 ; ; ; ; ; ; & & & & & < & & & & < < ; < ; > $ $ $ ; 9 ` %...K 5 8 1 q < 1 , 1 < < < < < < < & & < 1 < < < < < < < < < < < < < ; < < ; < < < < ; & & < < & & & & & & < < < < & + ; < ; < < < 1 1 1 e g g R ) _.=X:XpX:X=XO.7 < & & & & & & @ @ @ @ & $ O O $ O 3 U ].[.}.;.D V V J L a 9 Y ` 4 8 1 1 1 1 8 1 p p p 8 8 8 8 1 , , 1 8 1 p p 8 , , , 1 1 1 , , 1 : < 1 , i p u 1 9 0.I a a 9 a 8 8 1 1 1 8 8 8 8 8 1 y < O + ; < < ; ; ; > < < ; < < ; < < > & & & & ; < + # = 6 Y $.5 : ; < < < < & & & & & & & & & & & & $ & ; ; < < ; ; < d < ; O O 7 y.qX,.N < < & @ ; < & & & ; ; & ; & & & & & & & + + & + # # # # # # # % + + # o o o # + & & & o X X . . o # # + + + + + # # # # # # # # # # # ",
"< ; ; & & & & & & & & & & & & & & & % & % & & & & & & & & & & & & & & & & & & & & > 1 , , < + & < d x ^ c g d q < ; @ & & ; & & % & & & & ; ; ; ; & & & & & & < ; < 1 p p < $ & ; < > < < & & & @ $ & & & $ : V T ' J 1 ; < < ; < < < < u 1 < < < < & < < : : 1 9 V I T K 8 < ; < > = ; & & & & & < < < & & < < & < < < < & $ = 8 E K N 6 8 1 < < < y u < < < < < < < < & & < 1 < < < ; < < < < < < < < < < < < ; < ; < ; ; ; & < < & & & & ; & < < < < & $ ; ; < < < < < 1 1 1 8 g 9 C | [.%X;X:X:XOXD 2 ; > > $ & & ; & @ @ & $ O O > 6 ' p.{.;.) G 5 4 9 a a 9 2 K ` 9 8 1 1 1 1 8 p u 8 8 1 8 8 8 1 , , 1 p 1 8 8 , 1 1 1 1 1 1 1 , , 1 : : 8 i a p - 9 w.K 9 a 9 a 8 8 1 1 , p p p 8 1 1 1 ; O + ; < < < < ; > < & & < < < > < & & $ & < ; + o o , Y 0.K 4 1 ; ; $ ; ; & & & & & & & & & & & & & & & & ; ; < < ; < < $ + = 7 @.@X2X..8 < & $ O ; ; & & & & & & ; & & $ $ & & # # o o o o o o o o o # o o o o # # & & & < & o . . . o o + & & & & & @ # # # # # # + + # # # ",
"< < < ; & & & & & & & & & & & & & & & & % & & & & & & & & & & & & & & & & & & & & ; 1 8 1 < + $ < d l c x g g e 8 , = & & ; & & & % % & & ; ; ; ; & & & & & & < ; < 1 p a , & $ ; < < ; @ @ = 1 1 : ; ; < : N U %.$.a < & ; < < < & < y u y < ; < y u t 6 N C ) @.O.[.].$.9 ; ; ; ; & & & & & ; < < < < & & < < & & < < < & $ = 1 8 9 4 1 1 < < < < < 1 < < < < ; < < < & & < 1 < < ; ; < < < < < < < < < ; < < ; < < < ; ; ; < ; < & & & & & & ; & < < < & ; ; ; ; < < < < 1 : 1 8 8 9 K | _.%X;X:X;X(.m - , > > $ > > & & @ $ $ + O 6 Z q.u.%.K 9 9 8 8 9 a 9 8 - 7 E a 8 8 1 , 8 8 8 1 1 1 1 1 1 1 , , 1 1 1 8 8 1 , 1 1 1 1 1 1 1 1 1 1 : 1 p i a p , 9 7.K 9 9 a a 8 8 1 1 8 p p p 8 1 1 < & o + < < < < ; ; > < & < < < 1 < < & & $ $ ; & + O = N 0.9.8 1 : ; & $ > ; & & & & & & & & & & & & < ; & & & $ ; ; $ < < < ; < , I {.7X,.5 < & & $ ; & & & & & & & & & & & $ & + o o . o o o o o o o o o o o # & & & < & & < & o o . . o o # % @ & & & & # # @ # # # + & & & & ",
"< < < < ; & & & & & & & & & & % & & & & & & & & & & & & & & & & & & & & & & & & & ; 1 p u < + $ < y g l l g r g h 9 6 ; & & & & & % % & & ; ; ; ; & & & & & & ; ; ; 1 8 a 8 : & & ; < ; ; = 4 C I V - - 6 V U X.%.Y 9 > & @ ; < < & & y u u > = = 6 J I | ;.:.}.+X%X%X[.+.V - ; ; ; & < < ; < < < & & < & & & & & & & & & & $ ; : 1 1 1 < < < < 1 < < < < < < < ; ; ; < & & < 1 < ; ; ; < < < < < < < ; ; ; ; ; < < < < ; ; < < ; ; & & & & ; & & & < < < & ; ; ; ; < < < < 1 : 1 1 , p a E +.(.%X0X:X%X .3 , > > > $ $ & & $ + + # $ 6 Y ) ( 9 6 1 8 9 8 8 g 8 : 1 2 h a 8 g 1 , 8 8 , 1 1 1 , 1 1 , , , 8 1 , 8 p 1 , 1 1 1 1 < < 1 1 1 1 1 1 p i a p 8 a ' K 9 9 h a 8 8 8 8 p p p p 8 1 1 < $ o & < < < & ; ; ; < & < ; > 1 < ; & & $ > > $ $ = 6 I ' R < = < ; $ $ < ; & & & & & & & & & & & ; < < < & ; ; $ $ $ < y < < < = 7  .oX}.S = & < < ; & & & & & & & & & $ $ $ # + o . . o % & % # # # o o # + & & & & & & & < & o o o . . o o + # & @ @ @ o # & # # # # @ # # # ",
"< < 1 < < & & @ & & & & & & & % & & & & & & & & & & & & & & & & & & & & & & & & & ; 1 8 u < $ % & < d d j g 8 a ~ Y J - & & & & & % % & & ; ; ; ; ; & & & & & ; ; ; < 8 a a 8 ; @ @ @ ; 8 V U %.t...C C I X.X.X.U V : ; < @ ; ; & & & < p a 6 7 9 I ;.].XX+X%X=X=X+X[.;.) K 9 8 1 ; & & & < < ; ; & & < & & & & & & & $ $ $ $ < 1 1 < ; ; < 1 1 1 1 1 < < < < < ; ; ; < & & < 1 < < ; ; < < < < < < < < ; ; ; < < < < < ; < < < ; ; & & & & ; ; & & < < < & ; ; ; < < < < < 1 1 1 1 p p h R C D (.=X:X-X+X{ 2 > $ > $ & & & $ # # # $ , R 9 4 1 : : 8 i 9 8 1 ; : : : g J 9 1 1 , 8 8 8 1 1 , , 1 , , , , , 1 8 8 1 1 1 1 1 < < < < : 1 1 u 1 1 p p a p 8 J ' V 9 a a 8 8 8 8 8 p p p 8 8 1 1 ; + o & < < < & ; ; ; < & < < < < < ; & & ; > O O = 2 I ' J 1 ; ; < ; > ; < ; & & & & & & & & & & & & < & & & ; & $ $ $ < < < 1 < + - S XX7X@.- $ < < $ & & & & & & & & & & & + # o o . o % & & & & & & & & & & & & & $ $ $ & & & # % # . . . . # # # # # # # # # # o # @ & & & & ",
"< < 1 < < ; & & & % & & & & % % % % & & & & & & & & & & & & & & & & & & & & & & & < , , 1 ; # % & & < s d 1 , a ` ' ~ 9 ; @ & & & & & & & ; ; & & & & & & & ; ; ; ; < , J J a : @ @ O 8 K U ;.y.].y.%.;.;.y.;.T J 1 ; ; < ; ; & & & & < i K T | @.y.XX+X*X*X+XOX}.,.+.S K ` ` K 9 - = $ & & $ $ & & & & & & & & & & $ + $ $ $ 1 1 1 < = < 1 < 1 1 1 < < < < < < < ; < < & & < , < < < < < < < < < ; < < < < < ; < < < < & & & & ; ; & & & & & & & & & < & & & & < < < ; ; < < 1 1 1 u p p g 9 V D _.8X;XtXOXS - & ; & % & $ + # o o O = : - 1 8 1 < 1 1 1 1 : < : : < 8 a 9 1 1 , 8 8 , 1 1 1 1 , , 1 , , 1 p 8 , , 1 1 1 1 < < < < : 1 1 1 1 8 p i l p 6 J ' V a h a a 8 p 8 p p 8 p 8 1 1 < $ + # + ; < < & < < < & & < ; < < > < < & & $ O = 6 V ' ~ 8 > ; < < < ; ; ; & & $ $ & @ $ $ & & & & & & & ; & ; & $ $ < y < < < < # = V ).8X}.N = $ ; $ & & & & & & & & & & & # # o o # & & & < < < < ; < < < & < & $ $ & $ $ $ & & & % o . . o o o # # # # # # # # # # % % & & # ",
"> < 1 < < ; & & & & & & & & % % % % & & & & & & & & & & & & & & & & & % % & & & & < , , 1 & & & & & & & s 1 : 9 K ` ` J : @ + & < & & & & & ; & & & & & & ; < ; ; ; < : a J J 9 = ; - K %.X.;.;.:.{.{.{.].;.T V 8 < & & < ; ; & & & & < 9 T y.[.}.@XOX}._.;.@.| I C 9 9 V K ' U I V 6 , > = $ $ & & < < & & & & & & $ & < $ $ : 1 1 : > < 1 < < < < < < < < & < ; < < < & ; 1 , < < < ; < < < < ; ; < < < < ; ; < < < < & & & & & & & & & & & & & & & & & + $ & ; < < & & ; ; < 1 1 1 p p g a 9 9 I {.9XhX9X:.3 = @ % % + + + o o o o O = > , 8 1 ; ; ; ; < < < < : < 1 a 8 1 1 , 1 1 , 1 1 1 1 1 8 8 , 1 p p 1 , , 1 1 1 1 < 1 < < : : : : 1 1 , p h u 2 E ~ V R h 9 9 8 8 8 8 p 8 p 8 , 1 > $ & # o $ < < & ; < < & & < ; < < ; < < $ + O O = 9 K E 9 < < < & < ; ; & @ + + & $ $ + & & & & & & & & & & & ; ; & < < < ; $ ; & % $ 6 =.+XXXU 1 < < $ & & & & & & & & & & % o o # + & & & & & ; $ $ $ $ $ & $ $ $ $ & & $ $ & & & & # o . . . . o o % # # # # # # # # # # & # # ",
"; > 1 < < ; & & & % & & & & & & % % & & & & & & & & & & & & & & & & & & & & & & & < , , < & $ $ & & & & < ; < 1 9 R ~ K 9 = @ & & ; & & & & & & & & & & & & < < ; ; ; : 4 J I V 2 6 K %.t.X...I U i..X<X,.S 3 : < & & & < & & & & & ; : 9 U i..X}.,.@.) C V 9 9 8 8 p 9 9 J I ' ' Y Y J 7 6 , = < ; ; & & & & & & $ & < < > = : : 1 < < y u < < < & & & ; & & < < < < < & ; y u < < ; ; & & < < ; < < < & ; ; ; ; ; ; ; & & & & & & & & & & & & & & & & & $ $ & & < & & & & < < < 1 1 d g p p , : r ) $XtX0XoX} 2 O @ + o o # # o + o O $ < 1 1 < & & & ; < < < < < ; 1 a 8 , 1 , : : 1 p p p p 8 , , 1 p p g p 1 1 1 1 1 1 < 1 < : : : : 1 1 1 , p p , 6 K ~ V R h 9 9 8 8 8 8 p 8 p p , : < ; & + + $ < < ; ; < < ; & < ; ; < ; < < $ + & O , R J 9 : ; < 1 > ; & & @ + + & & $ + & & & & & & & & & & & & & ; ; < ; & $ $ $ + & + - P ).+X@.2 > ; > & & & & & & + & & # o o o & < & + + + $ ; > ; < ; ; < < $ $ & & + + & & & & & $ & o o . . o o # # # # # # # # # # @ & # # ",
"& ; < < ; & & & & & & & & & & & & % & & & & & & & & & & & & & & & & & % & & & & & < , , < & & & & & & & & & ; < : p R K J 1 ; & + ; > ; ; & & & & & & & & & & & ; ; ; < 1 V ` I B C U %.%.U K V ( B.5X5Xu.N - > & & & & < & & & & < ; 1 4 I %.@...K 7 8 1 , , u y y u p 8 8 J E ~ ` ` Y Y ~ J a , < ; & & & & & & & < y < > > , 1 < < < u y < & & & & & & & & < < < < < & ; y , < < ; & & & < < ; < < ; & ; ; ; ; ; ; ; & & & & ; & & & & & & & & & < & & & $ & & & & & & & < ; < < < q w p 1 ; $ < 9  .wXtX;XOXU - O O o o # + + + @ & + ; < 1 < & & & ; < < < < < ; < p 8 , 1 1 : : 1 p , , 8 1 p 8 p p g p p 8 8 1 1 1 1 < 1 1 1 1 : : 1 1 : , u u 1 6 E ~ V 9 a 9 9 8 8 g 8 p 9 p p 8 1 < < & + + > < < ; ; < < ; & ; ; & ; < < > $ $ > > p h 9 : < ; > > > > @ + @ + & & & & @ & & & & & & $ & & & & & & & & & & ; ; ; & + & + O N =.7X<XN = $ & & & & & & & + % # o . o # & & & + + $ $ & > ; < < & & & & & & $ & & $ $ & & & & & # . . . . o o o # # # # # # # # @ & % # ",
"& & < < ; & & & & & & & & & & & & & & & & & & & & & & & & & & & & & % % & & & & & < 1 , < & @ & & & & & & & & & ; 1 a K K a 1 ; @ & > > ; ; & & & & & & & & & & & & & ; ; 9 I T P U @...T V 4 9 h.5XMXnXM.V 1 < & & & & ; & & < ; ; ; < 1 9 J N 6 1 < < 1 1 1 u y < < 1 1 < 8 9 9 J K ` 7.7.` R i > & & & & & & $ & < y u , u a 8 < ; < y < < & & & & & & & & ; ; < < < & ; y u < < ; ; & & < ; ; ; ; ; & < < < < < < < ; ; & & ; & & & & & & & & & < < & & $ & & & & & & & & ; < ; ; < 1 1 < + o @ = N ].8X;X8X].B = O + # $ $ $ ; ; & + & < 1 < & & & ; < < < < < < < 1 , 1 1 1 1 1 1 1 8 8 1 1 8 8 p p p 1 1 8 8 8 1 1 1 : 1 1 1 1 1 1 1 : < 1 y 1 : 6 K E 9 9 9 8 4 8 8 8 8 8 p 9 8 p 1 ; < & O + ; < < < < < < ; & & & & ; ; ; $ O O > u p , < < < ; @ = : = @ & @ @ & @ $ & & & & & & & & & & & & & & & & < & & ; < < & & ; $ O 2 D 2X4XS = + $ & $ $ & $ & & % o o o + & & & & & & & $ + & ; & < & $ $ & & $ & & & & & & & + + & & . . . . . . o # # # # # # # # @ & & # ",
"& & < < & & & & & & & & & & & & & & & & & & & & & & & & & & & & & & % % & & & & & < 1 , < & % % @ @ + % & % & & & ; 8 J I ~ a ; + & ; > > ; & & & & & & & & & & & & & & ; 8 K T X.X.@.I 5 : 1 ~ S.nXnXnXZ.E 8 < < & & ; ; & < < < & & & < 9 i , > < ; < 1 < < < < < < < q 1 1 1 : 1 8 a E ` Y J 9 < & & & & & $ $ & < y 1 , p R a 1 & < < ; < < ; < ; ; & & & < < < < < & < y u < ; ; ; & & ; ; ; ; ; & & < < < < < < ; ; ; & & ; & & & & & & & & & < < & & $ & & & & & & & & & < ; ; < ; ; $ + o o ; 9 S }.9X;X>X;.3 O + # $ > < < < < # & < 1 < > & & < ; < < < < 1 < : 1 g < < : 1 1 p g p 8 1 , 1 1 p , , , , 8 p 1 , 1 : 1 1 1 1 1 1 1 ; < 1 < < < , E R 9 9 9 6 6 6 8 8 8 8 p 9 p u 1 ; < & o $ < 1 < < < < < ; & & & ; > ; & + O = 1 g p < < < & & & @ ; ; < & & & & & & & & & & & & & & & & & & & & & & < ; & & & ; & ; < & O - S }.3X| - ; < & & $ & $ & & # . . o & & @ @ & & & & & & & & & & & & & & & & & + # & & + & & + & & o o . . . . o # # # # # # # # & & & # ",
"& & < & & & & & & & % & & & & & & & & & & & & & & & & & & & & & & & % % & & & & & < , 1 ; & & % % & + % & & & & & & : a Y ' K 1 O @ ; < > ; ; & & & & & ; ; & ; & & & & ; 1 J ' %.$.` 5 : < e k.Q.mXmXBXL.] 8 > < < < ; ; & < < < & & ; : p h y < < < < < ; ; ; < < ; < < : : 1 < < < 1 8 9 J a 9 1 > $ $ & @ @ & < < < > 6 R ` J : ; & ; ; ; ; ; < < ; ; & & & ; ; < < & ; y u < ; & ; & & < < ; < & & & < < < < < < < ; ; & & & & & & & & & & & & & < & & & & & & & & & & & & ; ; < ; & & $ + O @ 1 h J $.OXwXtX$X| - O & > > < < 1 < + $ < < < > ; & < ; ; < < < 1 < < : d < < < < 1 8 , 1 1 1 u p p 1 , : : , , p u , 1 : : 1 1 1 1 1 1 > < < < 1 : 2 E E 9 9 9 9 p i p 8 8 8 8 8 p u < < < $ o + < y 1 < < ; ; ; & & & & $ & & o O > , 1 : ; < & & ; & @ ; < ; & & & @ & & & + & & & & & & & & & & & & & & & & $ $ & & ; < ; & + ; C ,.$X;.5 ; & & & & & $ & & o o # & & & & & & & & + & & & & & + $ & & $ + & + & & & & & & + @ & # + + . . . . . o # # # # # # # & & & & ",
"& & & & & & & & % % % & & & % % % & & & & % & & & @ @ & & & & & % % % & & & & & < 1 u 1 & & & & & & & & & & & & & & ; 8 ~ 0.' J 8 ; < < > $ < < & & & ; ; ; ; ; & & & & ; , a ` ' K 9 : ; < h A.Q.!.!.Q.J.g.8 ; ; ; & & & & ; < < & & < 8 h g 1 ; ; < < ; ; < ; < ; ; < < < < 1 < < ; < < : p p 8 , , > $ @ @ @ & & < ; = 9 ' ' J : ; < < ; & ; & & < < & < < & ; < < < ; < y y < < < ; & & & < < & & & & < < < < < < ; ; & & & & & & & & & & & & & & & & & & @ @ & & & & & & & & & ; < & # o + < < d g g J $.3X9X=XOX..2 < < ; < : < < $ + < < < < ; < < < ; ; ; ; < < ; < 1 < < : < : 1 1 1 1 : 1 u 1 1 1 1 1 : , p u 1 1 1 < < < 1 1 1 1 < > < , h p 7 ( V 9 9 6 9 a a p p p 1 1 8 8 1 < < ; $ # o & < < < > < < & & & & & # o O $ > 1 y y < ; & ; ; ; & & & & & + @ & + & & + & + & & & & ; & & & & & & & & & & & & & & < ; & & O O 6 %.qX<XV = & % % + o o o o o & & & & & & & & & & & & & & & & & $ & & & & & & & & & & & & + + & & & & o . . o . . o # + + # o # & & @ & ",
"& & & & & & & @ & & & & & & & & & & & & & % & & @ & ; $ @ @ & & & & % & & & & & ; 1 u 1 & & & & & & & & & & & & & & & : J ` ` K 7 8 : < & & & & & & & & ; ; ; & & & ; ; ; 1 a Y ` J , = $ ; g c.Y.L.Y.L.F.2.g ; ; ; & & & ; ; < < & & : 4 R h 1 ; ; < < < < < < < < < < < < < < < < < < ; < 1 1 1 8 p , O O % & & ; < ; = V $.$.J : ; < < ; & ; & < < < & & & & ; < < < ; > y y < < < < & & & & < < & & & < < ; ; < < & ; & & & & & & & & & & & & & & & & & & @ @ & & & & & & & & & & < & # o + < d q q r 9 K ,.7X;X=X[.S 6 : < 1 1 1 > $ + & < < < < < ; < < < & ; < ; ; < < < < : : : 1 1 1 1 1 1 1 1 1 1 1 1 1 , u u u 1 < < 1 1 < 1 1 1 1 > : 8 l h 9 ( J a p 6 a a p p g e 8 8 8 1 < ; < y < + # ; < ; < < < ; > = ; & & # o $ < u y < y < & & & & ; ; ; & $ + $ $ & $ & & + & & & & & & & & & & & & & & & & & & & & & ; & & @ O O 2 U $X1XE = $ # # o o o o o & & & & & & & & & & $ $ & & + + $ & & & & & & & & & & & & & & & @ & & % & o . . o . . o + % & # # & & @ @ & ",
"& & & & & & & @ & & & & & & % % & & & & % & & @ @ ; < > = $ @ + & & & & & & & & ; 1 u 1 & & & & & & & & & & & & & & & ; 8 J ` ` K 9 8 ; & & & & & & & & ; ; ; & & & ; & $ < 9 K I J : ; @ ; g l.D.F.F.F.c.W 8 ; ; ; & & < ; < ; < & & < 9 J J 1 ; ; < < < < < < < < < < < < < < < < < < ; < : : , p h a 1 = @ @ + < < < = V %.$.J : ; < < & & ; ; & < < & & & & ; ; < < ; ; 1 1 ; ; < < & & & & < < & & & < < ; ; ; & & ; & & & & & & & & & & & & & & & & & & @ + & & & & & & & & & & & & # # & < ; < < : g J S :.%X;X8X{.C 8 , , u d & + # & < < < < < ; ; < < & ; < ; ; < 1 < < : < : 1 1 : 1 1 : 1 1 1 1 1 1 1 1 , , y 1 < < < < 1 1 1 < u 1 1 p h p V ' E a p 9 a 9 8 8 8 8 8 g e < & < y u y & $ ; ; & & ; ; & < 1 $ & + + $ $ < d y ; < ; & & & & ; ; ; & + + $ & $ $ & & + & & & & & & & & & & & & & & & & & & & & & $ + + @ @ @ - I @X4X) = $ o o o # # & & & & & & $ & & & & & & $ $ + + + + $ & & & & & & $ & & & $ & & & & & & o + o . . o . . o # # # # # + # + # + ",
"& & & & & & & @ & & & & & & % % & & % % % & & @ @ : 8 8 , ; & @ & & & & & & & & ; 1 u 1 & & & & & & & & & & & & & & & @ ; 8 J Y Y J 9 < & & & & ; ; & & & ; & & & & & & & ; 8 J K 9 - ; & ; g j.c.c.z.c.l.k 1 ; ; & & < < < < < < < & < 9 K J 8 < < ; ; ; ; ; ; < < ; < < < < < < < < < ; < < : 1 p h E R 9 = O & < y 1 ; V %.$.J : & & < & & ; & & & < & & & & & & < < > > < < ; < < < < ; & & < < < & & < < ; & & & & ; & & & & & & & & & & & & & & & & & & + + & & & & & & & & & & & # # + & < < < ; = 8 h J ) XX;X0X%X=.N , , < 1 ; + # & < < & ; ; < < < & & ; < < ; < 1 < < : < : 1 : < < 1 < 1 1 1 1 1 1 1 1 , y 1 1 1 1 1 1 1 1 < < u 1 1 1 p p V ' R 9 p a 9 8 8 8 9 9 9 8 1 1 1 1 < 1 y ; = > ; & & ; & & & < & $ o O > < < < ; $ ; < ; & & & & & ; & + + & & & $ & & $ & & & & & & & & & & & & & & & & & & & & & + $ & @ @ @ = B }.1X) = # + + & & & & & & & & + $ & & & & & & $ + $ $ $ + + + & & & & & & & & & & & & & @ @ # o # # . . o . . . o # # + # # # & + o ",
"& & & & & & & @ & & & & & & & & & & & % % & & @ = , i a p 1 & @ & & & & % & & & ; 1 1 < & & & & & & & & & & & & & & & @ & : 9 I ' L 9 < $ & & & ; ; ; ; & & & & & & & & & ; 1 J K 9 = ; & ; g d.l.s.2.s.d.c : ; ; & & < < < < < < < & < 9 K J 8 1 < ; ; < ; ; ; ; ; ; ; < < < < < < < < ; < : < : 1 a ~ 9.~ 6 = @ < y < = 9 ' $.V ; & & < & & ; & & & & & & & & & & & & $ > < < ; ; < < < ; ; & < < < < & < < ; & & & & ; & & & & & & & & & & & & & & & & & & + + @ & & & & & & & & & % # # & & < < ; ; ; : g h K ;.*XtX;XXX| 7 : < ; ; + # & & < & ; ; < ; ; ; ; ; < < ; 1 1 < < : < < < < < < 1 1 < < < < 1 1 1 1 1 1 1 1 y 1 y 1 < < < < > > : : , 8 N ) R 9 8 8 p 8 8 9 9 a 8 1 : : , 1 ; < < & + $ & & ; ; & % & $ & + o O < < ; & & & < < < & & & & & & & @ + + & & $ & & & & & & & & & & & & & & & & & & & & & & & & $ ; < ; @ + = V ].@X+.- # & & & & & & & & & & & & & & & & & $ $ & & & & $ $ + & & & & & & & & + + & & @ & & # # o + o . X . . . . . o # # # & & # # ",
"& & & & & & & @ & & & & & & & & & & & % & & & @ = 8 a R h 1 ; & $ & & & % % @ @ ; 1 1 < & & & & & & & & % % & & & & & @ % & 6 K ' ` a < & & & & ; ; & & & ; & & & & & & ; ; : J J a < ; ; & < v d.1.k c d.a.1 ; & & & < < < < & < ; & : 9 K R 8 u < ; ; < < < ; ; ; < < < ; < < < < < ; ; < 1 1 < : 9 K w.0.K 8 ; 1 y < O 2 Y ' J ; & & < & & ; ; & & & & & & & & & & & & ; < < < < ; ; < < < < & & & & < < < < < < < & & & & & & & & & & & & & & & & & & & @ + + @ & & & & & & & & & + o # & ; & & & & @ < w g R S (.9X;X9XOXU - < < ; # # & & & & ; < < ; ; ; ; ; 1 < ; : 1 < < 1 < < < = < < 1 1 < < < < < 1 1 1 1 < 1 1 1 y 1 1 1 1 < > 1 u d 1 1 8 V ) V 9 8 9 8 1 6 9 9 8 8 1 : : 1 1 > ; & # o % & @ & ; > & & % o O $ < < ; & < < & < < > & & & & & & & & & + + & & & & & & & + + $ & & & & & & & & & & & & & & & & & < < < ; + O 7 :.OX@.2 & & & < < < & & & $ + & & & & & & $ $ $ & & $ $ & & & & & & & & & & & & & & & @ # + o # # % o . o . . . . o % % % % & & + & ",
"& & & & & & & & & & & & & & & & & & & & & & + @ ; 8 J L a 1 < & + $ & & % @ @ $ : 1 1 < $ @ & & & & & & & & & & & & & & % @ : 7 Y L 9 ; & & & & & & & & ; ; & & < & < & & ; : 9 J a 1 < & & q j c j w g v c d ; & & & & & ; < < ; ; ; 4 J ` J 1 < < ; ; < < < < < < ; < < < < < ; ; < < < < < < : : 1 9 I $.' R 1 d < ; ; 9 ' ' 9 1 ; & < & ; ; ; & & & & & & & & & & & & ; y < < < < ; ; ; & < & & & & < < < & & & & & & & & & & & & & & & & & & & & & & & & & & + @ & & & & & & & + o # # & ; < & & ; ; < < 1 h E ..).;X:X;X:.7 < < & @ o @ & & ; < < ; ; ; < < < 1 1 < < 1 1 1 < < ; ; ; ; < < < < < < < < < < < < < < 1 1 1 1 1 < < 1 1 u u d 1 u 8 K ) 5 4 8 8 8 1 8 i p g 1 : : 1 y y 1 > = + $ & + o o @ ; > $ % # O < y < $ & & & & ; < ; & & & & & & + & + & & & + + & & & & & & & & & & & & & & & & & & @ @ & < & & < & @ & + O -  .@X,.3 $ ; ; ; & & & & & & & & & & & & & & & & $ $ $ $ & & & + + & & + + + & & & + & + o + & & & & % % & % o X X . o o % & & & & & ",
"& & & & & & & & & & & & % % & & & & & & & & & @ = , i J a 1 ; & $ & & & & @ @ = 1 1 1 ; $ @ & & & & & & & & & & & & & & % % ; 9 K K 9 ; $ & ; & & & & & ; ; & & & < < & & ; : 9 J a < & & & ; q j j d j l d < & & & & & & ; < & & @ ; 5 T ' a < < < < < < < < < < < < < < < ; ; ; ; < < < < < < < : : 8 J I ` R p p 1 @ @ 9 ' ' 9 < & & < & ; ; ; & & & & & & & & & & ; ; < y < < < & ; & & & < & & ; ; < < < & & ; ; & & & & & & & & & & & & & & & & & & & & & & + @ & & @ & & & & + o # @ & ; ; & & ; ; < < < g R C  .oX:X:XXXU : & & # o + & ; ; < < ; ; < < < < 1 1 < : 1 1 1 : ; ; ; < < < < < < < < < < < < < < < < < 1 1 1 1 < < < y u u u 1 1 6 ` ' 5 : 8 8 1 p p p u 1 > > > : 1 , 1 : ; $ $ $ $ O $ ; = O o # # & < < > ; < < & & ; > > & & & & & & $ $ $ & & & + & & & & & & & & & & & & & & & & & & & @ @ & & & & < & & & + o = | @X{.V $ ; ; & & & & & & & & & & & & & & & & & & & & $ & & & & & + + & & + & & & & & + o o & & @ & & & # . o X . . . o o o % # % & ",
"& & & & & & & & % & & & & % % % & & & & & & & & @ : 8 9 8 : ; & & & & & + @ ; : 8 8 1 ; & % & & & & & & % % & & & & & & + % ; 8 J J 9 : ; & & & & & & & ; ; & & & ; < < & ; : 9 a a > & & & & ; s d j l j 1 ; & & & & & < ; ; & @ = 5 S +.$.9 ; & < < < & & & & & < & & < < < ; ; ; < < < < < < < < < ; 1 9 R h a p < @ @ 9 $.' 9 < & & < & ; ; ; & & & ; & & & & & & ; ; < y < < < & & & & & & & ; ; ; ; < ; & ; ; ; & & & & & & & & & & & & & & & & & & & & & & + @ & @ @ & & & @ + o # & ; ; & & & ; < < < < d g 9 C -.=XhX9X(.V = & o o + & ; < < < < ; ; < < 1 1 1 < 1 p 1 1 < ; ; ; ; < < < < ; ; ; ; ; ; < ; ; < < < 1 1 1 1 < < < 1 u 1 1 1 1 6 ` ) 5 - 8 8 p p p p , < ; ; - 9 J V 5 : @ @ > > < - 2 E 7 = + & < y < < ; & & & & ; ; ; ; & & & & & & & $ & & + & & $ $ & @ & & & & & & & & & & & & & & & & & & & & & & & & & & # = D }.}.C = ; & & & & & & & & & & & & & & & & & & & & & & & & & & & + + & & + & & & & @ + o o % & # @ # % # o o . . . . . o o # # # & ",
"& & & & & & & @ % % & & & % % % & & & & & & & & @ > : : : < < ; & & & % + & : 8 9 8 1 > & % & & & & & & & & & & & & & & @ & @ : a a 9 1 ; @ & & & & & & < < ; ; & & & ; & ; < 9 a 8 > ; & & & @ < d d j d y < & & & & & ; < & & ; 4 C ..;.' 9 < < & & & < < ; ; & < < ; ; < < < ; ; < < < < < < < < < < ; : 1 1 , u < @ ; V $.' 9 ; & & < ; ; ; ; & & & & & & & ; ; ; $ ; 1 1 < < < ; < & & & < < < < < < < ; & & & & & & & & & & & & & & & & & & & & & & & & & & + @ & @ @ @ & & + + X @ & < < & & & < < < < < w 1 g V S [.rXrXOXU 2 > + o $ ; ; < 1 < < < < < 1 1 1 1 : 1 g 1 1 < ; ; ; & & & & ; ; & ; ; ; ; ; < ; ; < < 1 1 < 1 1 1 1 < y 1 1 1 < 6 ' ' 9 : 1 1 8 8 1 1 : < ; - 3 U t.@.S 2 = O = - 8 N } {.@.2 = < y < $ & < $ & & & ; ; ; ; & & & & & & & + & & + + & $ $ & & & & & & & & & & & & & & & & & & & & & & @ & & & & & # O S {.}.S = & & & & & & & & & & & & & & & & & & & & & & & & & & $ $ & & & # # & & & # # o + + # # @ @ o # % # # o . . . . . o o o o % ",
"& & & & & & & + & % & & & & % % & & & & & % % @ @ @ ; > ; ; < ; & & & % + ; 1 9 a a 1 > & & & & & & & & & & & & & & & & & & @ < 8 a a 1 ; @ & & & & ; & < < & ; & & & & @ @ ; 9 a 8 < ; & & & ; ; ; ; < 1 y < & & & & & & ; & & : V $.;.;.T 9 < ; & & & < < < & & & < ; ; < < < < < < < < < < < < < < < ; & < < > < ; + = 9 $.' 9 ; & & < ; ; ; ; & & & ; ; & < ; ; ; $ < y 1 < < & ; ; & & & < < < < < < < ; & & & & & & & & & & & & & & & < < & & & & & & & & & + @ & @ + @ & @ + o o + ; < ; & & & < < < < < u 8 g h V @.2XrX*X:.B : ; $ > < < < 1 < < < < < 1 1 1 1 1 p h 1 1 < ; ; ; & & & & & & & ; ; ; ; ; < ; ; < < 1 < < 1 1 y 1 < 1 1 1 < < 6 7.) 5 : 1 8 1 1 1 : = = - 5 U ].*X*X(.{ S B B Z U ;.XX&X@X| 3 8 < < & & $ + & < ; ; ; & & & & & & & & & & & & + + & $ $ & $ $ & & & & & & & & & & & & @ & & & @ + @ @ ; & & & & # $ S {.OX) - ; & & & & & & & & & & & & & & & & & & & & & & & & & $ $ & & & # # & & + # # # & & # # & & % % # # # o o . . . . . X o o # ",
"& & & & & & & + & & & & & & & & & & % % % o + + @ & & @ & ; ; ; $ & & % @ < 8 a J a , ; & & & & & & % & & & & & & & & % & & @ ; 1 a a 8 > @ & & & & & & ; < ; ; & & & & & @ < 9 a 8 > & & & & ; < ; ; < d y < & & & & & & & & < 6 T >.y.@.C 4 : < ; < < < < & & ; & & ; & & < < < < < < < < ; ; ; ; < < & & & & $ < & + = 9 ' ` 9 < & & < ; ; ; ; & & & ; ; ; ; ; ; > = : u 1 < ; & & ; & & & < ; ; ; ; & ; ; & & & & & & & & & & & & & & & < < & & & & & & & & & + @ & @ + @ @ + + o o $ < < < & & & ; < < < < : 8 8 r r C ;.$X*X}...7 , < < 1 < < 1 1 < < < < 1 1 1 1 1 p h 1 1 < ; ; & & & & & & & & & ; & & & & & < < < < 1 1 1 1 1 1 1 1 1 1 1 > 6 ' T 5 1 1 8 1 : 1 = = - 3 +.}.=XrXtX-X%XoXXX).).+X=X;X:X=XOX@.J - = & & # + & ; ; ; ; & & & & & & & & & & & + + + $ $ $ & & & & & & & & & & & & & & @ @ & & & + + @ @ & ; & & & # O C _.OX) - & & & & & & & & & & & & & + + + + + + & & & & & & & & & & $ & & # & & # # # @ & & & # # & % & & # & % + o X . X o o o o o ",
"& & & & & & & % & & & & & & & & & & % % % & & % & & & & ; ; ; & & & & & ; , a J a 8 < + % & & & & & % % % & & & & & & & & & & & < i i 8 = & & & & & & & & & & & & & & & & & ; 8 9 8 < & & & & & ; ; > 1 g g y & & & & & < ; < 8 K X.y. .S 5 8 1 < < & & < < & & & & & & & & < < < < < < < < < < < < < < ; ; ; ; & < & $ = J ' ` 9 ; ; ; < & & ; ; & & ; ; ; ; ; < ; > , a a : ; & ; & ; ; < & & ; & & & & & & & & & ; ; ; ; & & ; ; & & & & & & & & & & & & & & @ @ & & & @ @ & & # o + $ ; ; < & & & ; ; < ; ; < < 1 1 8 6 C ;..X.Xu.e._ 5 1 < < < y 1 1 1 1 1 : 1 1 , < 8 z 1 = < < & & & & & ; & & & & & & & & < & < < < < y : 1 1 1 1 1 1 1 1 1 1 i w.U 2 : 1 1 : = < = - 3 D OX9X:X-X-XiX:XdX:X;X;X:XiXpXiX:X=X.X$.6 > & X # + > = @ @ & & & & & & & & & & & & & & & & $ $ & & & & & & & & & & + + + + + + & & & @ + + @ @ @ & & & & O 7 ,.OX+.2 > & & & & & & $ & & & & & + + $ $ & & & & + + & & + + + + + + + # & + # @ & & & @ & & # + # & & & & & & # o o X X + + o . ",
"& & & & & & & & & & & & & & & & & & & % & & & & & & & $ > < ; & & + % @ < 8 a a i , & + & & & & & % % % % % % & & & & & & & @ & < 8 p 1 > & & & & & & & & ; & & & & & & & & ; 8 8 8 < & & & & @ & ; ; 1 h l y ; $ + % & ; < 6 J ..t.%.I 9 9 p p < < ; & < & & & & & & < & & < < < < < < < < < < < < < ; ; ; < ; ; < & & = J ' ` 9 < ; ; ; & & ; ; ; & ; ; & $ > < < , 7 K 9 > & & < ; ; ; ; ; & & & & & & & & & & ; ; ; ; ; ; & ; ; & & & & & & & & & & & & & & @ @ & & & & @ & & o o $ & & & < < ; ; & & & & ; ; < < u u 1 6 K $.B.5X5XB._ 5 : < < < < : > : 1 1 1 1 1 : 8 h e = ; > & & & ; ; ; ; & < & & & & & < ; < ; < < 1 : 1 1 1 1 1 < 1 8 , , a w.+.4 : : 1 = < < > 2 P [.;X:X:X-X-X:XiXpXiX:X:X-X:XiX:X=XXX;.&.a > # X X $ > = @ @ & & & & & & & & & & & & & & & & & & & & & & & & & & & & & & & & & & + + & & & & & & @ + $ & & O 3 >.OX%.2 > & & & & & & & & $ $ & & & & & & & & & & + # $ & + + + + + + + # & + # & & + # + + + + & & & & & & & & # o o o X + + o . ",
"& & & & & & & & & & & & & & & & & & & & & & & & & & & & ; ; ; & % + % & < , i p , < & & & & & & & & & % % & % % & & & & & & @ & < 8 p , > & & & & & & & & & & & & & & & & ; ; 8 9 8 < & & & & @ & & & y l l u < > > & & ; 4 B ..y.y.U V 8 1 8 u 1 < ; & & < & & & & ; ; & & < < < < < < < < < < < < < < ; ; ; ; ; < & & = J ' ` 9 < ; ; ; & & ; ; ; ; ; ; & ; > > 8 J J R 8 = & < < ; < ; ; < & & & & & & & & & ; ; ; ; & & & & ; ; & & & & & & & & & & & & & & & @ @ & & & & & & + O & & & & & ; ; ; & & & & & @ & < < < & O - E C.nXBXnXZ.( 4 1 1 : 1 1 : < 1 1 1 < < 1 6 h g ; @ ; ; & & & ; & & & < & & & & < < ; ; < < < < < 1 1 1 1 1 < u 9 8 : 4 &.*.5 ; ; < > > $ = C ].=X:X0X&X%X%X;X,X:X;X;X;X:X:X;X*X(.D m h h < # . # $ $ & & $ ; & & & & & & & & & & & & & & & & & & & & & & & & & & & & & & & & & & & & & & & & & @ + $ ; & $ 2 ;.$X>.2 > & & & & & & & & $ $ & & & & & & & & & & + # $ & + + + + + & + & & & + & & + + & + + & & & & + # # & & + # o o X o o o o ",
"& & & & & & & & & & & & & & % % & & & & & & & & % % & + & ; ; & % % % & < , , 1 < ; & & & & & & & & & & & & & & & & & & % @ @ & < 8 p , > & & & & & & & & & & & & & & & & ; ; 8 9 8 < & & & & @ & & & 1 h z w < ; ; ; < 8 C @.].{.*.V 4 : 1 p u , > ; & < < < < & ; < < ; ; ; < < ; < < < < < < < < < < ; ; ; ; < < & & = J ' ` 9 < ; ; < < & < < < ; ; ; & & > 1 J ' E 9 : > & < ; & & & & & & & & & & & ; & & & & ; ; ; & & & & & & & & & & & & & & & & & & & & @ + & & & & @ @ # + & & & & & & & & & & & & @ @ & ; < & # o 1 j.Y.!.bXT.L.B.B 3 4 8 8 8 1 1 1 1 1 < 1 1 6 h h : @ & & & & & & & ; ; < ; & & & < < ; ; < < < < < < : 1 1 1 1 1 8 8 1 4 $.;.5 ; < & & $ < 6 | +X;X:X*X-. .>.}.$X*X$XOXXXoX*X$X{.&.V 4 8 p : O O @ & & & & $ > > ; < & & & & & & & & $ $ & & & & & & & & & & & & & & & & & & & & & & & & & & & @ @ & & & & $ 2 @.$Xi.N = $ $ $ $ & & $ $ $ $ & & & & & & & & & & + + $ & + + + $ & & & & & & & & & & & & & & & & & & # # & & $ & # o . . . o o o ",
"& & & & & & & & % % % % % % % % & & & & & & & % % % % @ & & & & @ + % & < : : < @ @ @ & & & & & & & & & & & & & & & & & & + @ @ < 8 p , < ; $ & & & & & & & & & & & & & & ; ; 8 9 8 < & & & & @ & & & 1 h h 8 ; @ O = 9 I @.,.{.>.( 9 : : , i p < < ; & < < ; ; & & < < ; ; ; < < < ; ; < ; < < < < < < < ; ; ; < < & & = J ' ` 9 < ; ; < < & < < < ; ; & & ; : a ' 0.K : ; < < < ; & & & & & & & & & & & ; & & & & & & ; ; & & & & & & & & & & & & & & & & & & & + + & & & & + + @ & & & & & & & & & & & & & @ & & < > $ o o l D.Y.Q.F.F.5X5X .A m V m 3 5 1 1 , 1 , 1 , , z L 6 @ @ & & & & & & & & < ; & & & < < < < < < ; ; < < : 1 1 1 u 8 8 8 4 2 U >.5 < < & < = 5 U (.=XtX*X:.S V K T X. .X.X.| X.X...I E 9 p , , , 9 p = $ & & $ & > > < < < & & $ $ & $ $ $ $ & & & & & & & & & & & & & & & & & & & & & & & & & & + + & & & & + + - | OX{.V = $ $ $ $ & $ $ $ $ $ & & & & & & & & & & + + & & + $ $ & & & & & & & & & & & & + + & & & + + + + & & & & & o . . . . o # ",
"& & % & & & & & # # # % % & # & & & & % % & % % % % & @ & & & & @ @ & < 1 , < & + + @ % + + & & & & & & & & & & & & & & & + + @ ; , p 8 < ; $ $ & & & & & & & & & & & & & < < 9 9 8 > & & & & @ & & & 1 g g 8 : : : N U ;.(.,.@.( 9 : < < 8 a i < & & & < < ; ; & & ; ; ; ; ; < & & & ; ; ; < < < < < < < ; ; ; & < & ; = J $.` 9 < ; ; < < < < < < ; ; & < < 6 K e.$.N - ; ; < < ; & & & & & & & & & & & ; & & & & & & & & & & & & & & & & & & & & & & & & & & & + + & & < ; + o + & < ; & & & $ & & & & & & < < < < < & + O 1.J.U.F.c.k.K.4X$XXX(.o. .D B 3 2 2 : 1 < > , R ~ 6 ; = > < & & & & & & < < & & ; < < < < < ; > > < < : 1 1 1 p 8 r 8 : 2 D {._ 4 : = - N U -.%X;XrX].S R h 9 V K B K ` ` E N J a i 8 l u > , ~ 7.5 = @ ; & & & > < < < & $ $ $ $ & $ & & & & & & & & & & & & & & & & & & & & & & + + + & & & + + & & & @ + o = U OX{.B = $ $ $ $ & $ $ $ $ $ & & & & & & & & & + + + & & & @ + & & & # & & & + # & & + & & & + + # + & + + $ & & % # . . . . o % ",
"& & % % & & & & # + # % & & % & & & & & % % & % % % % + @ & & & $ $ > 8 9 6 < @ % % + % + # & & & & % & & & & & & & & & & & @ @ ; 1 8 8 < > $ & & & & & & & & & & & & & & ; = 9 a 8 > & & & & & & & ; 1 8 8 4 5 V I ..t.].y.+.K 8 1 < < < , a p < ; & & < ; ; ; & & < < ; ; < < & & & ; ; ; < < < < < < < ; ; ; & < < ; - J $.` 9 < ; ; < < < < < < ; ; & ; ; 7 ' u.U 5 : ; ; < ; ; & & & & & & & & & & & ; & & & & & & ; & & & & & & & & & & & & & & & & & & & @ @ & & ; ; & + + + & ; & & & & & & & & & & & < < < < ; & # @ a.U.U.x.3.k.B.1XrX:X;X&XoXOX(.o.} Z N 8 = = - J ` 6 ; > > < < < & & ; < < < < ; ; < < < < < > > > < < < 1 : 1 8 8 8 1 1 - Z {.*.m 3 N A ;.OX&X:XtX$X| V h g 8 8 8 8 a J R h 8 h h p , u y O , ~ p.$.4 = @ & & $ $ < < < & $ $ $ $ $ $ & & & & & & & & & & & & & & & & & & & & & & + & + + + + $ & & & & & % o O S OX}.Z > & $ $ $ & $ $ $ $ $ & & $ & & & & $ $ $ + + & & & & + & & & + & & & + # & & + & & & & + + & & & + $ & $ # # o . . . o # ",
"& & & % & & & & % % & & & & & & & & & & & % % % % % % + + @ & & > = 6 9 a i : @ % % + % $ & & & & & % % & & & & & & & & & & @ @ ; , 8 1 < > $ & & & & & & & & & & & & & ; > = 9 a 9 > & & & & & & & < 1 1 8 V I +.;.t.y.t.U J 1 < < < < < 1 p 8 < ; & & & & & & & & & & & & < < < ; < < < < < < ; ; ; < & & ; & & & < ; 1 K $.' 9 < ; ; < < < < < < ; ; & ; : B $.e.C 5 : ; & $ & ; & & ; ; ; ; & & & & & ; ; & ; ; < ; & & ; ; & & & & & & & & & & & & & & & @ + & < ; & & & & & & & & & & & & ; ; ; & & & & ; ; ; < & & # @ a.b.x.1.2.V.Z.<X0XaXaXpX:X;X;X&X&X).;.U 3 2 2 K +.V = < < < & < ; & < < < < < < ; ; < < < < ; > > < < < < : 1 , 8 g < < : C {.}.o.=.].oX&X:XiXiX+X;.C 9 g w 1 1 1 1 g 8 9 8 1 u 1 u 1 < $ $ < a t. X' - o & $ $ @ < < ; $ $ + + + + $ $ $ $ $ & & & & & & & & & & & & & & & & & & & & & $ & $ $ & & & & & % # O S }..XU : & & & $ & & & & & & & & $ + + + + + # + + $ & & & & & & $ & & & & & + + & & + + & & & & & & & & & & $ + # # # o o o . . ",
"& & % % % & & & % % % & & & & & & & & & & % % % % % % + + @ & ; > 6 7 J a 9 < + % % % % & & % % % % % % $ $ $ % % % % & & & @ @ $ 1 8 1 1 ; & & & & & & & & & & & & & & ; > : 9 a 9 > ; & & & & & & < ; : 9 K $.q.t.+.' K 6 : ; < < > < < 1 p 8 < ; ; & & & ; & & & & & & & & < < < < < < < < < ; ; ; < & & & & & & & = 1 K %.' 9 < ; ; < & & < < < ; & & ; 6 I %.' 9 8 : < < $ & ; & & ; ; ; ; & & & & & ; ; & ; ; ; ; & & ; ; & & & & & & & & & & & & & & & & & & < ; < < ; & & & & & & & & & ; ; & & & & & & & ; < & + + @ c 1.e k 2.C.Z.<X;XpXgXjXpX:XiXiXhX;X*XOX-.} { ;.y.U 2 - O & $ ; ; > ; < < < < < ; ; < < ; ; ; ; $ < < < < 1 1 u , 1 < & 1 N :.=X=X8X9X:X:XhXtX+X .C a p d q < : < < 1 1 8 1 1 1 > < < $ o > ; 1 ` p. XK = ; + + < < & & $ $ + + + + $ $ & & $ & & & & & & & & & & & & & & & & & & & & & & & & $ & & & & & & # O C }..XU : & & & $ & & & & & $ & & $ $ & + + + # + $ & & & & & & & $ & + & & + & & + & & & + & & & & & $ & & $ + + + # # # % o o o ",
"& & % % % & & & & & & & % % & & & & & & & $ $ $ % % % + @ @ & < , 9 J J a 8 < $ & & & % & % % % % % $ $ $ & % % % % % $ & & @ @ $ : 8 8 1 ; $ & & & & & & & & & & & & ; ; ; : 9 a 9 > ; & & & @ & & & & : J I ..T I N 8 ; < & * * & & < < , p 8 : ; ; & & & & & & & & & & & & & ; < < < < < < < ; ; ; < & & ; & & & & = 1 K q.' 9 < < ; < & & ; < < ; & ; < 6 Y $.K 9 : > < < & ; ; & ; & & & & & & & & & & ; ; & & < & & & & ; ; & & & & & & & & & & & & < & & & ; < < < < < < ; & & & & & & & ; ; & & & & & & & & ; & + + q f.d.h j.A.N.m.>.9XjXaXaXjXiXiXdXhX:X:X;X=XoXXX$X$X]. .I 7 = > < < > > > < < < < ; ; < < ; ; ; ; > < < < < < < 1 1 ; ; < 1 Z [.;XaXjXjX:X:X9XOX@.V r w 1 1 1 < < < < < 1 1 1 1 1 < < < & + ; < < 9 $.{.q.3 = O + < > $ $ $ + + + + + + $ & & & & & & & & & & & & & & & & & & & & & & & & & & + & & & $ & $ + + O B _..XT : & & & $ & & & & & & & & $ & & & + + + # & $ + & & & & & & & & + $ & + + $ + & & # & & & & & & & & + + + + & & & & % o o ",
"& & & % % & & & & $ % & % % & & & & & & & % % $ & & & & & & > 1 p a J a 8 : ; & & & & & & & % % % % % # % & % % % % & $ $ & @ @ $ : 8 p 1 ; $ & & & & & & & & & & & & ; ; < 1 a J 9 > ; & & & @ & & & @ : J Y Y J 1 < & & & & * & & & ; > , p 8 : ; ; & & & & & & & & & & & & & & & < < < < < ; ; ; ; < & & & & & & ; = 1 K q.' 9 < ; ; < < & ; ; < ; & < , N Y ( 9 1 < > < < ; ; ; & ; & & & & & & & & & & & ; & & < & & & & & ; & & & & & & & & & & & & < & & & < < < < < < ; ; & & & & & & & ; & & & & & & & & & ; & + @ d x.b.l.U.Y.j.E +.7XtX:X:XhX:X:X:X:X:X-X:X:X-X;X;X&X=X%XOXX.m 6 1 1 < > < 1 < < < ; ; ; ; < ; > ; < < < < < < < < < < < : 3 o.=XiXaXaXdX0X8X_.{ B 4 w < < 1 1 < < < < ; < < 1 1 y y & @ & # $ < $ = V ;..X| 2 = O < $ + + + + + + + + # # # % $ & & & & & & & & & & & & & & & & & & + & + + + + & & & + & > + + O m ,..X..: & & & $ & & & & & & & & & & & & & & $ + & & + & $ $ & & & & & & & & $ $ $ + & & # & & & & & & & + & & & & + # + & & # o ",
"% % % % & & & & $ $ # # % & % & & & & & & % & & & & & & & & ; , i J J 9 : ; & & & & & & $ $ $ $ % & & $ % % % % % % & $ $ & + @ $ : 8 p u < $ & & & & & & & & & & & & ; ; 1 8 a R 9 > ; & & & @ & & & @ 1 J Y J 1 & & ; < $ & & @ @ ; < ; : p 8 : < ; ; & & & & & & ; ; ; < & & & & & & < < < ; ; ; < < < & & & & < < = : K %.' 9 < ; ; < & & ; ; ; ; & ; 6 I ' V 6 1 > & < ; < ; ; ; ; & & & & & & & & & & ; ; & & & & & & ; & & & & & & & & & & & & & & ; & & < ; ; < < ; ; ; & & & & ; ; & & ; & & & & & & & & < ; & + @ w d.s.d.x.j.z 8 G ,.OXOX7X8X=X;X-X:X:X:XiXiX:XiX:X-X-X;X;X+X;.J , : 1 1 1 1 < < < ; ; ; > ; > > ; < ; < < < < 1 > : ; : 2 U +XiXfXjXiX9X3X=.U V 9 1 < < ; < 1 < < < ; ; & ; < < y 1 ; ; ; o + & + @ - I {..X) 9 = $ + + + + + + # + # # + % % & & & & & & & & & & & + $ & & & & & & # + # + & & & & & $ $ > $ + O 3 :..X.., & & & $ $ $ $ $ $ $ + & & & & & & & & & + + + + $ $ $ $ & & & & & & & & + $ + + + + + & & & & + # & & & & + o # & & # o ",
"% % & & & & & & # % % # % & % & % % & & & % % & & & & & & $ > , i a 9 8 ; & & & & & & & $ $ & & % & $ $ % % % % % % & $ & & + @ $ < 8 p u < $ & & & & & & & & & & & & & ; : 8 J R 9 > & & & & & & & $ $ : J ~ 9 > & & < < = ; ; & @ ; < ; 1 p 1 , < ; ; ; & & & & & ; ; ; < < & & & & & < < < ; < < < < & & & & & < < ; - K %.' 9 < ; ; < < & ; ; & ; ; = 9 ' ' 9 - y > $ & < ; ; ; ; ; ; & & & & & & & & & ; ; & & & & & & & & & & & & & & & & & & & & & & & ; < < ; < < ; ; & & $ $ & ; ; & & & & & & & & & & > < ; & + # < c a.a.c 8 h g E +.| +.| ;.(.OX+X%X&X;X0X:X:XhXdX:XhXdX:X,X*X+.V 2 , 1 1 1 1 < ; ; > > > $ > < < ; < < < < < < > 1 = - N ].;XpXtX9XwXOX{ V 9 r : < y ; ; < 1 < y < ; & & $ & < y y u y < O o & & ; 1 2 U }.<X$.3 < $ o o # # # # # + + + % % % & & $ $ & $ $ $ $ & + + & & & & & & o + + & & & & & & $ $ > $ + o 5 ;..X..: ; & & $ $ $ $ $ $ + + & & & & & & & & & + + + # $ $ $ $ & & & & & & & & & & # # & + + & & + + + + # + & & & & @ & & & # ",
"& & & & & & & % % & & & & & & # % % % % % % % % % + @ @ @ < , 9 a i 1 > O $ < < & & & & & % & & & & & & & & % % % % & & & & & & & > 1 p p : $ & & & & & & & & & & & ; ; > , i a i 8 @ @ & & & & & & & @ < J K a = @ & & & ; ; ; ; ; ; ; < 1 y 1 1 < ; ; < < < < ; ; ; ; ; < < < < & & & < < < & < & < & & & & & & & @ = 2 Y t.' 9 ; ; ; < < ; ; ; < & O - K $.E 8 ; > < & < ; ; & & & & ; ; ; & & & & & & & & & & & & & & & & & & & & & & & & & & & & & & $ & & & < & & & < & $ & & & & & & & & & & & & & & & & ; ; ; $ o o & s c v.s.h h 8 ^ ` ` K K K I U T ..;.}.$X*X=X,X;X-X;X:X:X:X:X%XO.Z 6 > < , 8 ; ; < 1 > < < < < < < ; < < < > ; < = : 7 @.+X;X8X_.@.$.K J p p 1 1 < < < ; ; < < < < ; ; & & < < < < ; < < $ $ & < & @ O - T .X@X;.2 = $ + o + o o + = , < & + o & & ; ; # @ & & $ $ @ + $ & $ & & & & & & & $ + $ @ ; < & $ $ $ # 2  .}.;.6 > $ $ & $ & & & & $ $ + + + + + + + & & $ + + + + + $ + # # # o # # # # + & + + $ + + + + + $ $ & + & & & & & & $ + & # ",
"& & & & & & & & % % % % + + % % % % % % % & & % % + @ + ; : 8 9 9 8 < $ $ $ & < & & & & & % % % % % % % & & % % & % $ & & % & & $ ; 1 p p 1 $ & & & & & & & & & & & ; ; : 9 a a 9 : @ @ & & & & & & & @ : J K a = @ & & & & & & ; ; < < < < 1 1 < < ; ; < < < < ; ; ; ; ; ; ; < < < & & < < & & < < < & @ & & & & ; @ = 2 ( t.' 9 ; ; ; < < < < < < ; = 4 ` ' a 1 $ ; ; & ; ; & & & & & ; ; ; & & & & & & & & & & & & & & & & & & & & & & & & & & & & & & & & & & < < & & < & $ $ < & & & & & & & & & & & & & & & & & $ # o + @ f a.s.c 1 8 h R J V 9 J R E ~ E I ) @.>.}.OX[.[.OX*X;X0XdXiX=X[.U 7 6 8 8 1 < < < < < < < < < < < < < < < ; < > - I }.=X8X_.S V J a 8 p u u < ; < & & ; < < < < ; ; < ; ; & & < < ; < < > O y < < ; = V t.|..X| N = o . . O O 6 L 0.L : @ o + + O O + & & $ $ $ @ @ $ $ $ $ & & & & & $ $ + $ = ; & & & $ O o 2 %.1X;.6 > $ $ & & & & & & $ $ + + + + + + + + + + $ $ & + + + $ # # # # # # # # # & & & + @ & & & & $ + + & & + + + & & # + & + ",
"& & & & & & & & & % % % + + & & $ & % % % & & % & & @ $ = 1 8 9 6 : ; $ $ $ & & & & & & % % % % % % $ & & & % % & $ $ & & % & & $ ; 1 p p : @ & & & & & & & & & & & & < , a a i 1 = @ & & & & & & & & @ : J K a = @ & & & & & & & < < ; < < < < < < ; & & & < < & & & & ; ; & & ; & & & & & < < & & < & & & & & & < & ; 6 ( t.' 9 < ; ; < < < < < < ; : 9 ` ` 9 : @ ; ; & ; ; & & & & & & & & & & & & & & & & & & & & & & & & & & & & & & & & & & & & & & & & & & & < < < < & $ & < & & & & & & & & & & & & & & & & & + # # + & ; w x g : 1 h 9 9 9 h h h R R R R R / E ( ) ) U U ;.$XtXiXjX:X9XOX .B 7 8 8 , < ; ; < ; < < 1 1 < ; ; < < > < - 2 =.*X9XOXU V a 9 9 9 8 1 1 1 < < & & & ; < < < ; < ; ; ; ; < < ; ; ; ; O O < < s < ; 2 K $.{..Xy.B - O O : 6 J ..p.p.K = O @ + + o & & & & $ @ @ @ + $ $ $ $ $ & & $ $ + + $ $ @ & & & $ O O 2 ;.@XO.6 > $ $ & & & & & & $ $ $ & & $ $ $ $ & $ $ + + + + + $ $ # # # + # # # @ # & & & + & & & & + + # # $ & & & & & & + + & + ",
"& & & & & & & & & % % % @ & & & $ & % % % & & % % & & > > , 8 8 : > & & & & & & & & & & & % % % % % # # & & & & & $ $ $ & % & & $ ; : p p : @ & & & & & & & & & & & & < p a h p > $ & & & & & & & & & @ : J L a = @ & & & & & & & & ; ; < < < < < ; ; & & & & ; & & & & ; ; & & & & & & < < < < & & & & & & & & & < & ; 8 ( t.' 9 < ; ; < < & & & & > 8 K ' J , < @ & & & & ; ; & & & & & & & & & & & & & & & & & & & & & & & & & & & & & & & & $ & & & & & & & & & & & < < < $ & < & & & & & & & & & & & & & & & & # # # # @ & @ ; < < ; 1 e 8 8 8 g g 8 8 a a a a E R V 9 r R C U >.@X=X-X:X:X:X%XO.Z 7 t , , < ; ; ; < 1 1 1 < < ; < < > , 7 D OX=X*X=.V 1 1 9 8 e , 1 < < < < & & & ; ; ; ; ; ; ; ; ; < < $ ; < ; $ & + O $ < ; @ = = 2 K %..X|...K 7 7 K J K '  Xu.7 O @ & + # & & @ & $ & @ @ + + $ $ $ $ & & $ + + + $ $ @ % & & $ O O 3 X.@X:.6 > $ $ & & & & & & $ $ & & & & $ $ $ & $ $ + + + # + + + # # # + # # @ & # + # + + + # & & & & & & + + + & + + + & & & & ",
"% & % & & & # & & & % % % % $ & $ $ % % & & & % % & & < 1 , , : ; @ & & & & & & & & & & @ $ % # & # # % & & & & % % & & % % & $ $ ; : p p : = & & & & & & & & & & & ; < i a a , = & & & & & & & & $ @ @ 1 J ~ a = $ & < ; & & & & & ; ; < < < < < ; & & & & ; ; & & ; & < < & & & < < < < & < < & ; & & & & & & & < & ; 8 ( u.' 9 < ; ; < < & & & = = 9 ` ` 9 - = + & & ; ; ; ; ; ; ; ; & & & & & & & & & & & & & & & & & & & & & & & & & & & & + $ $ & & & & & & & < < < < & $ & < & & & & & & & & & & & & & & & # # o # # $ O + & @ O = : 1 1 8 8 p p p p p p p a h h h g h h a E $.;.}.=X:XdXdX:X=X(.I 7 , 1 > < ; ; < < 1 1 < < ; < < - 7 P :.%X=XOX) a y u 1 w d < 1 1 < ; < & & & ; ; ; ; ; ; ; ; ; ; $ $ ; ; ; & & + $ < & + & ; @ ; 8 K t.@X@X X0.J 9 9 9 5 $.u.U - O O & & $ @ + @ $ $ & & + + + + $ $ $ $ + + + + $ $ @ + % $ $ O O 7 ;.@X,.6 > $ $ & & & & & & $ $ & & $ $ $ $ $ + + + & & & + + + + + + + $ @ + @ @ $ & $ & & & & + + + + & $ & & + + & & & & & & + ",
"% % % % & & % & & # % # % % $ & $ $ % % & & & & % & & < , , : ; & @ % % % % # # & & & & & + % % % % $ % & & & & & % & & % % % & $ ; : p p : = & & & & & & & & & & & ; < i a p < @ & & & & & & & & $ + @ 1 J ` a = $ & < ; & & & & & & ; ; < < < < ; & & & & ; ; & & ; ; < < & & ; & & < & & ; ; ; & & & & & & & & < & ; 8 ( u.' 9 < ; ; < < & & ; = - J ` E - = ; & & & & & & ; & ; ; ; & & & & & & & & & & & & & & & & & & & & & & & & & & & < + + $ & & & & & & & < < & < & $ & < & & & & & & & & & & & & & & & # o o o # $ + $ & + o < 1 1 p g g p p p p p 1 , p p g 9 a a a a E ` ) *.1X8X0XiXfXdX=X:.K 8 1 < < ; < < < < < < < ; ; ; 2 Z (.%X;X7X>.E g u 1 1 < < < < < < < < & & & & & ; ; & ; ; ; & & & & ; & $ & + + ; y < + $ > ; < 1 a ' u..X X0.9 1 8 8 8 9 U y.E - = ; > $ + @ @ @ $ & & + + + + + $ $ $ + + + O $ $ + # + > > $ $ 3 ;.@Xo.6 > $ $ & & & & & & $ $ & & & & & & & $ $ $ + + + + + + + + + $ + + & + + & + $ $ + & & & & + + + + $ + $ $ & & & & & & & ",
"% % % % & & & & & & $ # % # # & $ & % % & $ $ & & & & < 1 1 > & @ % % % % % % % & & % & + + & & & & & % & & # # % % & & % % & & & & > 8 p , = $ & & & & & & & & & & < 1 9 8 : ; & & & & & & & & & & & @ 1 J L 9 = @ & & & & & & & & < ; ; ; < < < > & & & & ; ; & < ; < < < & & ; ; ; & & < < ; ; < & & & & & & & < & = - ( %.' 9 = ; ; < < & & ; = 4 ~ ' a ; = $ + @ & & & & & & & & & & & & & & & & & & & & & & & & & & & & & & & & & & & & & $ $ & & & & $ $ $ & & & & & & & & & & & & & & & & & & & & & ; & & + o o % # + $ & # + @ 1 1 1 1 8 p p p p u u 1 u u 1 e e p p p a R E ( [ @._.%X0XgXfX:X+XX.N = = = ; > < < < y > ; @ = 4 B o.*X;X=X(.U h g u : < < y < < ; ; ; & & & & & & & & & & & & & & & & ; & & & & & ; < < < < $ $ < p i J E K K J 8 1 g p g 8 V u.B.N ; > = < & + O @ $ $ $ $ $ $ + + + + & $ + $ $ $ $ & & & < ; + O 3 X.}.@.6 $ $ < & + & & & & & & & & & & + + & & & & + + + + + + + + + + o + + & & $ $ + + + + + + + $ $ $ $ # # # # # # + + & & & ",
"% % % % & & & & & & $ $ % # # & $ & % % & $ $ & & & & < 1 < > & + % % % % % % % & & & & $ $ & & & & $ & & # # # % % & $ % % % & & & > 8 i , = @ & & & & & & & & & & < 1 9 , < & @ & & & & & & & & & & @ 1 J L 9 > @ & & & & & & & & & ; ; ; < < < > & & & & ; ; & & < < < < & & ; ; ; & & & < ; ; < & & & & & & & < & = - K %.' 9 = ; ; < < & ; ; - 9 ` ` 9 < ; @ + + & & & & & & & & & & & & & & & & & & & & & & & & & & & & & & & & & & & & & $ & & & & & $ $ $ & & & & & & & & & & & & & & & & & & & & & & & & # o % % # + $ + # + & 1 1 1 1 1 8 p p 8 1 1 : 1 1 1 8 e p 8 8 8 g h E E I +.,.*X0XiX:X;X+X@.N - = @ = : 1 < < = ; @ = m | OX=X9XOX| 9 8 p 1 : < > < < < ; ; & & & & & & & & & & & & & & & & & ; ; & & $ & & & ; > > O o ; u p 9 8 1 : 1 > < y u 1 : - ( p.%.6 = < & @ + O @ $ $ $ $ $ $ + + + + & $ + $ $ + + & & ; ; $ + O 3 ;.}.+., > > & & & & & & $ $ $ & & & + + + & & & & + + + + + + + + + & + + + + + + $ + + + + + + + $ $ $ & + # + + + + & & + & & ",
"& & % % & & & & & & & & % % % % # # % % & & & & & & $ < < < & & % % % % % % & & % & & & & @ & & & & & & # # # % % % & $ & % & & & $ > 8 i 8 > & & & & & & & & & & ; ; 1 8 1 ; & @ & & & & & & & & & & & : J K 9 = @ & & & & & & & & & ; ; ; < < ; ; & & & & & & & & < < & & & & & & & & ; ; ; ; ; & & & & ; & ; < < & $ - K %.` 9 = ; > < < < ; = 6 K ` J 8 ; > ; & # & & & & ; & & & & & & & & & & & & & & & & & & & & & & & & & & & & & & $ $ $ & & & & & $ $ $ & & & & & & & & & & & & & & & & & & & & & & & + o o + $ + $ + + + & < 1 1 1 1 1 1 1 , , 1 : < < 1 1 8 8 8 e 1 1 d e r r R K U @.).=X9X;X&X+X=.V - = < : 1 < O > = = 2 D [.=X;X$X@.5 6 8 p 1 : > $ $ < ; ; ; ; & & & & ; ; ; & & & & & & & ; ; & & & & > + @ & $ $ $ # # & < < < : < < < < < < < < = = 8 ..p.$.6 O $ + + $ $ $ $ $ $ $ $ + + + + $ $ + & + + + & < ; = $ $ = N ,.<X| , < > & & & & $ $ $ $ $ & $ + + + + + & $ $ + + + + + + + + + $ & $ $ + + + $ + + + + + + + + $ $ @ + @ $ & & & & + # # & ",
"& & % % & & & & & & & & & & % & $ # % % & @ & & & & $ < < & & & + % & & & & % & & & & & + @ % % & & & & # $ + + & % $ $ & % % & & + > 8 a 8 < & & & & & & & & & & ; ; < 1 < & & & & & & & & & & & & & @ : J K 9 = @ & & & & & & & & & & & ; < < ; ; & & & & & & & & & < & & & & ; & & & & & & & ; & & & & ; & ; < < $ $ - K %.( 4 = ; > < < < ; - 9 ( ' 9 : ; $ $ & + & & & < ; & & & & & & & & & & & & & & & & & & & & & & & & & & & & & & & $ $ & & & & & $ $ $ & & & & & & & & & & & & & & & & & & & & & & & + o o + & $ & + o + ; < 1 1 1 1 1 1 , , 1 : < ; < < < 1 1 1 1 y y d w e r h R J C ) _.+X=X&X=X+X;.B - : 1 > > = > = 2 S -.%X9X*X@.V 1 : 1 p 1 : ; & & ; ; ; ; ; < & & & & & & & & & & & & & ; ; & & & & ; $ & & & & o o o $ & & ; > > < < 1 u < ; & @ & 1 C u. XK = = + + = $ $ $ $ $ $ $ + + + + $ $ + & + + $ $ $ $ $ $ = - P }.1X) , > $ & & $ & $ $ $ $ $ $ + + + + + + + + + + + + + + + + + + + & + $ & + & & + + + + + + + + $ $ & & & & & & & & # + & & ",
"& & % % & & & & & & & & & % & & & & % % & @ & & & & $ & & & & & + # & & & % % % & & $ $ + $ # % # # & & # $ & & # # $ $ % % % & & + > 8 a p < & & & & & & & & & $ ; ; < < & @ + & & $ & & & & & & & & @ : J K 9 = @ & & & & & & & & & & & < < < ; & & & & & & & & & & & & & < < < & & & & & & & ; & & & & & & ; < < $ $ - K $.( 4 = > > < < & < , J $.' 8 = ; $ $ & + & & & & ; ; < & & ; ; & & & & & & & & & & & & & & & & & & & & & & & & $ & $ & & & & & $ $ & & $ ; & $ & & & $ $ & & & & & & & & & & & & & + o O $ & & + # + & < 1 1 1 1 1 1 1 1 1 , : < ; ; < ; < : 1 1 < < < 1 1 1 g g g g E ) >.+X=X;X&X+X;.3 - < > < 1 : 4 B >.+X=X8X:.B 1 < < 1 : 1 1 < & @ & & & & < < & & & & & & & & & & & & & ; & & & ; ; < & $ < & % X . + > = @ @ $ $ ; ; < 1 > O + + & : 2 T  Xp.V - $ + $ $ $ @ @ $ $ $ + + + + $ $ + & $ > > $ $ + + O = m ;.$X2X) , $ $ < & + + + + + + + + + + + + + + + + + + $ $ + + + + + + + + + & & & & $ + + + + + + + + + $ @ + & $ & & & & # + & & ",
"; & % % % & & & & & & & & & & & $ & % % % + @ & & & & & & & & + + + & & $ & & & & & & $ + + # % # # # # % % & & # # $ $ % % % & & + > 8 a p 1 & & & @ @ & & & & $ ; ; < & & @ @ & ; $ & & & & $ & & & @ < J K 9 = @ & & & & & & & & & ; & < < < < & & & & & & & & & & & & & < < < & & ; ; & & & & & & & & & & ; < ; $ $ - K $.( 4 = > > < > & < 6 K 0.Y , = ; $ $ $ + & & & & ; ; < < < ; ; ; & & & & & & & & & & & & & & & & & & & & & & & $ $ $ $ & & & & $ $ & & $ ; $ $ & & $ $ $ & & & & & & & & & & & & & O O ; < ; + # # & < 1 1 1 1 1 1 1 1 1 1 1 : < ; < : < < < < < < < 1 1 1 8 g 8 8 g g 8 C ;.OX=X;X;XOXI - ; & ; : 1 V +.@X=X&X}.S 4 1 < < ; @ ; < & & @ @ & & & ; < & & & & & & & & & & & & & ; & & ; ; & < & + $ & o X o @ & $ + @ $ ; & & & @ ; O @ & > > = 5 %.<Xt.7 = $ $ $ + @ @ $ $ $ + + + + $ + + & $ $ > > & + O O 2 I {.>X@XA , > $ & & $ + + + + + + + + + + + + + o + + + $ & + + + + + + $ + & & $ & $ $ + + + + + + + + + $ & + + + & & & & + # + + ",
"< & & & $ & & ; < < & & & + + + # + + + + @ + & & & & & & & @ & + + & & $ $ + $ & $ $ $ $ $ & & & & % % % # & & % % % & % % & & & + = , 9 a 1 ; & & & & & & & & & $ ; ; $ & & & & & & & & & & & & & & @ 1 J E 9 = @ & & & & & & & & & & & < < < < ; & & & & & & & & & & & ; < & & < < & & & & & & & & & & & & & & $ $ $ , K $.Y 6 = @ = : , - 2 B $.q.I : ; ; $ + + + @ & & ; ; ; & & & ; ; ; < & & & & & & & & & & & & & & & & & & & & & & & & & & & & & & & & & & & & & & & & & & & & & & & & & & & & & & & & # O 8 h ; # # # & < 1 1 : : : < < 1 1 1 1 1 1 < 1 1 < < < < < < < 1 1 1 1 8 p g g 8 1 9 E +.}.=X:X&XO.3 = $ $ = 7 ..[.=X8XOX) 9 , 1 < < ; @ & & & ; @ & & & & ; ; & & & & & & & & & & & & & & & & & & & & & + + + o o # & & $ @ & & & & @ & @ & + & & ; > + 1 K ;. X$.7 = $ + + + + $ $ $ $ + $ $ $ $ $ $ $ $ $ & & @ o = 7 %.@X>X@XZ - ; ; & & + + + + + + + $ & & $ & + + + + + + $ $ + + + + & & & & & $ + + + + + $ + # + + $ & $ & & + # + # + + + o + + + ",
"< & & $ $ $ > < 1 1 ; $ @ + + @ @ @ + + + % % % & & & & & & & % % # & & # # $ # & % $ $ % $ & & & % & & % # & & % % % & % & & & % + @ : 9 a 8 > & & & & & & & & & & ; & & & & & & & & & & & & & & & & = 1 J E 9 = @ & & $ & & & & & & ; & ; < < < ; & & & & & & & & ; & ; ; < & ; ; & & & $ & & & & & & & & & & & & & ; 1 K $.Y 6 = ; 8 V J C S X.].q.J : ; ; & & @ @ @ & & ; ; ; & & & ; ; < < ; & & & & & & & & & & & & & & & & & & & & & & & & & & & & & & & & & & & & & & & & & $ & & & & & & & & & & & & & # $ 9 K = o o & ; : 1 1 1 < < 1 1 1 1 1 1 1 1 1 1 < < < < < ; ; < < 1 1 1 1 u d p p 8 e 8 5 U }.rXrXoXS - > ; : S (.=XrXOX+.9 1 1 1 ; ; ; & & & & ; & & & & ; & ; & & & & & & & & & & & & & & & & & & & & & & & + O + + & & $ & & & & & & $ @ @ & & & & & & y 6 B ;.p.+.7 = $ $ $ $ & & & & & $ $ $ $ $ $ $ $ $ @ @ + O - C ].$X$X@XP - ; < & & @ + $ $ + + + & & $ & & $ + + + + + $ $ + + + & & & & & & & & $ $ + + $ + # & & & & $ $ + # # o o + @ + o & $ + ",
"< & $ + $ & ; < 1 < > $ @ @ & & & & & @ + % % & & & & & & & & % % # & & % % % % % % % % % % & & & % % & # % % % % % % & & & & & & + @ : 4 a 8 < & & & & & & & & & ; > ; $ & & & & & & & & & & & & & & = 1 K ~ 9 > @ & & $ & & & & & & ; & ; < < < ; & & & & & & & & ; ; ; ; & & & & & & & & & & & & & & & & & & & & & & , J $.( 7 7 K ' X.O.].[.@X.X$.4 : ; & & & + + @ & & ; ; & & & & ; < < < ; & & & & & & & & & & & & & & & & & & & & $ & & & & & & & & & & & & & & & & & & & & $ & & & & & & & & & & & & & # = a K = o # & < : : 1 1 < < < < < 1 1 1 1 1 1 1 < < < < ; ; ; ; ; < < < 1 1 < < u g r : : 5 | $X,X&X,.7 ; : 5 =.oX,X7X@.V 8 1 1 1 < ; ; & & & & & & & & & & & ; & & & & & & & & & & & ; ; & & & & & & & & ; & @ + + & & & & & & & & & & & & & & & & & & & y : 6 C *.i.+.3 = @ & & + @ @ @ + o + @ + $ $ $ + $ + + O = 7 ..y.:.}.<XD - ; & & & @ + $ $ $ $ & & $ $ $ $ + + + + + + & $ + + + & & & & & & & & & & + + $ + + & & & & & + + o + @ @ + $ + + & + + ",
"& & + + $ & ; < < ; & & & & & s < & & @ + % % & & & & & & & & % + # & & & % % % % % % % % % & & % % & & $ & + % & & % % % & & & & + @ < 6 a 8 < ; & & & & & & & & & $ & & & & & & & & & & & & & & & & = 1 J ~ 9 > @ & & $ & & & & & & & & ; ; < < ; & & & & & & & & & ; ; & & & & & & & & & & & & & & & & & & & & $ & @ , J $.' S T $.q.y.y.].}.}.>.I 2 < ; & & $ + + @ & ; ; ; & & & & ; < < < ; ; & & & & & & & & & & & & & & & & & & & $ $ & & & & & & & & & & & & & & & & $ & & & & & & & & & & & & & & & & o ; R J = # $ ; < : : 1 1 < < < < < 1 1 1 1 1 < 1 1 < < ; ; ; & ; ; ; < < ; ; ; < y g 1 1 0 e V :.+X%XOXU - 5 { `.=X7X>.B 4 1 1 1 < ; ; ; & & & & & & & & & & & ; & & & & & & & & & & ; ; ; & & & & & & < & < < $ + + & & & & & + & & & & & & & & & & & & & ; < : 8 K $.t.$.N = + + & & # # & & & & & & & & $ $ # # = 2 Z %.U Z >.{.D - & & & & @ + $ $ $ $ & $ $ $ $ + + + + + + + & $ + + + & & & & & & $ & + & + + & + + & $ & & + + + o + & & & $ $ $ $ $ & ",
"& & & $ $ & & ; ; & & & & & s s s < & @ + % % & & & & & & & & # + + # # # # # # & & & @ % & % % & & & % % % & & $ & % % % % & & & @ @ < , a a : < < < < < & & & & & & & $ $ & & & & & & & & & & & & & = 1 J E 9 = @ & & $ & & & & & & & & & ; ; ; ; & & & & & & & & & & & & & & $ $ $ & & & $ $ $ & & & & & & & & $ & @ : J $.+.....$.Y Y T ..+.+.U 5 = < ; ; & & @ + & & & ; ; ; ; & ; ; < < < ; & & & & & & & & & & & & & & & & & & & & & & & & & & & & & & & & & & & & & & & & & & & & & & & & & & & & & & + o 1 ~ J = + $ < : 1 , : 1 < < < < < < 1 1 1 < < < 1 < < < ; ; @ @ & ; ; ; @ & ; < < < < ; q w 9 U }.*X&X,.M { `.%X+X,.K 9 : : 1 < < ; ; & & & & & & & & & & & & & & & & ; ; ; & & & & ; ; ; ; ; ; & & & < & < < $ + $ & & ; < & + & & $ $ $ & & & & & & & < = > > 1 1 5 T t.*.K = O $ $ + + + # & & & & & & $ $ $ # > V Y Y 3 3 +.i.D - & @ @ @ & & & & & & & & & + + + + + # + + + $ $ + + + & & & + # # # # # + + + & + + $ $ $ $ + + + + + & & & $ & & @ & & ",
"& < < < & & & & & & & & & s s f d s & & + % % & & & & & & & & # + + # # # # # # & & @ @ % % % & & & & % % % & & % % % % % % & & & & @ = , a a 1 > > < < < ; $ & & & & @ & $ $ $ & & & & & & & & & & & = 1 J E 9 = @ & & $ & & & & & & & & & & & & & & & & & & & & & & & & & & & & & & & & & $ + $ & & & & & & & & $ & + - V $.%.U I J 2 1 8 4 9 9 8 : = < ; & & + + # & & & ; ; ; ; & ; ; < < < ; & & & & & & & & & & & & & & $ & & & & & & & & & & & & & & $ & & & & & & & & & & & $ & & & & & & & & & & & & + o 4 ` 7 = $ < < 1 1 , : 1 1 1 < < < < < < < < < < 1 < < < ; ; $ @ & & & & @ & & & & & & @ q w e 9 +.*X9X%X-.`.;X6X:.S a i , : < < < ; ; & & & & & $ & & & & & & ; & & & & ; ; & & & & & & & & & & & & & & & < < + + & $ & ; < & & & & & $ $ & & & & & & ; < < > < < ; = 2 U i.i.I 2 = = = = O O + $ $ $ O = = $ @ O , I T V - 2 ) <XU - $ + + @ & & & & & & & & + + + + + + # + + + $ $ + + + & & & + + + + + + + + + & + + $ $ & + + + + & & & $ & & ; & & & & ",
"; < < < ; & @ & @ @ @ & & s f j d s & & + % % & & & & & & & & # + + # # # # # # % % @ @ % % # # & & + % + # & & $ $ $ % & & & & & & @ = - a a , : : 1 < < < > $ & & @ @ $ $ $ $ & & & & & & & & & & & = 1 J E 9 = @ & & & & & & & & & & & & & & & & & & & & & & & & & & & & & & & & & & & & $ + $ & & & & & & & & $ & @ - J $.$.B 7 : $ < < < < < < < < < ; & & + + # @ & & & ; ; & & ; ; < < < ; & & & & & & & & & & & & & $ $ $ & & & & & & & + $ & & & & $ $ & & & & & & & & $ $ & & & & & & & & & & & & & o O 9 ] 9 = > < 1 1 1 1 1 1 1 1 < < < < < < < < < < < < < < ; & + + & & & & & & & & & & < < 1 g e g C }.9X;X%X=X=X}.D F h p p : < < ; ; ; & & & & & $ & & & & & & & & & & & & ; & & & & & & & & & & & & & & + & & O + & $ @ < < & & & & & $ $ & & & & & & & < < < < & ; ; : 5 T i.p.%.M m 7 7 7 7 3 3 3 3 3 3 2 2 - - 7 ..' 9 O = I p.%.- $ + # + & @ & & & & & & + + + + + + + + + + $ & + + + $ & $ & & $ $ $ $ & + + $ + + $ $ + + + + + & & & $ & ; < & & & + ",
"< 1 u y < ; & & & + + + & s f d d s & @ + % % % & & & & & & & # + + # # # + + + % & & @ % % & & & & # # # # & & $ $ % % & & & & & & + $ - 9 V 6 6 8 p 1 < < ; + + + $ + + & & & & $ & & & & & & & & & = 1 J K 8 = @ & & & & & & & & & & & & & & & & & & & & & & & & & & & & & & & & & & & & & & & & & & ; & & & & & & @ = J ' ` 7 : ; < y < < < < < < < < ; ; & & + + @ & & & < ; & < < < < < < ; & & & & & & & & & & & & & & & & & & & & & & & & & & & & $ & & & & & & & & & & + $ & & & & & & & & & & & & $ o O K 9.2 = 1 y , 1 : : 1 1 < < < < < < < < < < ; < < < ; ; & + & & & < < & ; & & & & < < 1 1 u g 1 N ;.%X:X;X=XXX+.N 4 u u 1 1 < < ; ; & & & & & & < < ; & & & & ; ; < < & & ; & & & & & & & & & & & & & & + & < $ + $ & & + & & & & + & $ + & + + + & & & & & & ; ; < 1 1 8 9 Y y.{.;.o.o.o.o.O.O.o.O.o.:.:.@.U S A ..q.K : O = V e.$.- $ @ @ & & @ & & $ $ & & $ & & & & & & & & & $ & & & & & & & + # + + + + + & $ $ $ $ $ $ + + & & $ & & & & & & & & & @ + ",
"< < 1 < < ; & $ & @ + + & s s d d < & @ + % % % $ & & & & & & # + + # # # & & @ % % $ $ $ & % & & # # # # $ $ & & & % % & & & & & & @ $ - 9 K K K J 9 , < ; & @ + @ ; & & & & & $ $ & & & & & & & & & = 1 J K 8 = @ & & & & & & & & & & & & & & & & & & & & & & & & & & & & & & & & & & & & $ $ & & & & & & & & & & & @ = J ' E 9 = & & < < < 1 , , 1 1 < ; & & & @ + @ @ & & < & & & < < < < ; ; & & & & & & & & & & & & & & & & & & & & & & & & + & & & & & & & & & & & & & & + & & & & & & & & & & & & & $ O = K ] 2 = y y , , < 1 1 1 1 < < < < < < < < < < < < ; ; & & & & & & & ; & ; & & & ; < 1 1 y u p 1 9 U +X:X;XXX| K 9 8 y y y < < ; ; ; ; & & & & & & & ; & & & & ; ; ; & & & & & & & & & & & & & & & & & & @ & & & + & & & & & & & & + & & $ $ $ & & & + & & & & & ; ; < 1 1 - 9 I +.:.].}.OX+X*X*XoXoXoXoXOX@X}._.].{.%.7 = o O 9 %.%.6 = $ @ @ @ @ & & $ $ $ $ $ $ & & & & $ & & & & & $ + $ & + & & + + + + + + $ $ $ $ $ $ + & & + + & & & & & & & + + & & & ",
"; < < < ; & & & & @ + + & < s d < < & @ + % % & $ & & & & & & # + + # # # & & & % % $ $ & & & % & # # # # # & & & & % % & & + & & & & $ - a ` $.$.Y J 6 : > @ @ & s d s < & $ $ $ & & & & & & & & & & = 1 J K 8 = @ & & & & & & & & & & & & & & & & & & & & & & & & & & & & & & & & & & & & & $ & & & & & & @ & & & & @ = J ' E 8 = ; ; < ; ; : 1 1 , 1 < ; & & & @ + @ @ & & ; & & & < ; < < ; ; & & & & & & & & & & & & & & & & & & & & & & & & + & & & & & & & & & & & & & & + & & & & & & & & & & & & & + O = Y ` 4 - 1 , , , < 1 1 < < < < < < < < < < < < ; ; ; & & & & @ & & & & & & & & & < < < 1 1 1 u p 8 K _.=X;X_.B 9 8 1 < < < < < ; ; ; ; & + + + & $ $ ; & & $ & & ; & & & & & & & & & & & & & & & & & & & @ & & & + & @ & & @ @ & @ & $ $ $ & & & & & + & % & & @ & & & > > > : : 3 Z @.{.@X@X$X*X+XoX$X2X}.]..X].}.{.' 6 > o O 8 %.q.9 = = @ @ @ & & & $ & $ $ $ $ & & & & $ $ & & $ & + # + + # + & $ + + + + + & $ $ $ + + + & $ + + & & & & + + $ + + + & & ",
"& ; ; ; & & & & & @ & @ & & & < < & & @ + % % & + & & & & & $ # + + # # # & & & % % % $ & & & % % % + + # # % % & % % % $ + + & & & & @ ; a ' $.%.' K a 8 : ; & d n a.n f & $ $ + & & & & & & & & & & = 1 J K 8 = @ & & & & & & & & & & & & & & & & & & & & & & & & & & & & & & & & & & & & & $ & & & & & & @ & & & $ + = J ' E 8 ; @ ; & & ; ; < < < < < ; & & & @ @ @ & & & ; & & < < < < < ; ; & & & & & & & & & & & & & & & & & & & & & & & & $ $ & & @ & & & & & & & & & & + + & & & & & & & & & & & & + o - ' ` 8 : 1 , , 1 < < < < < < < < < < < < ; < < & & & & & & & @ & & & & & & & ; ; ; ; ; < < 1 1 g 8 9 +.*X9XOXD 4 , 1 & < < < ; ; ; ; ; & + $ $ $ $ $ ; & $ $ & & & & & & & & & & & & & & & & & & & & & & @ & & & + & @ & & + @ @ @ & + $ $ $ & & + & + + + & & & ; ; & & < < < : 8 4 9 E ` Y U $.....$.$.T C E C S ) J , < # + : ' u.J - = = @ @ & % & $ $ # & $ $ & & & @ + + @ $ $ $ + # + + # + $ $ $ & & + + & & + + + + $ + + & & + @ @ @ @ @ + + $ $ $ & ",
"@ @ & & & & % % @ @ & @ @ & & & & & & @ + % % & @ & & & & @ $ # + + # # # & & & % % # # & & & & % % + + % & % % % % % % $ + + & & & + $ : a ` ( ( K K J a p , 1 c f.v.f.f & + $ + & & & & & & & & & & = 1 J K 8 = @ & & & & & & & & & & & & & & & & & & & & & & & & & & $ & & & & & & & & & $ & & & & $ & & @ & & & @ + = J ' E 8 ; & & < & ; ; ; & ; < < ; & & & + # + @ & & ; & & < < < < < ; ; & & & & & & & & & & & & & & & & & & & & & & & & + & & & & & & & & & & & & & & + + & & & & & & & & & & & & + o - $._ 8 1 1 , 8 : ; < < < < < < ; ; < < ; ; < & & & & & & & & & & & & & & & & ; ; & & & ; < : 1 g w 8 C }.9X=X,.V 1 : ; ; < < ; ; ; ; & & $ & & & & & ; & $ $ & & & & & & & & & & & & & & & & & & & & & & @ & & & + @ @ @ @ @ @ @ & & + $ & + $ + + & & $ $ $ & & $ > < ; < < 1 y g 1 1 1 8 9 9 9 6 9 6 6 4 1 1 - 9 9 a 1 y # + = I u.R , > ; @ @ & & & $ $ # & $ $ & & & & + + & $ $ $ $ + & & + & & & $ $ $ $ & + + + + + + & + + & & & @ @ @ + + + @ & $ $ & ",
"@ @ & @ @ % % % & + & @ + + @ & & & & @ & % % & & & & & $ & & # + + # # + % % & % % % & % % & & & & & & # # # + % % % % $ & & & & & + $ 1 a K V 9 5 9 a R R a a 5.l.z.f.x < + $ + & & & & & & & & & & $ 1 J J 8 = & & & & & & & & & & & & & & & & & & & & & & & & & & & & & & & & & & & & & & & & & & $ & & @ & & & + + = J ' E 8 & & & < < < ; & & ; < < ; & & & @ # + @ & & ; ; & & < < < < < ; & & & & & & & & & & & $ $ $ $ & & & & & & & & & $ $ & & & & & & & & & @ & & @ + + & & & & & & & & & & & & # O - $.( 1 1 u 1 , 1 ; < < < ; < < < < < < ; ; ; & & & & & & & & & & & < & $ & & & & & & & @ < < 1 j g 8 7 @.;X:X7XS : : < < < < ; ; ; ; & & & & & & & & ; & $ $ & & & & & & & & & & & & & & & & & & & & & & @ & & & + + & & + & & + & & + + & + + + + $ & & = $ & & & > > > < 1 < u u 1 1 u 1 1 g : < 1 1 1 1 $ O < 1 8 p u * o o O C e.~ , > ; @ @ $ & & + + # & & & & @ & & & & & & & & & & & & & & & & & & & & & + + + + + + + & & + + & @ @ + + + + & & ; ; & ",
"& @ & & & & % % & & & & & & & & & & & & % % % # + + & < ; $ + # # % & % % % % % & & & $ & & & & & & & & & % # # % % @ @ + + & & & & $ > 8 8 1 : ; : 1 8 9 9 h R ^ s.j.f.x & + + & + # # % $ & & & & & = 1 J K 8 = @ & & & & & & & & & & & & & & & & & & & & & & & & & & & & & & & & & & & & & & & $ & & & & @ & & & + @ - J ' K 8 ; & < < & < < ; & ; ; & ; & ; & @ + + @ & & ; ; ; < < < < < < ; ; & & & & & & & & & & & & $ $ & & & & & & & & $ $ # % % % & & & & & & & & # # % & & $ $ $ & & & + & & & + o O 2 +.( 2 8 1 < 1 < > > = < < < < < < & & & & & & & & & & & & & & & & & & & & & & & & & & & & ; ; < 1 g 9 T &X:X8X) - < ; ; > < < < & & & & & & & & & & & & & & & & & & & & & & & & & & & & & & & & & & + & & & & & & + & & & & & & + + $ & $ + & $ $ $ & & $ $ & & & $ & & $ $ $ < ; $ & < < < < < > < < $ + o O 1 > > y y < # o O 7 e.$.9 ; & @ + + # + + + % % & & & @ & & & & & & + + & & & & + & & & & & & + & & & @ & @ & + + + + + + & & & & & + + + + & & ",
"& & & & & & & & & & & & & & & & & & # % % % % # + $ ; : < > $ + % & # $ % % % % & $ $ $ $ & & & & $ & & $ $ & & % & & @ + + & & & & $ : p p < @ @ & ; < : 1 8 g c a.s.a.j < + + & # # # % % & & & & & = 1 J E 9 = & & & @ & & & & & & & & & & & & & & & & & & & & & & & & & & & & & & & & & & & $ $ $ & & & @ & & & + @ - J $.K 8 ; & ; < & < < ; ; ; & & & < < & @ O + @ @ & ; ; ; ; < < ; < ; ; ; ; & & & & & & & & & & & & & & & & & & & & & $ $ % % % % & & & & & & & & # # # & & $ $ $ & & & $ & & & + o O 7 >.) 2 , 1 < < < < < < < ; ; ; & & & & & & & & & & & & & & & & & & & & & & & & & & & & & & & < < < g 1 C XX9X8X+.2 ; ; < < < < < & & & & & & & & & & & & & & & & & & & & & & & & & & & & & & & & & & & & & & & + & & & & & & & + & & $ + $ & & & $ & & & $ $ & & & & $ & & & & $ $ & & & < < & & < < & & $ + $ u 1 < y < > & o o 2 w.*.V $ + + + + + $ + + % % & & & + $ $ & & $ & + + & & & & & & + + # + + + + @ @ + & + & & & & & & & + @ & @ + @ & + & & & ",
"% & & & & % % % % & & & & & & & & # # + % % % # $ ; : 8 8 , > $ % & $ # % % % % & $ $ $ & & & & & & & $ $ & & & % & & @ + + & & & & > , p 8 ; + @ @ $ = = < : 1 k 1.a.a.f & + + & & # # % % & & & & & = 1 K E 9 = & & & @ & & & & & & & & & & & & & & & & & & & & & & & & & & & & & & & & & & & $ $ $ & & & @ & & & + @ - J ' K 8 ; & ; ; & < < ; ; & & & & < < & @ O + + @ & ; ; ; ; < ; ; ; ; ; ; ; & & & & & & & & & & & & & & & & & & & & % & & % % % % & & & & & & & & # # # & & & & & & & & & & & & # o O 9 y.$.4 p u < < 1 1 < < ; ; ; & & & & & & & & & & & & & & & & & & & & & & & & & & & & & & & & < < < g 1 3 O.=X8X=.3 - ; < < < < < & & & & & & & & & & & & & & & & & & & & & & & & & & & & & & & & & & & & & & & + & & & & & & & & & < & & $ & $ & & & & & & & & & & & & & & & & & & + $ & & & $ & < < & & + o + y y < y < $ & + O - ( %.V O $ @ o + + $ $ & % % & & & & $ $ & & $ & + + & & & & & & & + & & & & & & & & & & & & & & & & & + & & & & & & & & & & ",
"% % & & & & % % % & & & & & & % & + + # # % % % $ < , a i 9 , > + + & & % % + + & $ $ $ & & & & & & & & % % & & % % + + + % & & & + > , p , = @ & & & & & ; ; < j c c b f & $ + & # # # % % & & & & & = 1 K E 9 = & & & @ & & & & & & & & & & & & & & & & & & & & & & & & & & & & & $ $ & & & & & & & & & & @ & & & + @ : J ' K 8 ; & ; < & < < ; ; & & & & < < & @ + + + @ & ; < < ; ; ; < < < ; ; ; ; & & & & & & & & & & & & & & & & & & & % & % % % & & & & & & & & & % # # # & & % % % % % & & & & & # o O J i.%.9 8 1 < < < 1 < < ; & & & & & & & & & & & & & & & & & & & & & & & & & & & & & & & & & & < < ; 1 < 2 } +X=X(.N - = < < ; < ; ; ; & & ; & & & & & & & & & & & & & & & & & & & & & & & & & & & & + + & & + & & + & & & & & & & & & & & & & $ & & & & & & & & & & $ & $ $ + $ $ & # + & & & $ & & & & & + o o 1 y y < > $ @ + O = V %.K = $ & + + + & & & % & & & & $ $ $ & & $ $ + + & & & & & & & & & & & & & @ @ @ @ @ @ & & & & & & & & @ & @ + $ & & & & ",
"% % % % % & % % % & & & & & % % & & + # # % & & & < 8 a a a 9 : > $ $ $ & % + + % & $ $ & % & & & & & & % % & % % % % @ % % & & & $ < 1 1 : ; & & & & & & & + & q d j d s & $ + + # # # % % & & & & & = 1 K E 9 = & & & @ & & & & & & & & & & & & & & & & & & & & & & & & & & & & $ & $ & & & & & & & & & & @ & & & + @ : J ' K 8 ; & ; ; & & ; ; ; & & & < < < & @ + # @ @ & ; < < ; ; < < < < ; ; ; ; & & & & & & & & & & & & & & & & & & & % & & % & & & & & & & & & & % # # # & & & % % % & & & & $ + # o = J i.q.V , 1 < < ; ; ; ; & & & & & & & & & & & & & & & & & & & & & & & & & & & & & & & & & & & < < ; ; < : S OX=XOXS - = > < ; ; ; ; & & & ; & & & & & & & & & & & & & & & & & & & & & & & & & & & & & & & & + & & & & & & & & & $ & $ & & & $ $ $ & & & & & & & & & $ $ $ & & & $ $ + & & & & $ & $ & & + + o @ < < < ; + $ & + o O 9 t.' - + + # # + & & & & & & & & & & $ & & $ $ + + & & & & & & & + & + + $ & @ & & & & @ & & & & & & < & & & & $ $ & & & & ",
"% % % % % % % & & & & & & & % & & & % # # @ @ & & 1 p 9 i p p 8 1 > > $ $ % % + % & & & & % & & & & & & & % % % % % & & & & & & $ ; < 1 1 < ; & & & & & % + & & < d d y y & & + + # # # % % & & & & & = 1 K E 9 = & & & @ & & & & & & & & & & & & & & & & & & & & & & & & & & & & & & & & & & & & & & & & & @ & & & & @ : J ' E 8 ; & & ; & & ; ; & & & & < < < & @ + # @ @ & ; < & ; ; ; < < < ; ; ; ; & & & & & & & & & & & & $ $ & & & & & # # % % & & & & & & & & & & % # # # & & & & & & & & & & $ + O O = J t.u.C - < < ; ; ; > $ & & & & & & & & & & & & & & & & & & & & & & & & & & & & & & & & & & & < < ; ; < : V {.;X+XU - = > > ; ; ; ; & & & & & & & & & & & & & & & & & & & & & & & & & & & & & & & & & & & & & & & & & & & & & & + $ & & $ + + $ $ & & & & & $ $ & & & $ $ $ $ $ $ + # & & & & & & & & & & # o & ; < y < & & & o o O 9 *.$.7 & + + # @ & & & & & & & & & & & & $ & & + + & & & & & & & & & & & $ & @ & & @ & @ & & & & & & & & & & & & & & & & & ",
"& & & & % % % % % % % % % % % % & & & & & + + & & < 1 : : , 8 p p p 1 > + @ % + # & & $ & % & & & & & & % % % % % % % & & & & & < 1 y 1 < > $ & & & & & % % & & < d d d < & + # + & & & % % % $ + & & = 1 K E 8 > + & & & & & & & & & & & & & & & & & & & & & & & & & & & & & & & & & & & & & & & & & & & & @ & & & + @ ; R ' E 8 ; & & ; & & ; ; & & & & & ; ; & & + + @ @ & ; & & ; ; < < < < ; ; ; ; & & & & & & & & & & & & & & & & & & & & & & & % & & & $ % % % & % # # # % & & & & & & & & & $ O O $ 1 p 9 ..u.T - ; < ; & @ & $ & & & & & & & & & & & & & & & & & & & & & & & & & & & & & & & & & & & & & ; q d : 3 :.=X*X+.- ; > < ; ; ; ; & & & & & & & & & & & & & & & & & & & & & & & & & & & & & & & & @ @ & & & & & & & & + + & & & & & & + + & & $ & & & & & & & & & & $ & $ $ $ & & & & & & & & $ & & & & # . + ; 1 y < & & + o # o - $.e.B = & @ @ @ & & & $ $ & & + & & + & + + + + + $ $ $ $ & & & & & & & & & + + @ + @ @ @ @ @ @ @ @ @ & & & & & & $ & & & ",
"& & & & & & % % % % $ & % % % % % % % % % + + & & ; < & ; < : 8 8 p u > $ + & + # & & $ $ & & & & & & & & & % % % % % % & # & ; < , u 1 ; & $ $ $ & & & & & & & < d d d < & + # # % # % % % & $ $ & & = 8 K E 8 > + & @ & & & & & & & & & & & & & & & & & & & & & & & & & & & & & & $ $ $ $ & & & & & & & & @ & & $ + + = R ' E 8 ; & & & & & ; ; & & & & & ; ; & & + + @ & & ; & & < < < < < < ; ; ; ; & & & & & & & & & & & & & & & & & & & & & & & # % % # # @ @ @ & # # # # % & & & & $ $ & & & & # O > p h 7 K u.$.- ; < ; & & & & & & & & & @ & & & & & & & & & & & & & & & & & & & & & & & & & & & & & & & & < d : 2 @.*X=X@.- @ & < < ; ; & & & & & & & & & & & & & & & & & & & & & & & & & & & & & @ @ & & @ @ & & & & + & & & + # + & & & & & & + & & & & & & & & $ & & & & $ & & & & & & % & & & & & $ & & & & # . + & < y < @ + + @ # o O T u.B = & & & & @ @ & $ $ & & + $ $ # + + + + + + & & & & & & + + + $ $ $ @ + + + + @ @ & & & & & & & & & & & & & & & & ; ",
"& & & & & & & & & % & % % % % % % % % % % + + & & & & & @ & ; : 8 8 1 > $ @ @ + # % $ # & % & & & & & & & % % % % % % % & # & ; < 8 u < $ + & & & & & & & & & & & y d y < & + # # & # # % % & & & & & = 8 E E 8 > + & @ & & & & & & & & & & & & & & & & & & & & & & & & & & $ & & & $ $ & & & & & & & & & & @ & & $ + + = J ' K 8 ; & & & & & ; ; & & & & & ; ; & & + + @ & & ; & & < < < < < < ; ; ; ; & & & & & & & & & & & & & & & & & & & & & & & # % % # # @ @ @ & # # # # % & & & & $ $ $ & & # # o > p 8 2 V 0.e.2 > < ; @ & & & & & & & $ @ & & & & @ @ & & & & & & & & & & & & & & & & & & & & & & & & & & ; 1 1 2 } +X8X:.5 @ & < < ; < & & & & & & & & & & & & & & & & & & & & & & & & & & & & & & @ & & @ @ & + & & & & & & & + + & & & & & & + & & & & & & & & $ $ & & & $ & & & & & & % & & & & & & & & & % o . o & < y ; + + & & # o O K u.P - + & & @ @ @ & $ $ & & + $ & + + + + + + + & & & & & & + + + $ & & @ + + @ @ @ + & & & & & & & & & & & & & & $ $ & ",
"& & & & & & & & & & & & & & & % % % & & & + @ & & & & & + + @ < 1 8 1 : ; @ @ + % % & % & & & & & & & & % % % % % % % % & + & ; : p p ; + @ & & & & & & & & & & & < y < & & $ $ + & & & % & & & & & $ = 8 K E 8 > + & @ & & & & & & & & & & & & & & & & & & & & & & & & & & $ $ $ & & $ & & & & & & & & & & @ & & & @ @ = J ' K 8 ; & & & & & ; ; & & & & & & ; & & + + + @ & ; & < ; < ; ; < ; ; ; ; & & & & & & & & & & & & & & & & & & & & & & & % & % % # & @ + & & # # # # % & & & & $ $ $ & & + o o < u 1 - 4 ' *.7 > > ; @ @ & & & & & & @ & & & & & @ @ & & @ @ @ @ @ @ & & & & & & & & & & & & & & & & & & & < : - Z [.8X_.V $ & < < ; & & & & ; & & & & & & & & & & & & @ & & & & & & & & & & & & & & & @ @ @ + + & & & & & & + + & & & & & & & + & & $ $ $ $ & & & $ & & + $ @ @ & & & % % % % & & & + & & & + o . . @ < < & + @ & & + o O V u.@.2 $ & & @ @ @ % $ $ & & & & $ + & & $ $ @ + & & $ & & & & $ & & & & @ @ @ @ @ + + & & & & & @ $ @ & & & & & & & & & ",
"& & & & & & & & & & & & & & & & & & & & & & & & & & & & % % + ; < , 8 1 < @ @ @ % & % & & & & & & % & % % % % % % % % % & + & ; : 9 p < @ & & & & & & & & & & & & & & & $ $ $ & & & & & & & & & & & $ = 8 K E 8 > + & @ & & & & & & & & & & & & & & & & & & & & & & & & & & $ $ $ & & & & & & & & & & & & & @ & & & & @ = a ( K 8 ; & & & & & ; ; & & & & & & ; ; & + + + & & ; & & ; ; ; ; ; ; ; ; ; & & & & & & & & & & & & & & & & & & & & & & & & % % # % % % & & & # # # # % & % % & & $ & & % + X o & < : = : K e.J , > ; @ & & $ & & & & @ & & & & & & @ @ & @ & @ @ @ @ & & & & & & & & & & & & & & & & & & & < < = N ].=XOXU = $ < ; ; & & & & & & & & & & & & & & & & & @ & & & & & @ & & & & & & & & & @ @ @ & & & & + & & & & & & & & & + & & + & & $ + + + + + + + + + @ @ @ @ & & & % % % % & & & + & & & + o . . + < < @ @ @ & + # o O 6 *.;.5 = $ & @ @ + & $ & & + & & + & & & & & & & & & $ $ & & & & & & & & @ @ & & & & & + + + + @ @ $ & & @ + $ + $ & & ; ",
"& & & & & & & & & & & & & & & & & & & & & & & & & & & & & & & & ; : 8 8 < @ @ @ % % % & & % & & % % % + % % % % % % % % % + & ; : 9 p < & + & & & & & & & & & & & & & + + + $ & & & & & & & & & & & + ; 8 E R 8 > + & @ & & & & & & & & & & & & & & & & & & & & & & & & & & $ $ $ $ $ $ & $ $ & & & & & & & @ & & & & @ = a ( K 8 ; & & & & & & ; & & & & & & ; ; & + @ @ & & ; & & ; ; ; > > ; ; ; ; & & & & & & & & & & & & & & & & & & & & & & % % % % # % % % & & & # # # # & & % % & & & & % % X . + & > < ; = V *.` 6 > ; @ & & $ & & & & & @ @ @ @ @ @ @ @ & & & & & & & & & & & & & & & & & & & & & & & & & & < < ; 7 ;.*X3X| - $ > ; ; & & & & & & & & & & & & & & & & & @ @ & @ @ @ @ @ & & & & & & & @ @ @ @ & + + & & & & & & & $ $ $ & + & $ + $ + + + + + + + + + + + + & & & & & & % + % % & & & + + & % + o o o o & & @ & @ & & $ o O - @.,.V > $ & @ @ + % $ & $ + & + + $ & & & & & & $ $ $ $ + + @ & & & & & & & & & & & & @ @ & & & & & & & + + $ $ $ & & & "
};
